;FLAVOR:Marlin
;TIME:19880
;Filament used: 15.6261m
;Layer height: 0.2
;MINX:43.56
;MINY:28.948
;MINZ:0.24
;MAXX:176.459
;MAXY:171.062
;MAXZ:20.09
;Generated with Cura_SteamEngine 4.7.0
M140 S60
M105
M190 S60
M104 S210
M105
M109 S210
M82 ;absolute extrusion mode
; Ender 3 Custom Start G-code
G92 E0 ; Reset Extruder
G28 ; Home all axes
G1 Z2.0 F3000 ; Move Z Axis up little to prevent scratching of Heat Bed
G1 X0.1 Y20 Z0.3 F5000.0 ; Move to start position
G1 X0.1 Y200.0 Z0.3 F1500.0 E15 ; Draw the first line
G1 X0.4 Y200.0 Z0.3 F5000.0 ; Move to side a little
G1 X0.4 Y20 Z0.3 F1500.0 E30 ; Draw the second line
G92 E0 ; Reset Extruder
G1 Z2.0 F3000 ; Move Z Axis up little to prevent scratching of Heat Bed
G1 X5 Y20 Z0.3 F5000.0 ; Move over to prevent blob squish
G92 E0
G92 E0
G1 F1500 E-7
;LAYER_COUNT:95
;LAYER:-6
M107
G0 F9000 X60.645 Y52.49 Z0.24
;TYPE:SUPPORT-INTERFACE
G1 F1500 E0
G1 F1125 X60.891 Y52.209 E0.02981
G1 X61.947 Y51.036 E0.1558
G1 X62.223 Y50.74 E0.18811
G1 X62.222 Y50.739 E0.18822
G1 X63.301 Y49.613 E0.31271
G1 X63.583 Y49.328 E0.34471
G1 X64.661 Y48.263 E0.46567
G1 X64.734 Y48.194 E0.47369
G1 X64.928 Y48.016 E0.49471
G1 X65.104 Y47.846 E0.51424
G1 X66.089 Y46.933 E0.62145
G1 X66.432 Y46.625 E0.65825
G1 X67.55 Y45.649 E0.77671
G1 X67.871 Y45.376 E0.81035
G1 X69.044 Y44.41 E0.93165
G1 X69.402 Y44.125 E0.96818
G1 X70.595 Y43.203 E1.08853
G1 X70.916 Y42.962 E1.12057
G1 X72.189 Y42.038 E1.24614
G1 X72.548 Y41.785 E1.28119
G1 X73.815 Y40.922 E1.40356
G1 X74.202 Y40.667 E1.44056
G1 X75.481 Y39.852 E1.56162
G1 X75.854 Y39.621 E1.59664
G1 X77.115 Y38.868 E1.71388
G1 X77.5 Y38.645 E1.7494
G1 X78.788 Y37.927 E1.86711
G1 X79.198 Y37.706 E1.90429
G1 X80.547 Y37.006 E2.0256
G1 X80.95 Y36.805 E2.06155
G1 X82.303 Y36.153 E2.18144
G1 X82.708 Y35.965 E2.21708
G1 X84.091 Y35.349 E2.33794
G1 X84.512 Y35.169 E2.37448
G1 X85.954 Y34.58 E2.49882
G1 X86.48 Y34.376 E2.54386
G1 X87.764 Y33.896 E2.65328
G1 X88.142 Y33.759 E2.68537
G1 X89.568 Y33.272 E2.80566
G1 X90.193 Y33.071 E2.85807
G1 X90.925 Y32.846 E2.91919
G1 X90.925 Y32.851 E2.91959
G1 X91.493 Y32.671 E2.96716
G1 X91.915 Y32.55 E3.0022
G1 X93.349 Y32.154 E3.12095
G1 X93.729 Y32.055 E3.1523
G1 X95.272 Y31.679 E3.27907
G1 X95.667 Y31.589 E3.31141
G1 X97.191 Y31.265 E3.43578
G1 X97.62 Y31.181 E3.47068
G1 X99.036 Y30.923 E3.58557
G1 X99.086 Y30.916 E3.5896
G1 X99.515 Y30.844 E3.62432
G1 X101.024 Y30.618 E3.74612
G1 X101.42 Y30.564 E3.77802
G1 X102.929 Y30.381 E3.89936
G1 X103.442 Y30.328 E3.94053
G1 X104.856 Y30.202 E4.05385
G1 X105.374 Y30.163 E4.09531
G1 X106.869 Y30.074 E4.21486
G1 X107.323 Y30.054 E4.25114
G1 X108.829 Y30.01 E4.3714
G1 X109.322 Y30.003 E4.41076
G1 X110.75 Y30.004 E4.52475
G1 X111.244 Y30.011 E4.56419
G1 X112.708 Y30.055 E4.6811
G1 X113.187 Y30.076 E4.71938
G1 X114.674 Y30.166 E4.83829
G1 X115.107 Y30.199 E4.87296
G1 X116.63 Y30.336 E4.99502
G1 X117.044 Y30.378 E5.02824
G1 X118.574 Y30.563 E5.15126
G1 X119.016 Y30.623 E5.18686
G1 X120.498 Y30.847 E5.30651
G1 X120.933 Y30.919 E5.3417
G1 X122.425 Y31.189 E5.46273
G1 X122.848 Y31.273 E5.49716
G1 X124.399 Y31.603 E5.62374
G1 X124.828 Y31.702 E5.65888
G1 X126.253 Y32.05 E5.77598
G1 X126.658 Y32.156 E5.80939
G1 X128.156 Y32.569 E5.93343
G1 X128.605 Y32.701 E5.97079
G1 X130.022 Y33.138 E6.08916
G1 X130.427 Y33.27 E6.12316
G1 X131.832 Y33.75 E6.24168
G1 X131.848 Y33.757 E6.24307
G1 X132.296 Y33.917 E6.28104
G1 X133.639 Y34.421 E6.39555
G1 X134.066 Y34.589 E6.43218
G1 X134.245 Y34.661 E6.44758
G1 X135.575 Y35.208 E6.56237
G1 X135.983 Y35.382 E6.59778
G1 X137.293 Y35.966 E6.71227
G1 X137.709 Y36.159 E6.74888
G1 X139.084 Y36.823 E6.87076
G1 X139.451 Y37.005 E6.90346
G1 X140.799 Y37.705 E7.02471
G1 X141.146 Y37.892 E7.05617
G1 X142.527 Y38.662 E7.18239
G1 X142.889 Y38.871 E7.21576
G1 X144.189 Y39.648 E7.33665
G1 X144.583 Y39.892 E7.37364
G1 X145.841 Y40.695 E7.49278
G1 X146.212 Y40.94 E7.52827
G1 X147.482 Y41.806 E7.65097
G1 X147.849 Y42.065 E7.68683
G1 X149.07 Y42.951 E7.80725
G1 X149.415 Y43.21 E7.84168
G1 X150.609 Y44.135 E7.96225
G1 X150.942 Y44.4 E7.99622
G1 X152.11 Y45.36 E8.11691
G1 X152.451 Y45.649 E8.15259
G1 X153.592 Y46.645 E8.27349
G1 X153.925 Y46.945 E8.30926
G1 X154.976 Y47.92 E8.4237
G1 X155.335 Y48.259 E8.46311
G1 X156.467 Y49.378 E8.59017
G1 X156.744 Y49.659 E8.62167
G1 X157.796 Y50.759 E8.74317
G1 X158.121 Y51.11 E8.78135
G1 X159.132 Y52.233 E8.90197
G1 X159.131 Y52.234 E8.90208
G1 X159.392 Y52.533 E8.93377
G1 X160.367 Y53.682 E9.05405
G1 X160.669 Y54.049 E9.09199
G1 X161.644 Y55.276 E9.2171
G1 X161.902 Y55.61 E9.25078
G1 X162.812 Y56.826 E9.37202
G1 X163.075 Y57.189 E9.4078
G1 X163.915 Y58.382 E9.52427
G1 X164.161 Y58.743 E9.55914
G1 X164.992 Y60.003 E9.67963
G1 X165.236 Y60.385 E9.71581
G1 X166.053 Y61.708 E9.83993
G1 X166.251 Y62.039 E9.87072
G1 X167.008 Y63.35 E9.99156
G1 X167.226 Y63.74 E10.02723
G1 X167.946 Y65.079 E10.14858
G1 X168.147 Y65.468 E10.18354
G1 X168.849 Y66.873 E10.30891
G1 X169.02 Y67.227 E10.34029
G1 X169.677 Y68.647 E10.46519
G1 X169.835 Y69.002 E10.4962
G1 X170.409 Y70.348 E10.61301
G1 X170.435 Y70.415 E10.61875
G1 X170.596 Y70.799 E10.65198
G1 X171.145 Y72.194 E10.77165
G1 X171.308 Y72.63 E10.80881
G1 X171.818 Y74.056 E10.9297
G1 X171.959 Y74.466 E10.96431
G1 X172.425 Y75.9 E11.08467
G1 X172.56 Y76.338 E11.12125
G1 X172.983 Y77.788 E11.24182
G1 X173.096 Y78.197 E11.2757
G1 X173.479 Y79.668 E11.39703
G1 X173.588 Y80.115 E11.43376
G1 X173.923 Y81.581 E11.5538
G1 X174.015 Y82.009 E11.58874
G1 X174.307 Y83.494 E11.70955
G1 X174.387 Y83.935 E11.74533
G1 X174.635 Y85.428 E11.86614
G1 X174.699 Y85.857 E11.90076
G1 X174.7 Y85.871 E11.90188
G1 X174.712 Y85.944 E11.90779
G1 X174.904 Y87.366 E12.02233
G1 X174.961 Y87.847 E12.06099
G1 X175.121 Y89.393 E12.18506
G1 X175.158 Y89.801 E12.21776
G1 X175.268 Y91.256 E12.33424
G1 X175.297 Y91.754 E12.37406
G1 X175.362 Y93.215 E12.4908
G1 X175.375 Y93.654 E12.52586
G1 X175.395 Y94.979 E12.63163
G1 X175.395 Y95.094 E12.64081
G1 X175.375 Y96.045 E12.71674
G1 X175.366 Y96.206 E12.72962
G1 X175.281 Y97.088 E12.80035
G1 X175.256 Y97.287 E12.81636
G1 X175.111 Y98.143 E12.88566
G1 X175.077 Y98.309 E12.89919
G1 X174.862 Y99.187 E12.97134
G1 X174.814 Y99.353 E12.98514
G1 X174.537 Y100.208 E13.05688
G1 X174.477 Y100.374 E13.07097
G1 X174.149 Y101.177 E13.14021
G1 X174.061 Y101.372 E13.15729
G1 X173.69 Y102.122 E13.22408
G1 X173.586 Y102.315 E13.24158
G1 X173.149 Y103.057 E13.31032
G1 X173.046 Y103.218 E13.32557
G1 X172.526 Y103.969 E13.39849
G1 X172.432 Y104.094 E13.41097
G1 X171.877 Y104.781 E13.48147
G1 X171.771 Y104.904 E13.49443
G1 X171.197 Y105.526 E13.562
G1 X171.053 Y105.668 E13.57814
G1 X170.392 Y106.294 E13.65081
G1 X170.239 Y106.428 E13.66705
G1 X169.546 Y106.995 E13.73852
G1 X169.431 Y107.081 E13.74998
G1 X168.674 Y107.612 E13.82379
G1 X168.553 Y107.691 E13.83533
G1 X167.788 Y108.147 E13.90642
G1 X167.617 Y108.24 E13.92196
G1 X166.819 Y108.641 E13.99325
G1 X166.676 Y108.706 E14.00579
G1 X165.85 Y109.047 E14.07712
G1 X165.671 Y109.113 E14.09235
G1 X165.06 Y109.385 E14.14574
G1 X164.475 Y109.738 E14.20028
G1 X163.94 Y110.162 E14.25477
G1 X163.462 Y110.651 E14.30935
G1 X163.05 Y111.195 E14.36383
G1 X162.711 Y111.788 E14.41835
G1 X162.449 Y112.417 E14.47274
G1 X162.268 Y113.076 E14.52729
G1 X162.171 Y113.753 E14.58189
G1 X162.162 Y114.435 E14.63633
G1 X162.237 Y115.114 E14.69086
G1 X162.398 Y115.777 E14.74532
G1 X162.644 Y116.421 E14.80035
G1 X163.128 Y117.265 E14.87802
G1 X163.921 Y118.392 E14.98802
G1 X164.165 Y118.75 E15.0226
G1 X164.996 Y120.009 E15.14302
G1 X165.24 Y120.392 E15.17927
G1 X166.057 Y121.715 E15.30339
G1 X166.255 Y122.046 E15.33418
G1 X167.012 Y123.357 E15.45502
G1 X167.226 Y123.74 E15.49004
G1 X167.946 Y125.078 E15.61133
G1 X168.15 Y125.473 E15.64682
G1 X168.801 Y126.775 E15.76301
G1 X169.053 Y127.297 E15.80928
G1 X169.659 Y128.606 E15.92443
G1 X169.838 Y129.009 E15.95963
G1 X170.409 Y130.346 E16.07568
G1 X170.43 Y130.402 E16.08045
G1 X170.601 Y130.81 E16.11577
G1 X171.149 Y132.204 E16.23533
G1 X171.324 Y132.676 E16.27551
G1 X171.823 Y134.073 E16.39393
G1 X171.961 Y134.474 E16.42778
G1 X172.427 Y135.908 E16.54814
G1 X172.562 Y136.344 E16.58457
G1 X172.985 Y137.796 E16.7053
G1 X173.1 Y138.211 E16.73967
G1 X173.481 Y139.676 E16.86051
G1 X173.589 Y140.117 E16.89675
G1 X173.925 Y141.588 E17.01719
G1 X174.018 Y142.027 E17.05301
G1 X174.31 Y143.513 E17.1739
G1 X174.388 Y143.943 E17.20879
G1 X174.636 Y145.436 E17.3296
G1 X174.7 Y145.865 E17.36422
G1 X174.701 Y145.879 E17.36534
G1 X174.713 Y145.952 E17.37125
G1 X174.901 Y147.339 E17.48298
G1 X174.961 Y147.845 E17.52365
G1 X175.12 Y149.376 E17.64652
G1 X175.155 Y149.767 E17.67785
G1 X175.268 Y151.271 E17.79825
G1 X175.294 Y151.712 E17.83351
G1 X175.362 Y153.223 E17.95425
G1 X175.375 Y153.684 E17.99106
G1 X175.395 Y154.977 E18.09429
G1 X175.395 Y155.092 E18.10347
G1 X175.375 Y156.045 E18.17956
G1 X175.366 Y156.207 E18.19251
G1 X175.281 Y157.089 E18.26324
G1 X175.256 Y157.284 E18.27893
G1 X175.111 Y158.142 E18.34839
G1 X175.075 Y158.322 E18.36305
G1 X174.865 Y159.172 E18.43294
G1 X174.814 Y159.352 E18.44787
G1 X174.54 Y160.199 E18.51893
G1 X174.474 Y160.377 E18.53409
G1 X174.154 Y161.165 E18.60198
G1 X174.06 Y161.373 E18.6202
G1 X173.678 Y162.145 E18.68895
G1 X173.587 Y162.314 E18.70427
G1 X173.156 Y163.046 E18.77208
G1 X173.046 Y163.218 E18.78838
G1 X172.527 Y163.968 E18.86118
G1 X172.433 Y164.093 E18.87367
G1 X171.878 Y164.78 E18.94417
G1 X171.772 Y164.903 E18.95713
G1 X171.197 Y165.526 E19.0248
G1 X171.053 Y165.668 E19.04095
G1 X170.392 Y166.294 E19.11362
G1 X170.239 Y166.428 E19.12985
G1 X169.546 Y166.995 E19.20133
G1 X169.431 Y167.081 E19.21279
G1 X168.674 Y167.612 E19.2866
G1 X168.553 Y167.691 E19.29814
G1 X167.788 Y168.147 E19.36923
G1 X167.617 Y168.24 E19.38476
G1 X166.819 Y168.641 E19.45605
G1 X166.676 Y168.706 E19.46859
G1 X165.852 Y169.046 E19.53975
G1 X165.669 Y169.115 E19.55536
G1 X164.823 Y169.394 E19.62647
G1 X164.686 Y169.434 E19.63786
G1 X163.795 Y169.658 E19.7112
G1 X163.644 Y169.69 E19.72352
G1 X162.732 Y169.85 E19.79743
G1 X162.605 Y169.867 E19.80766
G1 X161.674 Y169.961 E19.88235
G1 X161.542 Y169.969 E19.89291
G1 X160.711 Y169.996 E19.95928
G1 X59.351 Y169.997 E28.05027
G1 X58.315 Y169.96 E28.13302
G1 X58.192 Y169.951 E28.14287
G1 X57.275 Y169.849 E28.21652
G1 X57.1 Y169.824 E28.23063
G1 X56.211 Y169.66 E28.30279
G1 X56.088 Y169.632 E28.31286
G1 X55.194 Y169.398 E28.38663
G1 X55.031 Y169.349 E28.40021
G1 X54.189 Y169.063 E28.4712
G1 X54.023 Y168.999 E28.4854
G1 X53.22 Y168.658 E28.55504
G1 X53.031 Y168.57 E28.57168
G1 X52.237 Y168.162 E28.64294
G1 X52.12 Y168.095 E28.6537
G1 X51.341 Y167.621 E28.72649
G1 X51.19 Y167.521 E28.74095
G1 X50.476 Y167.01 E28.81103
G1 X50.328 Y166.897 E28.8259
G1 X49.642 Y166.326 E28.89714
G1 X49.516 Y166.213 E28.91065
G1 X48.943 Y165.665 E28.97394
G1 X48.837 Y165.56 E28.98585
G1 X48.763 Y165.482 E28.99444
G1 X48.13 Y164.791 E29.06924
G1 X48.021 Y164.662 E29.08272
G1 X47.457 Y163.947 E29.15542
G1 X47.367 Y163.823 E29.16765
G1 X46.853 Y163.063 E29.24088
G1 X46.783 Y162.949 E29.25156
G1 X46.321 Y162.146 E29.32551
G1 X46.254 Y162.018 E29.33705
G1 X45.861 Y161.199 E29.40956
G1 X45.784 Y161.024 E29.42482
G1 X45.46 Y160.199 E29.49557
G1 X45.405 Y160.045 E29.50863
G1 X45.138 Y159.188 E29.58028
G1 X45.096 Y159.033 E29.5931
G1 X44.889 Y158.142 E29.66612
G1 X44.86 Y157.992 E29.67831
G1 X44.716 Y157.084 E29.7517
G1 X44.701 Y156.956 E29.76198
G1 X44.623 Y156.012 E29.8376
G1 X44.617 Y155.88 E29.84814
G1 X44.605 Y155.13 E29.90802
G1 X44.605 Y154.985 E29.91959
G1 X44.627 Y153.583 E30.03152
G1 X44.638 Y153.221 E30.06043
G1 X44.703 Y151.747 E30.17821
G1 X44.733 Y151.236 E30.21907
G1 X44.848 Y149.727 E30.33987
G1 X44.885 Y149.318 E30.37265
G1 X45.04 Y147.832 E30.49192
G1 X45.045 Y147.798 E30.49466
G1 X45.045 Y147.788 E30.49546
G1 X45.095 Y147.369 E30.52914
G1 X45.286 Y145.952 E30.64327
G1 X45.366 Y145.42 E30.68622
G1 X45.615 Y143.92 E30.80759
G1 X45.702 Y143.449 E30.84583
G1 X45.988 Y142.003 E30.96349
G1 X46.078 Y141.582 E30.99785
G1 X46.416 Y140.103 E31.11896
G1 X46.521 Y139.668 E31.15468
G1 X46.903 Y138.202 E31.27561
G1 X47.035 Y137.725 E31.31512
G1 X47.44 Y136.336 E31.43061
G1 X47.556 Y135.962 E31.46187
G1 X48.044 Y134.457 E31.58816
G1 X48.161 Y134.117 E31.61686
G1 X48.698 Y132.612 E31.74442
G1 X48.855 Y132.195 E31.77998
G1 X49.409 Y130.787 E31.90076
G1 X49.568 Y130.399 E31.93424
G1 X50.164 Y129.001 E32.05555
G1 X50.354 Y128.575 E32.09278
G1 X50.965 Y127.26 E32.20853
G1 X51.18 Y126.813 E32.24812
G1 X51.857 Y125.46 E32.36889
G1 X52.072 Y125.047 E32.40606
G1 X52.77 Y123.747 E32.52384
G1 X52.991 Y123.35 E32.56011
G1 X53.748 Y122.039 E32.68095
G1 X53.947 Y121.707 E32.71185
G1 X54.108 Y121.444 E32.73647
G1 X54.771 Y120.373 E32.83701
G1 X54.978 Y120.046 E32.86791
G1 X55.824 Y118.765 E32.99045
G1 X56.13 Y118.317 E33.03376
G1 X56.865 Y117.274 E33.13561
G1 X57.216 Y116.704 E33.18904
G1 X57.497 Y116.082 E33.24353
G1 X57.698 Y115.428 E33.29814
G1 X57.814 Y114.755 E33.35265
G1 X57.845 Y114.074 E33.40707
G1 X57.79 Y113.393 E33.46161
G1 X57.648 Y112.724 E33.5162
G1 X57.423 Y112.08 E33.57066
G1 X57.12 Y111.468 E33.62517
G1 X56.741 Y110.9 E33.67967
G1 X56.294 Y110.385 E33.73411
G1 X55.785 Y109.929 E33.78866
G1 X55.223 Y109.541 E33.84317
G1 X54.619 Y109.23 E33.8974
G1 X54.535 Y109.197 E33.90461
G1 X54.535 Y109.195 E33.90477
G1 X54.022 Y108.999 E33.9486
G1 X53.22 Y108.658 E34.01817
G1 X53.031 Y108.57 E34.03481
G1 X52.237 Y108.162 E34.10607
G1 X52.12 Y108.095 E34.11683
G1 X51.341 Y107.621 E34.18962
G1 X51.19 Y107.521 E34.20408
G1 X50.476 Y107.01 E34.27417
G1 X50.328 Y106.897 E34.28903
G1 X49.642 Y106.326 E34.36028
G1 X49.516 Y106.213 E34.37379
G1 X48.943 Y105.665 E34.43708
G1 X48.837 Y105.56 E34.44899
G1 X48.763 Y105.482 E34.45757
G1 X48.131 Y104.792 E34.53226
G1 X48.021 Y104.662 E34.54586
G1 X47.457 Y103.947 E34.61855
G1 X47.367 Y103.823 E34.63078
G1 X46.849 Y103.057 E34.70459
G1 X46.783 Y102.949 E34.7147
G1 X46.321 Y102.146 E34.78865
G1 X46.254 Y102.018 E34.80018
G1 X45.861 Y101.199 E34.87269
G1 X45.784 Y101.024 E34.88796
G1 X45.463 Y100.207 E34.95802
G1 X45.405 Y100.045 E34.97176
G1 X45.138 Y99.188 E35.04341
G1 X45.096 Y99.033 E35.05623
G1 X44.889 Y98.142 E35.12925
G1 X44.86 Y97.993 E35.14137
G1 X44.716 Y97.084 E35.21483
G1 X44.701 Y96.956 E35.22512
G1 X44.623 Y96.012 E35.30073
G1 X44.617 Y95.88 E35.31128
G1 X44.605 Y95.129 E35.37123
G1 X44.605 Y94.984 E35.38281
G1 X44.625 Y93.665 E35.48811
G1 X44.637 Y93.239 E35.52213
G1 X44.704 Y91.71 E35.6443
G1 X44.732 Y91.246 E35.6814
G1 X44.847 Y89.735 E35.80236
G1 X44.884 Y89.326 E35.83515
G1 X45.041 Y87.821 E35.95593
G1 X45.093 Y87.383 E35.99114
G1 X45.296 Y85.884 E36.11189
G1 X45.366 Y85.419 E36.14943
G1 X45.611 Y83.944 E36.26878
G1 X45.701 Y83.452 E36.30871
G1 X45.986 Y82.009 E36.42612
G1 X46.076 Y81.587 E36.46056
G1 X46.413 Y80.112 E36.58134
G1 X46.524 Y79.657 E36.61872
G1 X46.92 Y78.138 E36.74403
G1 X47.03 Y77.745 E36.7766
G1 X47.421 Y76.405 E36.88803
G1 X47.529 Y76.05 E36.91765
G1 X47.585 Y75.87 E36.9327
G1 X48.039 Y74.474 E37.04988
G1 X48.168 Y74.094 E37.08191
G1 X48.185 Y74.049 E37.08575
G1 X48.186 Y74.043 E37.08624
G1 X48.691 Y72.63 E37.20601
G1 X48.871 Y72.155 E37.24656
G1 X49.406 Y70.794 E37.3633
G1 X49.565 Y70.406 E37.39677
G1 X50.14 Y69.058 E37.51375
G1 X50.353 Y68.578 E37.55567
G1 X50.891 Y67.419 E37.65767
G1 X51.032 Y67.12 E37.68406
G1 X51.197 Y66.778 E37.71437
G1 X51.853 Y65.467 E37.83139
G1 X52.068 Y65.054 E37.86855
G1 X52.766 Y63.754 E37.98634
G1 X52.987 Y63.357 E38.02261
G1 X53.744 Y62.046 E38.14345
G1 X53.943 Y61.714 E38.17435
G1 X54.782 Y60.356 E38.30177
G1 X55.004 Y60.007 E38.33479
G1 X55.843 Y58.737 E38.45629
G1 X56.098 Y58.362 E38.49249
G1 X56.908 Y57.21 E38.6049
G1 X56.918 Y57.199 E38.60609
G1 X57.165 Y56.859 E38.63963
G1 X57.164 Y56.858 E38.63975
G1 X57.225 Y56.774 E38.64803
G1 X58.133 Y55.564 E38.76879
G1 X58.389 Y55.233 E38.80219
G1 X59.332 Y54.048 E38.92308
G1 X59.638 Y53.676 E38.96153
G1 X60.645 Y52.49 E39.08573
G0 F9000 X60.8 Y52.312
G1 F1125 X60.8 Y169.997 E48.47985
G0 F9000 X62.4 Y169.997
G1 F1125 X62.4 Y50.553 E58.01439
G0 F9000 X64 Y48.916
G1 F1125 X64 Y169.997 E67.6796
