;FLAVOR:Marlin
;TIME:12590
;Filament used: 9.95954m
;Layer height: 0.2
;MINX:43.541
;MINY:68.94
;MINZ:0.24
;MAXX:176.46
;MAXY:150.864
;MAXZ:20.09
;Generated with Cura_SteamEngine 4.7.0
M140 S60
M105
M190 S60
M104 S210
M105
M109 S210
M82 ;absolute extrusion mode
; Ender 3 Custom Start G-code
G92 E0 ; Reset Extruder
G28 ; Home all axes
G1 Z2.0 F3000 ; Move Z Axis up little to prevent scratching of Heat Bed
G1 X0.1 Y20 Z0.3 F5000.0 ; Move to start position
G1 X0.1 Y200.0 Z0.3 F1500.0 E15 ; Draw the first line
G1 X0.4 Y200.0 Z0.3 F5000.0 ; Move to side a little
G1 X0.4 Y20 Z0.3 F1500.0 E30 ; Draw the second line
G92 E0 ; Reset Extruder
G1 Z2.0 F3000 ; Move Z Axis up little to prevent scratching of Heat Bed
G1 X5 Y20 Z0.3 F5000.0 ; Move over to prevent blob squish
G92 E0
G92 E0
G1 F1500 E-7
;LAYER_COUNT:95
;LAYER:-6
M107
G0 F9000 X51.33 Y72.385 Z0.24
;TYPE:SUPPORT-INTERFACE
G1 F1500 E0
G1 F1125 X51.452 Y72.306 E0.0116
G1 X52.212 Y71.853 E0.08223
G1 X52.382 Y71.76 E0.0977
G1 X53.181 Y71.359 E0.16906
G1 X53.325 Y71.294 E0.18167
G1 X54.154 Y70.951 E0.25328
G1 X54.322 Y70.888 E0.26761
G1 X55.177 Y70.606 E0.33947
G1 X55.314 Y70.566 E0.35086
G1 X56.205 Y70.342 E0.4242
G1 X56.356 Y70.31 E0.43652
G1 X57.27 Y70.15 E0.51059
G1 X57.395 Y70.133 E0.52066
G1 X58.326 Y70.039 E0.59536
G1 X58.458 Y70.031 E0.60591
G1 X59.289 Y70.004 E0.67228
G1 X160.649 Y70.003 E8.76327
G1 X161.685 Y70.04 E8.84603
G1 X161.808 Y70.049 E8.85587
G1 X162.725 Y70.151 E8.92952
G1 X162.9 Y70.176 E8.94363
G1 X163.789 Y70.34 E9.01579
G1 X163.912 Y70.368 E9.02586
G1 X164.806 Y70.602 E9.09963
G1 X164.969 Y70.651 E9.11322
G1 X165.811 Y70.937 E9.1842
G1 X165.977 Y71.001 E9.1984
G1 X166.78 Y71.342 E9.26804
G1 X166.969 Y71.43 E9.28468
G1 X167.763 Y71.838 E9.35594
G1 X167.88 Y71.905 E9.3667
G1 X168.659 Y72.379 E9.43949
G1 X168.81 Y72.479 E9.45395
G1 X169.524 Y72.99 E9.52404
G1 X169.672 Y73.103 E9.5389
G1 X170.358 Y73.674 E9.61015
G1 X170.484 Y73.787 E9.62366
G1 X171.057 Y74.335 E9.68695
G1 X171.159 Y74.436 E9.69841
G1 X171.232 Y74.512 E9.70682
G1 X171.867 Y75.206 E9.78191
G1 X171.97 Y75.327 E9.79459
G1 X172.54 Y76.049 E9.86802
G1 X172.633 Y76.177 E9.88065
G1 X173.142 Y76.929 E9.95313
G1 X173.217 Y77.051 E9.96457
G1 X173.672 Y77.841 E10.03734
G1 X173.746 Y77.982 E10.05005
G1 X174.139 Y78.801 E10.12256
G1 X174.21 Y78.962 E10.13661
G1 X174.535 Y79.785 E10.20724
G1 X174.59 Y79.939 E10.2203
G1 X174.858 Y80.798 E10.29212
G1 X174.904 Y80.967 E10.30611
G1 X175.108 Y81.843 E10.3779
G1 X175.139 Y82.003 E10.39091
G1 X175.282 Y82.902 E10.46358
G1 X175.299 Y83.044 E10.47499
G1 X175.376 Y83.965 E10.54877
G1 X175.383 Y84.119 E10.56107
G1 X175.395 Y84.87 E10.62103
G1 X175.395 Y85.015 E10.6326
G1 X175.375 Y86.315 E10.73639
G1 X175.362 Y86.779 E10.77344
G1 X175.297 Y88.253 E10.89121
G1 X175.267 Y88.764 E10.93208
G1 X175.152 Y90.273 E11.05288
G1 X175.115 Y90.682 E11.08566
G1 X174.958 Y92.186 E11.20637
G1 X174.906 Y92.627 E11.24182
G1 X174.724 Y93.978 E11.35063
G1 X174.697 Y94.169 E11.36603
G1 X174.634 Y94.58 E11.39922
G1 X174.386 Y96.074 E11.52011
G1 X174.305 Y96.514 E11.55582
G1 X174.012 Y97.997 E11.67649
G1 X173.922 Y98.418 E11.71086
G1 X173.584 Y99.897 E11.83196
G1 X173.479 Y100.332 E11.86768
G1 X173.097 Y101.798 E11.98861
G1 X172.97 Y102.256 E12.02655
G1 X172.56 Y103.664 E12.14361
G1 X172.444 Y104.038 E12.17487
G1 X171.955 Y105.543 E12.30119
G1 X171.839 Y105.883 E12.32986
G1 X171.304 Y107.382 E12.45691
G1 X171.145 Y107.805 E12.49298
G1 X170.59 Y109.213 E12.61379
G1 X170.429 Y109.607 E12.64777
G1 X169.836 Y110.999 E12.76855
G1 X169.646 Y111.425 E12.80578
G1 X169.035 Y112.74 E12.92153
G1 X168.82 Y113.187 E12.96112
G1 X168.143 Y114.54 E13.08189
G1 X167.947 Y114.919 E13.11595
G1 X167.23 Y116.253 E13.23684
G1 X167.009 Y116.65 E13.27311
G1 X166.252 Y117.961 E13.39395
G1 X166.053 Y118.293 E13.42485
G1 X165.892 Y118.556 E13.44947
G1 X165.229 Y119.627 E13.55001
G1 X165.022 Y119.954 E13.58091
G1 X164.176 Y121.235 E13.70345
G1 X163.887 Y121.659 E13.74441
G1 X163.031 Y122.873 E13.86298
G1 X162.768 Y123.234 E13.89864
G1 X161.862 Y124.442 E14.01917
G1 X161.606 Y124.773 E14.05257
G1 X160.663 Y125.958 E14.17346
G1 X160.37 Y126.315 E14.21033
G1 X159.391 Y127.47 E14.33119
G1 X159.1 Y127.803 E14.36649
G1 X158.091 Y128.923 E14.48682
G1 X157.796 Y129.239 E14.52133
G1 X157.797 Y129.24 E14.52144
G1 X156.727 Y130.358 E14.64497
G1 X156.403 Y130.684 E14.68166
G1 X155.34 Y131.732 E14.80082
G1 X155.051 Y132.01 E14.83283
G1 X155.05 Y132.009 E14.83294
G1 X153.917 Y133.061 E14.95636
G1 X153.58 Y133.365 E14.99259
G1 X152.444 Y134.356 E15.11292
G1 X152.123 Y134.629 E15.14656
G1 X150.95 Y135.595 E15.26786
G1 X150.585 Y135.884 E15.30502
G1 X149.403 Y136.799 E15.42434
G1 X149.029 Y137.08 E15.46168
G1 X147.848 Y137.935 E15.57807
G1 X147.457 Y138.211 E15.61627
G1 X146.212 Y139.06 E15.73656
G1 X145.838 Y139.307 E15.77234
G1 X144.562 Y140.122 E15.8932
G1 X144.15 Y140.376 E15.93183
G1 X142.885 Y141.132 E16.04947
G1 X142.498 Y141.356 E16.08516
G1 X141.225 Y142.066 E16.20151
G1 X140.764 Y142.314 E16.2433
G1 X139.438 Y143.001 E16.36251
G1 X139.043 Y143.198 E16.39774
G1 X137.679 Y143.855 E16.5186
G1 X137.285 Y144.038 E16.55327
G1 X135.901 Y144.654 E16.6742
G1 X135.488 Y144.832 E16.7101
G1 X134.027 Y145.428 E16.83605
G1 X133.634 Y145.581 E16.86972
G1 X132.26 Y146.096 E16.98685
G1 X131.847 Y146.244 E17.02187
G1 X130.415 Y146.733 E17.14266
G1 X129.799 Y146.931 E17.19431
G1 X129.067 Y147.156 E17.25544
G1 X129.067 Y147.151 E17.25584
G1 X128.499 Y147.331 E17.3034
G1 X128.081 Y147.451 E17.33811
G1 X126.643 Y147.848 E17.45719
G1 X126.263 Y147.947 E17.48854
G1 X124.72 Y148.323 E17.61531
G1 X124.325 Y148.413 E17.64765
G1 X122.851 Y148.725 E17.76792
G1 X122.386 Y148.817 E17.80576
G1 X120.927 Y149.082 E17.92413
G1 X120.48 Y149.156 E17.96029
G1 X118.981 Y149.382 E18.0813
G1 X118.572 Y149.437 E18.11424
G1 X117.042 Y149.622 E18.23727
G1 X116.622 Y149.667 E18.27098
G1 X115.312 Y149.784 E18.37597
G1 X114.911 Y149.816 E18.40808
G1 X114.603 Y149.838 E18.43273
G1 X113.123 Y149.926 E18.55108
G1 X112.67 Y149.946 E18.58727
G1 X111.183 Y149.99 E18.70602
G1 X110.682 Y149.997 E18.74602
G1 X109.302 Y149.997 E18.85618
G1 X108.802 Y149.99 E18.89609
G1 X107.271 Y149.944 E19.01836
G1 X106.805 Y149.924 E19.05559
G1 X105.308 Y149.832 E19.17531
G1 X104.879 Y149.8 E19.20965
G1 X103.362 Y149.663 E19.33124
G1 X102.948 Y149.621 E19.36446
G1 X101.418 Y149.436 E19.48748
G1 X100.976 Y149.376 E19.52308
G1 X99.494 Y149.152 E19.64273
G1 X99.085 Y149.085 E19.67581
G1 X97.658 Y148.825 E19.7916
G1 X97.148 Y148.726 E19.83307
G1 X95.654 Y148.409 E19.95498
G1 X95.189 Y148.302 E19.99307
G1 X93.717 Y147.942 E20.11403
G1 X93.308 Y147.835 E20.14778
G1 X91.865 Y147.438 E20.26724
G1 X91.419 Y147.308 E20.30433
G1 X89.966 Y146.858 E20.42575
G1 X89.555 Y146.724 E20.46026
G1 X88.149 Y146.242 E20.5789
G1 X87.705 Y146.083 E20.61655
G1 X86.296 Y145.554 E20.73668
G1 X85.878 Y145.39 E20.77253
G1 X84.492 Y144.822 E20.89209
G1 X84.056 Y144.636 E20.92993
G1 X82.701 Y144.033 E21.04832
G1 X82.262 Y143.827 E21.08703
G1 X82.257 Y143.826 E21.08744
G1 X80.914 Y143.176 E21.20654
G1 X80.537 Y142.988 E21.24016
G1 X79.188 Y142.288 E21.36148
G1 X78.84 Y142.1 E21.39306
G1 X77.434 Y141.316 E21.52156
G1 X77.099 Y141.122 E21.55246
G1 X75.771 Y140.327 E21.67601
G1 X75.419 Y140.109 E21.70906
G1 X74.144 Y139.296 E21.82977
G1 X73.759 Y139.042 E21.86658
G1 X72.482 Y138.168 E21.99011
G1 X72.165 Y137.944 E22.02109
G1 X70.915 Y137.037 E22.14437
G1 X70.574 Y136.781 E22.17841
G1 X69.386 Y135.86 E22.2984
G1 X69.054 Y135.595 E22.33231
G1 X67.859 Y134.613 E22.45578
G1 X67.506 Y134.314 E22.4927
G1 X66.383 Y133.332 E22.61178
G1 X66.031 Y133.015 E22.6496
G1 X65.141 Y132.189 E22.74652
G1 X65.118 Y132.166 E22.74912
G1 X64.675 Y131.75 E22.79763
G1 X63.525 Y130.614 E22.92666
G1 X63.239 Y130.324 E22.95918
G1 X62.172 Y129.207 E23.08248
G1 X61.868 Y128.878 E23.11824
G1 X60.883 Y127.783 E23.23581
G1 X60.617 Y127.478 E23.26811
G1 X60.603 Y127.459 E23.27
G1 X60.59 Y127.446 E23.27146
G1 X59.595 Y126.272 E23.39431
G1 X59.321 Y125.936 E23.42892
G1 X58.362 Y124.733 E23.55172
G1 X58.138 Y124.443 E23.58097
G1 X57.199 Y123.19 E23.70596
G1 X56.926 Y122.815 E23.74299
G1 X56.076 Y121.605 E23.86103
G1 X55.796 Y121.192 E23.90086
G1 X54.995 Y119.976 E24.01709
G1 X54.752 Y119.593 E24.0533
G1 X53.938 Y118.276 E24.17689
G1 X53.739 Y117.944 E24.20778
G1 X52.982 Y116.633 E24.32863
G1 X52.753 Y116.221 E24.36625
G1 X52.047 Y114.909 E24.48518
G1 X51.832 Y114.491 E24.5227
G1 X51.16 Y113.146 E24.64272
G1 X50.99 Y112.794 E24.67393
G1 X50.32 Y111.346 E24.80129
G1 X50.155 Y110.973 E24.83384
G1 X49.587 Y109.644 E24.94921
G1 X49.57 Y109.599 E24.95305
G1 X49.396 Y109.183 E24.98905
G1 X48.859 Y107.816 E25.10628
G1 X48.668 Y107.304 E25.14991
G1 X48.157 Y105.871 E25.27135
G1 X48.029 Y105.494 E25.30313
G1 X47.584 Y104.123 E25.41819
G1 X47.561 Y104.053 E25.42407
G1 X47.419 Y103.592 E25.46258
G1 X47.015 Y102.203 E25.57805
G1 X46.934 Y101.896 E25.60339
G1 X46.93 Y101.896 E25.60371
G1 X46.883 Y101.724 E25.61794
G1 X46.516 Y100.313 E25.73432
G1 X46.394 Y99.808 E25.77579
G1 X46.073 Y98.399 E25.89115
G1 X45.97 Y97.912 E25.93088
G1 X45.682 Y96.443 E26.05038
G1 X45.602 Y96.002 E26.08615
G1 X45.362 Y94.552 E26.20347
G1 X45.298 Y94.115 E26.23873
G1 X45.285 Y94.036 E26.24512
G1 X45.089 Y92.584 E26.36208
G1 X45.036 Y92.136 E26.39809
G1 X44.881 Y90.635 E26.51854
G1 X44.846 Y90.243 E26.54996
G1 X44.73 Y88.688 E26.67443
G1 X44.704 Y88.259 E26.70874
G1 X44.637 Y86.736 E26.83043
G1 X44.626 Y86.358 E26.86061
G1 X44.605 Y85.025 E26.96703
G1 X44.605 Y84.909 E26.97629
G1 X44.625 Y83.955 E27.05246
G1 X44.635 Y83.787 E27.06589
G1 X44.72 Y82.893 E27.13758
G1 X44.74 Y82.737 E27.15013
G1 X44.89 Y81.852 E27.22179
G1 X44.926 Y81.677 E27.23605
G1 X45.139 Y80.81 E27.30731
G1 X45.186 Y80.649 E27.3207
G1 X45.46 Y79.802 E27.39176
G1 X45.526 Y79.624 E27.40692
G1 X45.855 Y78.813 E27.47678
G1 X45.929 Y78.649 E27.49114
G1 X46.323 Y77.851 E27.56218
G1 X46.407 Y77.695 E27.57632
G1 X46.854 Y76.938 E27.6465
G1 X46.954 Y76.782 E27.66129
G1 X47.47 Y76.036 E27.7337
G1 X47.563 Y75.912 E27.74607
G1 X48.13 Y75.209 E27.81816
G1 X48.225 Y75.1 E27.82971
G1 X48.8 Y74.478 E27.89732
G1 X48.799 Y74.477 E27.89743
G1 X48.947 Y74.332 E27.91397
G1 X49.608 Y73.706 E27.98664
G1 X49.761 Y73.572 E28.00288
G1 X50.458 Y73.002 E28.07475
G1 X50.569 Y72.919 E28.08582
G1 X51.33 Y72.385 E28.16003
G0 F9000 X51.2 Y72.476
G1 F1125 X51.2 Y113.226 E31.41287
G0 F9000 X52.8 Y116.305
G1 F1125 X52.8 Y71.55 E34.9854
G0 F9000 X54.4 Y70.862
G1 F1125 X54.4 Y119.023 E38.82982
G0 F9000 X56 Y121.492
G1 F1125 X56 Y70.393 E42.90877
G0 F9000 X57.6 Y70.112
G1 F1125 X57.6 Y123.725 E47.18839
G0 F9000 X59.2 Y125.784
G1 F1125 X59.2 Y70.006 E51.64083
G0 F9000 X60.8 Y70.003
G1 F1125 X60.8 Y127.687 E56.24542
G0 F9000 X62.4 Y129.445
G1 F1125 X62.4 Y70.003 E60.99033
G0 F9000 X64 Y70.003
G1 F1125 X64 Y131.083 E65.866
G0 F9000 X65.6 Y132.614
G1 F1125 X65.6 Y70.003 E70.86388
G0 F9000 X67.2 Y70.003
G1 F1125 X67.2 Y134.046 E75.97607
G0 F9000 X68.8 Y135.386
G1 F1125 X68.8 Y70.003 E81.19523
G0 F9000 X70.4 Y70.003
G1 F1125 X70.4 Y136.646 E86.51496
G0 F9000 X72 Y137.824
G1 F1125 X72 Y70.003 E91.92873
G0 F9000 X73.6 Y70.003
G1 F1125 X73.6 Y138.933 E97.43102
G0 F9000 X75.2 Y139.969
G1 F1125 X75.2 Y70.003 E103.016
G0 F9000 X76.8 Y70.003
G1 F1125 X76.8 Y140.943 E108.67874
G0 F9000 X78.4 Y141.854
G1 F1125 X78.4 Y70.003 E114.4142
G0 F9000 X80 Y70.003
G1 F1125 X80 Y142.709 E120.21791
G0 F9000 X81.6 Y143.508
G1 F1125 X81.6 Y70.003 E126.08539
G0 F9000 X83.2 Y70.003
G1 F1125 X83.2 Y144.255 E132.01251
G0 F9000 X84.8 Y144.948
G1 F1125 X84.8 Y70.003 E137.99494
G0 F9000 X86.4 Y70.003
G1 F1125 X86.4 Y145.593 E144.02886
G0 F9000 X88 Y146.188
G1 F1125 X88 Y70.003 E150.11028
G0 F9000 X89.6 Y70.003
G1 F1125 X89.6 Y146.738 E156.2356
G0 F9000 X91.2 Y147.24
G1 F1125 X91.2 Y70.003 E162.40099
G0 F9000 X92.8 Y70.003
G1 F1125 X92.8 Y147.695 E168.6027
G0 F9000 X94.4 Y148.109
G1 F1125 X94.4 Y70.003 E174.83746
G0 F9000 X96 Y70.003
G1 F1125 X96 Y148.482 E181.10199
G0 F9000 X97.6 Y148.813
G1 F1125 X97.6 Y70.003 E187.39295
G0 F9000 X99.2 Y70.003
G1 F1125 X99.2 Y149.103 E193.70705
G0 F9000 X100.8 Y149.349
G1 F1125 X100.8 Y70.003 E200.04079
G0 F9000 X102.4 Y70.003
G1 F1125 X102.4 Y149.554 E206.3909
G0 F9000 X104 Y149.72
G1 F1125 X104 Y70.003 E212.75425
G0 F9000 X105.6 Y70.003
G1 F1125 X105.6 Y149.849 E219.12791
G0 F9000 X107.2 Y149.94
G1 F1125 X107.2 Y70.003 E225.50882
G0 F9000 X108.8 Y70.003
G1 F1125 X108.8 Y149.989 E231.89365
G0 F9000 X110.4 Y149.997
G1 F1125 X110.4 Y70.003 E238.27912
G0 F9000 X112 Y70.003
G1 F1125 X112 Y149.966 E244.66211
G0 F9000 X113.6 Y149.898
G1 F1125 X113.6 Y70.003 E251.03968
G0 F9000 X115.2 Y70.003
G1 F1125 X115.2 Y149.793 E257.40886
G0 F9000 X116.8 Y149.648
G1 F1125 X116.8 Y70.003 E263.76647
G0 F9000 X118.4 Y70.003
G1 F1125 X118.4 Y149.458 E270.10891
G0 F9000 X120 Y149.229
G1 F1125 X120 Y70.003 E276.43307
G0 F9000 X121.6 Y70.003
G1 F1125 X121.6 Y148.96 E282.73576
G0 F9000 X123.2 Y148.652
G1 F1125 X123.2 Y70.003 E289.01386
G0 F9000 X124.8 Y70.003
G1 F1125 X124.8 Y148.304 E295.26419
G0 F9000 X126.4 Y147.912
G1 F1125 X126.4 Y70.003 E301.48322
G0 F9000 X128 Y70.003
G1 F1125 X128 Y147.474 E307.66729
G0 F9000 X129.6 Y146.993
G1 F1125 X129.6 Y70.003 E313.81297
G0 F9000 X131.2 Y70.003
G1 F1125 X131.2 Y146.465 E319.91649
G0 F9000 X132.8 Y145.894
G1 F1125 X132.8 Y70.003 E325.97444
G0 F9000 X134.4 Y70.003
G1 F1125 X134.4 Y145.276 E331.98306
G0 F9000 X136 Y144.61
G1 F1125 X136 Y70.003 E337.93851
G0 F9000 X137.6 Y70.003
G1 F1125 X137.6 Y143.892 E343.83665
G0 F9000 X139.2 Y143.12
G1 F1125 X139.2 Y70.003 E349.67317
G0 F9000 X140.8 Y70.003
G1 F1125 X140.8 Y142.295 E355.44383
G0 F9000 X142.4 Y141.411
G1 F1125 X142.4 Y70.003 E361.14392
G0 F9000 X144 Y70.003
G1 F1125 X144 Y140.466 E366.76858
G0 F9000 X145.6 Y139.46
G1 F1125 X145.6 Y70.003 E372.31294
G0 F9000 X147.2 Y70.003
G1 F1125 X147.2 Y138.387 E377.77165
G0 F9000 X148.8 Y137.246
G1 F1125 X148.8 Y70.003 E383.13927
G0 F9000 X150.4 Y70.003
G1 F1125 X150.4 Y136.028 E388.40968
G0 F9000 X152 Y134.731
G1 F1125 X152 Y70.003 E393.57654
G0 F9000 X153.6 Y70.003
G1 F1125 X153.6 Y133.347 E398.63294
G0 F9000 X155.2 Y131.867
G1 F1125 X155.2 Y70.003 E403.57119
G0 F9000 X156.8 Y70.003
G1 F1125 X156.8 Y130.282 E408.38292
G0 F9000 X158.4 Y128.581
G1 F1125 X158.4 Y70.003 E413.05887
G0 F9000 X160 Y70.003
G1 F1125 X160 Y126.752 E417.58882
G0 F9000 X161.6 Y124.781
G1 F1125 X161.6 Y70.037 E421.95872
G0 F9000 X163.2 Y70.232
G1 F1125 X163.2 Y122.634 E426.14168
G0 F9000 X164.8 Y120.291
G1 F1125 X164.8 Y70.601 E430.10815
G0 F9000 X166.4 Y71.181
G1 F1125 X166.4 Y117.705 E433.82189
G0 F9000 X168 Y114.817
G1 F1125 X168 Y71.979 E437.24141
G0 F9000 X169.6 Y73.049
G1 F1125 X169.6 Y111.525 E440.31273
G0 F9000 X171.2 Y107.659
G1 F1125 X171.2 Y74.479 E442.9613
G0 F9000 X172.8 Y76.424
G1 F1125 X172.8 Y102.84 E445.06994
G1 F1500 E438.06994
G0 F9000 X173.863 Y102.971
G0 X174.488 Y100.624
G0 X175.362 Y96.648
G0 X174.4 Y95.99
G1 F1500 E445.06994
G1 F1125 X174.4 Y79.444 E446.39071
G1 F1500 E439.39071
G0 F9000 X175.39 Y79.053
G0 X174.609 Y77.335
G0 X173.501 Y75.56
G0 X172.67 Y74.508
G0 X171.06 Y72.873
G0 X169.42 Y71.607
G0 X168.261 Y70.898
G0 X166.381 Y70.016
G0 X165.091 Y69.576
G0 X163.064 Y69.124
G0 X161.738 Y68.977
G0 X58.414 Y68.968
G0 X57.098 Y69.099
G0 X55.042 Y69.537
G0 X53.759 Y69.962
G0 X51.882 Y70.82
G0 X50.728 Y71.507
G0 X49.068 Y72.764
G0 X49.6 Y73.713
G1 F1500 E446.39071
G1 F1125 X49.6 Y109.674 E449.26127
G1 F1500 E442.26127
G0 F9000 X48.415 Y109.594
G0 X47.151 Y106.217
G0 X48 Y105.404
G1 F1500 E449.26127
G1 F1125 X48 Y75.37 E451.65872
G0 F9000 X46.4 Y77.708
G1 F1125 X46.4 Y99.832 E453.42475
G1 F1500 E446.42475
G0 F9000 X45.359 Y100.054
G0 X44.553 Y96.182
G0 X44.089 Y93.003
G0 X43.782 Y90.279
G0 X44.8 Y89.626
G1 F1500 E453.42475
G1 F1125 X44.8 Y82.383 E454.00292
G1 F1500 E447.00292
G0 F300 X44.8 Y82.383 Z0.54
G0 F9000 X43.845 Y81.649
G0 X44.169 Y80.332
G0 X44.874 Y78.402
G0 X45.485 Y77.165
G0 X46.389 Y75.752
G0 X47.318 Y74.521
G0 X48.224 Y75.098
;TIME_ELAPSED:323.005382
;LAYER:-5
;TYPE:SUPPORT
G1 F1500 E454.00292
G1 F1125 X48.129 Y75.207 E454.01735
