;FLAVOR:Marlin
;TIME:7045
;Filament used: 5.96222m
;Layer height: 0.2
;MINX:43.54
;MINY:68.947
;MINZ:0.24
;MAXX:176.439
;MAXY:151.062
;MAXZ:7.29
;Generated with Cura_SteamEngine 4.7.0
M140 S60
M105
M190 S60
M104 S210
M105
M109 S210
M82 ;absolute extrusion mode
; Ender 3 Custom Start G-code
G92 E0 ; Reset Extruder
G28 ; Home all axes
G1 Z2.0 F3000 ; Move Z Axis up little to prevent scratching of Heat Bed
G1 X0.1 Y20 Z0.3 F5000.0 ; Move to start position
G1 X0.1 Y200.0 Z0.3 F1500.0 E15 ; Draw the first line
G1 X0.4 Y200.0 Z0.3 F5000.0 ; Move to side a little
G1 X0.4 Y20 Z0.3 F1500.0 E30 ; Draw the second line
G92 E0 ; Reset Extruder
G1 Z2.0 F3000 ; Move Z Axis up little to prevent scratching of Heat Bed
G1 X5 Y20 Z0.3 F5000.0 ; Move over to prevent blob squish
G92 E0
G92 E0
G1 F1500 E-7
;LAYER_COUNT:31
;LAYER:-6
M107
G0 F9000 X69.044 Y84.41 Z0.24
;TYPE:SUPPORT-INTERFACE
G1 F1500 E0
G1 F1125 X69.402 Y84.125 E0.03653
G1 X70.595 Y83.203 E0.15688
G1 X70.916 Y82.962 E0.18892
G1 X72.189 Y82.038 E0.31449
G1 X72.548 Y81.785 E0.34955
G1 X73.815 Y80.922 E0.47192
G1 X74.202 Y80.667 E0.50891
G1 X75.481 Y79.852 E0.62997
G1 X75.854 Y79.621 E0.66499
G1 X77.115 Y78.868 E0.78223
G1 X77.5 Y78.645 E0.81775
G1 X78.788 Y77.927 E0.93546
G1 X79.198 Y77.706 E0.97264
G1 X80.547 Y77.006 E1.09396
G1 X80.95 Y76.805 E1.1299
G1 X82.303 Y76.153 E1.24979
G1 X82.708 Y75.965 E1.28543
G1 X84.091 Y75.349 E1.40629
G1 X84.512 Y75.169 E1.44284
G1 X85.954 Y74.58 E1.56717
G1 X86.48 Y74.376 E1.61221
G1 X87.764 Y73.896 E1.72163
G1 X88.142 Y73.759 E1.75373
G1 X89.568 Y73.272 E1.87401
G1 X90.193 Y73.071 E1.92642
G1 X90.925 Y72.846 E1.98755
G1 X90.925 Y72.851 E1.98795
G1 X91.493 Y72.671 E2.03551
G1 X91.915 Y72.55 E2.07055
G1 X93.349 Y72.154 E2.1893
G1 X93.729 Y72.055 E2.22065
G1 X95.272 Y71.679 E2.34742
G1 X95.667 Y71.589 E2.37976
G1 X97.191 Y71.265 E2.50413
G1 X97.62 Y71.181 E2.53903
G1 X99.036 Y70.923 E2.65392
G1 X99.086 Y70.916 E2.65795
G1 X99.515 Y70.844 E2.69267
G1 X101.024 Y70.618 E2.81447
G1 X101.42 Y70.564 E2.84637
G1 X102.929 Y70.381 E2.96771
G1 X103.442 Y70.328 E3.00888
G1 X104.856 Y70.202 E3.1222
G1 X105.374 Y70.163 E3.16366
G1 X106.869 Y70.074 E3.28321
G1 X107.323 Y70.054 E3.31949
G1 X108.829 Y70.01 E3.43976
G1 X109.322 Y70.003 E3.47911
G1 X110.75 Y70.004 E3.5931
G1 X111.244 Y70.011 E3.63254
G1 X112.708 Y70.055 E3.74945
G1 X113.187 Y70.076 E3.78773
G1 X114.674 Y70.166 E3.90664
G1 X115.107 Y70.199 E3.94131
G1 X116.63 Y70.336 E4.06337
G1 X117.044 Y70.378 E4.09659
G1 X118.574 Y70.563 E4.21961
G1 X119.016 Y70.623 E4.25521
G1 X120.498 Y70.847 E4.37486
G1 X120.933 Y70.919 E4.41005
G1 X122.425 Y71.189 E4.53109
G1 X122.848 Y71.273 E4.56551
G1 X124.399 Y71.603 E4.69209
G1 X124.828 Y71.702 E4.72723
G1 X126.253 Y72.05 E4.84433
G1 X126.658 Y72.156 E4.87774
G1 X128.156 Y72.569 E5.00178
G1 X128.605 Y72.701 E5.03914
G1 X130.022 Y73.138 E5.15751
G1 X130.427 Y73.27 E5.19151
G1 X131.832 Y73.75 E5.31003
G1 X131.848 Y73.757 E5.31142
G1 X132.296 Y73.917 E5.3494
G1 X133.639 Y74.421 E5.4639
G1 X134.066 Y74.589 E5.50053
G1 X134.245 Y74.661 E5.51593
G1 X135.575 Y75.208 E5.63072
G1 X135.983 Y75.382 E5.66613
G1 X137.293 Y75.966 E5.78062
G1 X137.709 Y76.159 E5.81723
G1 X139.084 Y76.823 E5.93911
G1 X139.451 Y77.005 E5.97181
G1 X140.799 Y77.705 E6.09306
G1 X141.146 Y77.892 E6.12453
G1 X142.527 Y78.662 E6.25074
G1 X142.889 Y78.871 E6.28411
G1 X144.189 Y79.648 E6.405
G1 X144.583 Y79.892 E6.442
G1 X145.841 Y80.695 E6.56113
G1 X146.212 Y80.94 E6.59662
G1 X147.482 Y81.806 E6.71932
G1 X147.849 Y82.065 E6.75518
G1 X149.07 Y82.951 E6.8756
G1 X149.415 Y83.21 E6.91004
G1 X150.609 Y84.135 E7.0306
G1 X150.942 Y84.4 E7.06457
G1 X152.11 Y85.36 E7.18526
G1 X152.451 Y85.649 E7.22094
G1 X153.592 Y86.645 E7.34184
G1 X153.925 Y86.945 E7.37762
G1 X154.976 Y87.92 E7.49205
G1 X155.335 Y88.259 E7.53147
G1 X156.467 Y89.378 E7.65852
G1 X156.744 Y89.659 E7.69002
G1 X157.796 Y90.759 E7.81152
G1 X158.121 Y91.11 E7.8497
G1 X159.132 Y92.233 E7.97032
G1 X159.131 Y92.234 E7.97043
G1 X159.392 Y92.533 E8.00212
G1 X160.367 Y93.682 E8.12241
G1 X160.669 Y94.049 E8.16034
G1 X161.644 Y95.276 E8.28545
G1 X161.902 Y95.61 E8.31914
G1 X162.812 Y96.826 E8.44037
G1 X163.075 Y97.189 E8.47616
G1 X163.915 Y98.382 E8.59262
G1 X164.161 Y98.743 E8.62749
G1 X164.992 Y100.003 E8.74798
G1 X165.236 Y100.385 E8.78416
G1 X166.053 Y101.708 E8.90828
G1 X166.251 Y102.039 E8.93907
G1 X167.008 Y103.35 E9.05991
G1 X167.226 Y103.74 E9.09558
G1 X167.946 Y105.079 E9.21694
G1 X168.147 Y105.468 E9.25189
G1 X168.849 Y106.873 E9.37726
G1 X169.02 Y107.227 E9.40864
G1 X169.677 Y108.647 E9.53354
G1 X169.835 Y109.002 E9.56455
G1 X170.409 Y110.348 E9.68136
G1 X170.435 Y110.415 E9.6871
G1 X170.596 Y110.799 E9.72033
G1 X171.145 Y112.194 E9.84
G1 X171.308 Y112.63 E9.87716
G1 X171.818 Y114.056 E9.99805
G1 X171.959 Y114.466 E10.03266
G1 X172.425 Y115.9 E10.15302
G1 X172.56 Y116.338 E10.18961
G1 X172.983 Y117.788 E10.31018
G1 X173.096 Y118.197 E10.34405
G1 X173.479 Y119.668 E10.46538
G1 X173.588 Y120.115 E10.50211
G1 X173.923 Y121.581 E10.62215
G1 X174.015 Y122.009 E10.65709
G1 X174.307 Y123.494 E10.7779
G1 X174.387 Y123.935 E10.81368
G1 X174.635 Y125.428 E10.93449
G1 X174.699 Y125.857 E10.96911
G1 X174.7 Y125.871 E10.97023
G1 X174.712 Y125.944 E10.97614
G1 X174.904 Y127.366 E11.09068
G1 X174.961 Y127.847 E11.12934
G1 X175.121 Y129.393 E11.25341
G1 X175.158 Y129.801 E11.28611
G1 X175.268 Y131.256 E11.40259
G1 X175.297 Y131.754 E11.44241
G1 X175.362 Y133.215 E11.55915
G1 X175.375 Y133.654 E11.59421
G1 X175.395 Y134.979 E11.69999
G1 X175.395 Y135.094 E11.70917
G1 X175.375 Y136.045 E11.7851
G1 X175.366 Y136.206 E11.79797
G1 X175.281 Y137.088 E11.8687
G1 X175.256 Y137.287 E11.88471
G1 X175.111 Y138.143 E11.95401
G1 X175.077 Y138.309 E11.96754
G1 X174.862 Y139.187 E12.03969
G1 X174.814 Y139.353 E12.05349
G1 X174.537 Y140.208 E12.12523
G1 X174.477 Y140.374 E12.13932
G1 X174.149 Y141.177 E12.20856
G1 X174.061 Y141.372 E12.22564
G1 X173.69 Y142.122 E12.29243
G1 X173.586 Y142.315 E12.30993
G1 X173.149 Y143.057 E12.37867
G1 X173.046 Y143.218 E12.39393
G1 X172.526 Y143.969 E12.46684
G1 X172.432 Y144.094 E12.47933
G1 X171.877 Y144.781 E12.54982
G1 X171.771 Y144.904 E12.56279
G1 X171.197 Y145.526 E12.63035
G1 X171.053 Y145.668 E12.64649
G1 X170.392 Y146.294 E12.71916
G1 X170.239 Y146.428 E12.7354
G1 X169.546 Y146.995 E12.80687
G1 X169.431 Y147.081 E12.81833
G1 X168.674 Y147.612 E12.89214
G1 X168.553 Y147.691 E12.90368
G1 X167.788 Y148.147 E12.97477
G1 X167.617 Y148.24 E12.99031
G1 X166.819 Y148.641 E13.0616
G1 X166.676 Y148.706 E13.07414
G1 X165.852 Y149.046 E13.14529
G1 X165.669 Y149.115 E13.1609
G1 X164.823 Y149.394 E13.23201
G1 X164.686 Y149.434 E13.24341
G1 X163.795 Y149.658 E13.31674
G1 X163.644 Y149.69 E13.32906
G1 X162.732 Y149.85 E13.40298
G1 X162.605 Y149.867 E13.4132
G1 X161.674 Y149.961 E13.4879
G1 X161.542 Y149.969 E13.49845
G1 X160.711 Y149.996 E13.56482
G1 X59.351 Y149.997 E21.65582
G1 X58.315 Y149.96 E21.73857
G1 X58.192 Y149.951 E21.74841
G1 X57.275 Y149.849 E21.82206
G1 X57.1 Y149.824 E21.83617
G1 X56.211 Y149.66 E21.90833
G1 X56.088 Y149.632 E21.9184
G1 X55.194 Y149.398 E21.99217
G1 X55.031 Y149.349 E22.00576
G1 X54.189 Y149.063 E22.07674
G1 X54.023 Y148.999 E22.09094
G1 X53.22 Y148.658 E22.16058
G1 X53.031 Y148.57 E22.17722
G1 X52.237 Y148.162 E22.24848
G1 X52.12 Y148.095 E22.25924
G1 X51.341 Y147.621 E22.33203
G1 X51.19 Y147.521 E22.34649
G1 X50.476 Y147.01 E22.41658
G1 X50.328 Y146.897 E22.43144
G1 X49.642 Y146.326 E22.50269
G1 X49.516 Y146.213 E22.5162
G1 X48.943 Y145.665 E22.57949
G1 X48.837 Y145.56 E22.5914
G1 X48.763 Y145.482 E22.59998
G1 X48.131 Y144.792 E22.67467
G1 X48.021 Y144.662 E22.68827
G1 X47.457 Y143.947 E22.76096
G1 X47.367 Y143.823 E22.77319
G1 X46.849 Y143.057 E22.847
G1 X46.783 Y142.949 E22.85711
G1 X46.321 Y142.146 E22.93106
G1 X46.254 Y142.018 E22.94259
G1 X45.861 Y141.199 E23.0151
G1 X45.784 Y141.024 E23.03037
G1 X45.463 Y140.207 E23.10044
G1 X45.405 Y140.045 E23.11417
G1 X45.138 Y139.188 E23.18582
G1 X45.096 Y139.033 E23.19864
G1 X44.889 Y138.142 E23.27166
G1 X44.86 Y137.993 E23.28378
G1 X44.716 Y137.084 E23.35724
G1 X44.701 Y136.956 E23.36753
G1 X44.623 Y136.012 E23.44314
G1 X44.617 Y135.88 E23.45369
G1 X44.605 Y135.129 E23.51364
G1 X44.605 Y134.984 E23.52522
G1 X44.625 Y133.665 E23.63052
G1 X44.637 Y133.239 E23.66454
G1 X44.704 Y131.71 E23.78671
G1 X44.732 Y131.246 E23.82381
G1 X44.847 Y129.735 E23.94478
G1 X44.884 Y129.326 E23.97756
G1 X45.041 Y127.821 E24.09835
G1 X45.093 Y127.383 E24.13355
G1 X45.296 Y125.884 E24.2543
G1 X45.366 Y125.419 E24.29184
G1 X45.611 Y123.944 E24.41119
G1 X45.701 Y123.452 E24.45112
G1 X45.986 Y122.009 E24.56853
G1 X46.076 Y121.587 E24.60297
G1 X46.413 Y120.112 E24.72375
G1 X46.524 Y119.657 E24.76113
G1 X46.92 Y118.138 E24.88644
G1 X47.03 Y117.745 E24.91902
G1 X47.421 Y116.405 E25.03044
G1 X47.529 Y116.05 E25.06006
G1 X47.585 Y115.87 E25.07511
G1 X48.039 Y114.474 E25.19229
G1 X48.168 Y114.094 E25.22432
G1 X48.185 Y114.049 E25.22816
G1 X48.186 Y114.043 E25.22865
G1 X48.691 Y112.63 E25.34843
G1 X48.871 Y112.155 E25.38897
G1 X49.406 Y110.794 E25.50571
G1 X49.565 Y110.406 E25.53918
G1 X50.14 Y109.058 E25.65616
G1 X50.353 Y108.578 E25.69808
G1 X50.891 Y107.419 E25.80008
G1 X51.032 Y107.12 E25.82647
G1 X51.197 Y106.778 E25.85678
G1 X51.853 Y105.467 E25.9738
G1 X52.068 Y105.054 E26.01097
G1 X52.766 Y103.754 E26.12875
G1 X52.987 Y103.357 E26.16502
G1 X53.744 Y102.046 E26.28586
G1 X53.943 Y101.714 E26.31676
G1 X54.782 Y100.356 E26.44418
G1 X55.004 Y100.007 E26.4772
G1 X55.843 Y98.737 E26.5987
G1 X56.098 Y98.362 E26.6349
G1 X56.908 Y97.21 E26.74731
G1 X56.918 Y97.199 E26.7485
G1 X57.165 Y96.859 E26.78204
G1 X57.164 Y96.858 E26.78216
G1 X57.225 Y96.774 E26.79044
G1 X58.133 Y95.564 E26.9112
G1 X58.389 Y95.233 E26.9446
G1 X59.332 Y94.048 E27.06549
G1 X59.638 Y93.676 E27.10394
G1 X60.645 Y92.49 E27.22814
G1 X60.891 Y92.209 E27.25795
G1 X61.947 Y91.036 E27.38394
G1 X62.223 Y90.74 E27.41624
G1 X62.222 Y90.739 E27.41635
G1 X63.301 Y89.613 E27.54084
G1 X63.583 Y89.328 E27.57285
G1 X64.661 Y88.263 E27.69381
G1 X64.734 Y88.194 E27.70183
G1 X64.928 Y88.016 E27.72284
G1 X65.104 Y87.846 E27.74238
G1 X66.089 Y86.933 E27.84959
G1 X66.432 Y86.625 E27.88638
G1 X67.55 Y85.649 E28.00485
G1 X67.871 Y85.376 E28.03849
G1 X69.044 Y84.41 E28.15979
G0 F9000 X68.8 Y84.61
G1 F1125 X68.8 Y149.997 E33.37926
G0 F9000 X67.2 Y149.997
G1 F1125 X67.2 Y85.954 E38.49145
G0 F9000 X65.6 Y87.386
G1 F1125 X65.6 Y149.997 E43.48933
G0 F9000 X64 Y149.997
G1 F1125 X64 Y88.916 E48.36508
G0 F9000 X62.4 Y90.553
G1 F1125 X62.4 Y149.997 E53.11015
G0 F9000 X60.8 Y149.997
G1 F1125 X60.8 Y92.312 E57.71482
G0 F9000 X59.2 Y94.213
G1 F1125 X59.2 Y149.991 E62.16726
G0 F9000 X57.6 Y149.885
G1 F1125 X57.6 Y96.274 E66.44672
G0 F9000 X56 Y98.506
G1 F1125 X56 Y149.608 E70.52591
G0 F9000 X54.4 Y149.134
G1 F1125 X54.4 Y100.974 E74.37025
G0 F9000 X52.8 Y103.692
G1 F1125 X52.8 Y148.451 E77.9431
G0 F9000 X51.2 Y147.527
G1 F1125 X51.2 Y106.772 E81.19634
G0 F9000 X49.6 Y110.323
G1 F1125 X49.6 Y146.288 E84.06723
G0 F9000 X48 Y144.635
G1 F1125 X48 Y114.593 E86.46531
G1 F1500 E79.46531
G0 F9000 X46.987 Y114.265
G0 X46.093 Y117.21
G0 X45.491 Y119.4
G0 X46.4 Y120.168
G1 F1500 E86.46531
G1 F1125 X46.4 Y142.283 E88.23062
G1 F1500 E81.23062
G0 F9000 X45.299 Y142.489
G0 X44.464 Y140.576
G0 X44.238 Y139.846
G0 X43.812 Y138.186
G0 X44.8 Y137.614
G1 F1500 E88.23062
G1 F1125 X44.8 Y130.352 E88.81031
G1 F1500 E81.81031
G0 F9000 X43.738 Y130.272
G0 X43.56 Y133.648
G0 X43.561 Y136.088
G0 X43.812 Y138.186
G0 X44.118 Y139.493
G0 X44.805 Y141.44
G0 X45.391 Y142.665
G0 X46.499 Y144.44
G0 X47.33 Y145.492
G0 X48.94 Y147.127
G0 X50.58 Y148.393
G0 X51.739 Y149.102
G0 X53.619 Y149.984
G0 X54.909 Y150.424
G0 X56.936 Y150.876
G0 X58.262 Y151.023
G0 X70.4 Y151.062
G0 X70.4 Y149.997
G1 F1500 E88.81031
G1 F1125 X70.4 Y83.353 E94.13012
G0 F9000 X72 Y82.175
G1 F1125 X72 Y149.997 E99.54396
G0 F9000 X73.6 Y149.997
G1 F1125 X73.6 Y81.068 E105.04618
G0 F9000 X75.2 Y80.031
G1 F1125 X75.2 Y149.997 E110.63116
G0 F9000 X76.8 Y149.997
G1 F1125 X76.8 Y79.056 E116.29398
G0 F9000 X78.4 Y78.143
G1 F1125 X78.4 Y149.997 E122.02968
G0 F9000 X80 Y149.997
G1 F1125 X80 Y77.289 E127.83355
G0 F9000 X81.6 Y76.491
G1 F1125 X81.6 Y149.997 E133.70111
G0 F9000 X83.2 Y149.997
G1 F1125 X83.2 Y75.745 E139.62823
G0 F9000 X84.8 Y75.051
G1 F1125 X84.8 Y149.997 E145.61074
G0 F9000 X86.4 Y149.997
G1 F1125 X86.4 Y74.407 E151.64466
G0 F9000 X88 Y73.81
G1 F1125 X88 Y149.997 E157.72624
G0 F9000 X89.6 Y149.997
G1 F1125 X89.6 Y73.261 E163.85164
G0 F9000 X91.2 Y72.763
G1 F1125 X91.2 Y149.997 E170.01679
G0 F9000 X92.8 Y149.997
G1 F1125 X92.8 Y72.305 E176.2185
G0 F9000 X94.4 Y71.891
G1 F1125 X94.4 Y149.997 E182.45326
G0 F9000 X96 Y149.997
G1 F1125 X96 Y71.518 E188.71779
G0 F9000 X97.6 Y71.184
G1 F1125 X97.6 Y149.997 E195.00899
G0 F9000 X99.2 Y149.997
G1 F1125 X99.2 Y70.896 E201.32317
G0 F9000 X100.8 Y70.651
G1 F1125 X100.8 Y149.997 E207.65691
G0 F9000 X102.4 Y149.997
G1 F1125 X102.4 Y70.445 E214.0071
G0 F9000 X104 Y70.278
G1 F1125 X104 Y149.997 E220.37061
G0 F9000 X105.6 Y149.997
G1 F1125 X105.6 Y70.149 E226.74442
G0 F9000 X107.2 Y70.059
G1 F1125 X107.2 Y149.997 E233.12542
G0 F9000 X108.8 Y149.997
G1 F1125 X108.8 Y70.01 E239.51033
G0 F9000 X110.4 Y70.004
G1 F1125 X110.4 Y149.997 E245.89572
G0 F9000 X112 Y149.997
G1 F1125 X112 Y70.034 E252.27871
G0 F9000 X113.6 Y70.101
G1 F1125 X113.6 Y149.997 E258.65635
G0 F9000 X115.2 Y149.997
G1 F1125 X115.2 Y70.208 E265.02546
G0 F9000 X116.8 Y70.354
G1 F1125 X116.8 Y149.997 E271.3829
G0 F9000 X118.4 Y149.997
G1 F1125 X118.4 Y70.542 E277.72535
G0 F9000 X120 Y70.772
G1 F1125 X120 Y149.997 E284.04943
G0 F9000 X121.6 Y149.997
G1 F1125 X121.6 Y71.04 E290.35212
G0 F9000 X123.2 Y71.348
G1 F1125 X123.2 Y149.997 E296.63022
G0 F9000 X124.8 Y149.997
G1 F1125 X124.8 Y71.696 E302.88054
G0 F9000 X126.4 Y72.089
G1 F1125 X126.4 Y149.997 E309.0995
G0 F9000 X128 Y149.997
G1 F1125 X128 Y72.526 E315.28357
G0 F9000 X129.6 Y73.008
G1 F1125 X129.6 Y149.997 E321.42916
G0 F9000 X131.2 Y149.997
G1 F1125 X131.2 Y73.535 E327.53269
G0 F9000 X132.8 Y74.107
G1 F1125 X132.8 Y149.997 E333.59056
G0 F9000 X134.4 Y149.997
G1 F1125 X134.4 Y74.725 E339.5991
G0 F9000 X136 Y75.39
G1 F1125 X136 Y149.997 E345.55455
G0 F9000 X137.6 Y149.997
G1 F1125 X137.6 Y76.109 E351.45261
G0 F9000 X139.2 Y76.881
G1 F1125 X139.2 Y149.997 E357.28904
G0 F9000 X140.8 Y149.997
G1 F1125 X140.8 Y77.706 E363.05962
G0 F9000 X142.4 Y78.592
G1 F1125 X142.4 Y149.997 E368.75948
G0 F9000 X144 Y149.997
G1 F1125 X144 Y79.536 E374.38398
G0 F9000 X145.6 Y80.542
G1 F1125 X145.6 Y149.997 E379.92818
G0 F9000 X147.2 Y149.997
G1 F1125 X147.2 Y81.614 E385.38681
G0 F9000 X148.8 Y82.756
G1 F1125 X148.8 Y149.997 E390.75427
G0 F9000 X150.4 Y149.997
G1 F1125 X150.4 Y83.974 E396.02452
G0 F9000 X152 Y85.27
G1 F1125 X152 Y149.997 E401.1913
G0 F9000 X153.6 Y149.997
G1 F1125 X153.6 Y86.653 E406.2477
G0 F9000 X155.2 Y88.132
G1 F1125 X155.2 Y149.997 E411.18603
G0 F9000 X156.8 Y149.997
G1 F1125 X156.8 Y89.718 E415.99776
G0 F9000 X158.4 Y91.42
G1 F1125 X158.4 Y149.997 E420.67363
G0 F9000 X160 Y149.997
G1 F1125 X160 Y93.25 E425.20342
G0 F9000 X161.6 Y95.221
G1 F1125 X161.6 Y149.966 E429.5734
G0 F9000 X163.2 Y149.768
G1 F1125 X163.2 Y97.367 E433.75628
G0 F9000 X164.8 Y99.712
G1 F1125 X164.8 Y149.401 E437.72267
G0 F9000 X166.4 Y148.82
G1 F1125 X166.4 Y102.298 E441.43625
G0 F9000 X168 Y105.184
G1 F1125 X168 Y148.021 E444.85569
G0 F9000 X169.6 Y146.951
G1 F1125 X169.6 Y108.481 E447.92653
G0 F9000 X171.2 Y112.342
G1 F1125 X171.2 Y145.523 E450.57518
G0 F9000 X172.8 Y143.574
G1 F1125 X172.8 Y117.161 E452.68358
G1 F1500 E445.68358
G0 F9000 X174.008 Y117.502
G0 X174.858 Y120.981
G0 X175.354 Y123.3
G0 X174.4 Y124.014
G1 F1500 E452.68358
G1 F1125 X174.4 Y140.563 E454.00459
G0 F300 X174.4 Y140.563 Z0.54
G0 F9000 X175.076 Y138.309
;TIME_ELAPSED:321.586832
;LAYER:-5
;TYPE:SUPPORT
G1 F1125 X174.861 Y139.186 E454.09469
G1 X174.813 Y139.353 E454.11203
G1 X174.787 Y139.432 E454.12033
G1 X105.51 Y70.155 E463.89606
G1 X105.373 Y70.163 E463.90976
G1 X104.855 Y70.201 E463.96158
G1 X104.201 Y70.26 E464.0271
