;FLAVOR:Marlin
;TIME:5477
;Filament used: 6.15275m
;Layer height: 0.28
;MINX:14.369
;MINY:88.267
;MINZ:0.28
;MAXX:220.636
;MAXY:146.736
;MAXZ:6.16
;Generated with Cura_SteamEngine 4.6.1
M140 S60
M105
M190 S60
M104 S200
M105
M109 S200
M82 ;absolute extrusion mode
; Ender 3 Custom Start G-code
G92 E0 ; Reset Extruder
G28 ; Home all axes
G1 Z2.0 F3000 ; Move Z Axis up little to prevent scratching of Heat Bed
G1 X0.1 Y20 Z0.3 F5000.0 ; Move to start position
G1 X0.1 Y200.0 Z0.3 F1500.0 E15 ; Draw the first line
G1 X0.4 Y200.0 Z0.3 F5000.0 ; Move to side a little
G1 X0.4 Y20 Z0.3 F1500.0 E30 ; Draw the second line
G92 E0 ; Reset Extruder
G1 Z2.0 F3000 ; Move Z Axis up little to prevent scratching of Heat Bed
G1 X5 Y20 Z0.3 F5000.0 ; Move over to prevent blob squish
G92 E0
G92 E0
G1 F1500 E-6.5
;LAYER_COUNT:22
;LAYER:0
M107
G0 F6000 X44.862 Y89.101 Z0.28
;TYPE:SKIRT
G1 F1500 E0
G1 F1200 X45.194 Y89.127 E0.01551
G1 X46.018 Y89.225 E0.05415
G1 X47.741 Y89.505 E0.13543
G1 X84.604 Y96.213 E1.88011
G1 X87.179 Y96.644 E2.00168
G1 X89.721 Y96.996 E2.12118
G1 X92.222 Y97.271 E2.23834
G1 X94.778 Y97.478 E2.35775
G1 X97.283 Y97.61 E2.47455
G1 X100.856 Y97.679 E2.64096
G1 X147.472 Y97.68 E4.81159
G1 X150.078 Y97.643 E4.93295
G1 X152.646 Y97.534 E5.05263
G1 X155.148 Y97.357 E5.16943
G1 X157.66 Y97.108 E5.28697
G1 X160.225 Y96.779 E5.40739
G1 X162.685 Y96.394 E5.52333
G1 X194.501 Y90.969 E7.0262
G1 X195.763 Y90.778 E7.08563
G1 X196.029 Y90.745 E7.09811
G1 X196.527 Y90.695 E7.12142
G1 X196.755 Y90.678 E7.13206
G1 X197.098 Y90.658 E7.14806
G1 X197.717 Y90.637 E7.1769
G1 X198.582 Y90.626 E7.21718
G1 X208.236 Y90.626 E7.66671
G1 X208.969 Y90.636 E7.70085
G1 X209.871 Y90.688 E7.74292
G1 X210.949 Y90.857 E7.79373
G1 X211.241 Y90.919 E7.80763
G1 X212.115 Y91.146 E7.84968
G1 X212.966 Y91.449 E7.89174
G1 X214.048 Y91.965 E7.94756
G1 X214.213 Y92.056 E7.95633
G1 X214.984 Y92.527 E7.9984
G1 X215.71 Y93.064 E8.04045
G1 X216.385 Y93.663 E8.08247
G1 X216.741 Y94.025 E8.10611
G1 X216.968 Y94.268 E8.1216
G1 X217.554 Y94.955 E8.16364
G1 X218.078 Y95.69 E8.20568
G1 X218.535 Y96.47 E8.24777
G1 X218.92 Y97.286 E8.28978
G1 X219.134 Y97.84 E8.31744
G1 X219.232 Y98.118 E8.33116
G1 X219.494 Y98.982 E8.3732
G1 X219.679 Y99.866 E8.41526
G1 X219.797 Y100.961 E8.46654
G1 X219.821 Y101.407 E8.48734
G1 X219.836 Y101.952 E8.51273
G1 X219.836 Y105.915 E8.69726
G1 X219.827 Y106.555 E8.72706
G1 X219.783 Y107.371 E8.76512
G1 X219.643 Y108.854 E8.83448
G1 X219.431 Y111.413 E8.95404
G1 X219.295 Y113.929 E9.07137
G1 X219.227 Y116.504 E9.19132
G1 X219.233 Y119.034 E9.30912
G1 X219.311 Y121.573 E9.42741
G1 X219.459 Y124.099 E9.54523
G1 X219.685 Y126.68 E9.66587
G1 X219.77 Y127.492 E9.70389
G1 X219.821 Y128.25 E9.73926
G1 X219.835 Y128.851 E9.76725
G1 X219.836 Y132.816 E9.95188
G1 X219.827 Y133.487 E9.98313
G1 X219.775 Y134.388 E10.02515
G1 X219.64 Y135.297 E10.06794
G1 X219.584 Y135.585 E10.08161
G1 X219.373 Y136.463 E10.12365
G1 X219.085 Y137.319 E10.16571
G1 X218.722 Y138.146 E10.20776
G1 X218.464 Y138.635 E10.23351
G1 X218.328 Y138.877 E10.24643
G1 X217.851 Y139.644 E10.28849
G1 X217.308 Y140.366 E10.33056
G1 X216.704 Y141.037 E10.3726
G1 X215.947 Y141.732 E10.42045
G1 X215.742 Y141.902 E10.43285
G1 X215.022 Y142.447 E10.4749
G1 X214.257 Y142.926 E10.51693
G1 X213.452 Y143.336 E10.55899
G1 X212.614 Y143.673 E10.60105
G1 X212.085 Y143.843 E10.62692
G1 X211.711 Y143.952 E10.64506
G1 X210.834 Y144.166 E10.6871
G1 X209.941 Y144.301 E10.72915
G1 X209.03 Y144.358 E10.77165
G1 X207.976 Y144.374 E10.82074
G1 X198.454 Y144.374 E11.26412
G1 X197.396 Y144.356 E11.31339
G1 X196.648 Y144.314 E11.34828
G1 X196.259 Y144.279 E11.36647
G1 X195.971 Y144.248 E11.37995
G1 X195.501 Y144.187 E11.40202
G1 X194.348 Y144.007 E11.45636
G1 X162.664 Y138.603 E12.95301
G1 X160.159 Y138.211 E13.07107
G1 X157.625 Y137.89 E13.19001
G1 X155.07 Y137.638 E13.30955
G1 X152.56 Y137.462 E13.42672
G1 X150.018 Y137.356 E13.54519
G1 X147.481 Y137.321 E13.66333
G1 X100.843 Y137.32 E15.83499
G1 X98.238 Y137.357 E15.9563
G1 X95.672 Y137.466 E16.0759
G1 X93.165 Y137.644 E16.19293
G1 X90.624 Y137.895 E16.31182
G1 X88.14 Y138.213 E16.42843
G1 X84.605 Y138.787 E16.59519
G1 X47.58 Y145.522 E18.34752
G1 X46.147 Y145.752 E18.4151
G1 X45.464 Y145.838 E18.44716
G1 X44.898 Y145.89 E18.47362
G1 X44.247 Y145.929 E18.50399
G1 X43.994 Y145.936 E18.51578
G1 X43.178 Y145.926 E18.55377
G1 X42.091 Y145.869 E18.60446
G1 X41.732 Y145.844 E18.62122
G1 X41.125 Y145.786 E18.64961
G1 X40.435 Y145.704 E18.68197
G1 X40.141 Y145.664 E18.69578
G1 X39.346 Y145.542 E18.73323
G1 X38.389 Y145.368 E18.77853
G1 X38.008 Y145.289 E18.79664
G1 X37.685 Y145.216 E18.81206
G1 X36.869 Y145.019 E18.85115
G1 X36.556 Y144.938 E18.86621
G1 X35.939 Y144.764 E18.89606
G1 X34.859 Y144.427 E18.94874
G1 X34.187 Y144.193 E18.98187
G1 X33.244 Y143.835 E19.02884
G1 X32.854 Y143.676 E19.04845
G1 X32.548 Y143.545 E19.06395
G1 X31.565 Y143.102 E19.11416
G1 X30.929 Y142.791 E19.14712
G1 X30.232 Y142.428 E19.18372
G1 X29.959 Y142.28 E19.19817
G1 X29.362 Y141.94 E19.23017
G1 X28.451 Y141.388 E19.27977
G1 X28.133 Y141.184 E19.29736
G1 X27.854 Y140.998 E19.31297
G1 X26.931 Y140.357 E19.3653
G1 X26.389 Y139.953 E19.39678
G1 X25.752 Y139.454 E19.43445
G1 X25.487 Y139.239 E19.45034
G1 X24.996 Y138.822 E19.48034
G1 X24.201 Y138.111 E19.53
G1 X23.922 Y137.848 E19.54786
G1 X23.687 Y137.619 E19.56314
G1 X22.929 Y136.851 E19.61338
G1 X22.696 Y136.603 E19.62923
G1 X22.457 Y136.339 E19.64581
G1 X21.705 Y135.473 E19.69922
G1 X21.298 Y134.97 E19.72934
G1 X20.61 Y134.072 E19.78202
G1 X20.425 Y133.817 E19.79669
G1 X20.227 Y133.533 E19.81281
G1 X19.599 Y132.595 E19.86537
G1 X19.415 Y132.304 E19.8814
G1 X19.244 Y132.024 E19.89668
G1 X18.695 Y131.084 E19.94737
G1 X18.58 Y130.876 E19.95844
G1 X18.399 Y130.533 E19.9765
G1 X17.973 Y129.688 E20.02056
G1 X17.712 Y129.137 E20.04895
G1 X17.598 Y128.881 E20.062
G1 X17.159 Y127.847 E20.11431
G1 X17.065 Y127.61 E20.12618
G1 X16.927 Y127.243 E20.14444
G1 X16.613 Y126.353 E20.18838
G1 X16.444 Y125.836 E20.21371
G1 X16.355 Y125.542 E20.22801
G1 X16.116 Y124.702 E20.26868
G1 X15.969 Y124.133 E20.29604
G1 X15.894 Y123.811 E20.31144
G1 X15.703 Y122.926 E20.3536
G1 X15.593 Y122.351 E20.38086
G1 X15.545 Y122.06 E20.39459
G1 X15.417 Y121.207 E20.43475
G1 X15.342 Y120.608 E20.46286
G1 X15.309 Y120.282 E20.47812
G1 X15.232 Y119.359 E20.52125
G1 X15.197 Y118.781 E20.54821
G1 X15.185 Y118.446 E20.56382
G1 X15.169 Y117.636 E20.60155
G1 X15.171 Y117.055 E20.6286
G1 X15.18 Y116.727 E20.64388
G1 X15.22 Y115.806 E20.6868
G1 X15.265 Y115.192 E20.71547
G1 X15.383 Y114.059 E20.76851
G1 X15.464 Y113.438 E20.79768
G1 X15.518 Y113.096 E20.8138
G1 X15.725 Y111.948 E20.86812
G1 X15.776 Y111.702 E20.87981
G1 X15.853 Y111.362 E20.89605
G1 X16.068 Y110.478 E20.93841
G1 X16.208 Y109.954 E20.96366
G1 X16.301 Y109.637 E20.97905
G1 X16.569 Y108.777 E21.02099
G1 X16.748 Y108.246 E21.04708
G1 X16.863 Y107.93 E21.06274
G1 X17.191 Y107.076 E21.10534
G1 X17.429 Y106.499 E21.1344
G1 X17.55 Y106.225 E21.14835
G1 X18.018 Y105.213 E21.20027
G1 X18.144 Y104.959 E21.21347
G1 X18.3 Y104.658 E21.22926
G1 X18.737 Y103.846 E21.2722
G1 X18.901 Y103.553 E21.28783
G1 X19.058 Y103.283 E21.30238
G1 X19.215 Y103.023 E21.31652
G1 X19.797 Y102.096 E21.36748
G1 X19.975 Y101.829 E21.38243
G1 X20.159 Y101.563 E21.39749
G1 X20.657 Y100.865 E21.43741
G1 X20.879 Y100.565 E21.45479
G1 X21.242 Y100.099 E21.4823
G1 X21.734 Y99.493 E21.51864
G1 X21.947 Y99.24 E21.53404
G1 X22.394 Y98.731 E21.56559
G1 X22.961 Y98.117 E21.6045
G1 X23.208 Y97.859 E21.62114
G1 X23.607 Y97.461 E21.64738
G1 X24.234 Y96.86 E21.68782
G1 X24.738 Y96.402 E21.71953
G1 X24.959 Y96.209 E21.73319
G1 X25.786 Y95.517 E21.7834
G1 X26.09 Y95.276 E21.80147
G1 X26.348 Y95.078 E21.81661
G1 X26.984 Y94.606 E21.85349
G1 X27.268 Y94.403 E21.86975
G1 X27.81 Y94.033 E21.9003
G1 X28.458 Y93.61 E21.93634
G1 X28.754 Y93.424 E21.95262
G1 X29.322 Y93.085 E21.98342
G1 X30.298 Y92.536 E22.03556
G1 X30.622 Y92.365 E22.05262
G1 X30.911 Y92.219 E22.0677
G1 X31.883 Y91.749 E22.11797
G1 X32.233 Y91.591 E22.13585
G1 X32.518 Y91.468 E22.1503
G1 X33.509 Y91.061 E22.20019
G1 X33.924 Y90.903 E22.22087
G1 X34.23 Y90.792 E22.23602
G1 X35.205 Y90.461 E22.28397
G1 X35.921 Y90.243 E22.31882
G1 X36.911 Y89.971 E22.36663
G1 X37.335 Y89.866 E22.38697
G1 X37.655 Y89.792 E22.40226
G1 X38.38 Y89.637 E22.43678
G1 X38.676 Y89.579 E22.45083
G1 X39.433 Y89.445 E22.48662
G1 X40.416 Y89.299 E22.5329
G1 X41.175 Y89.211 E22.56848
G1 X41.919 Y89.143 E22.60327
G1 X42.512 Y89.103 E22.63094
G1 X42.836 Y89.088 E22.64604
G1 X43.535 Y89.068 E22.67861
G1 X44.083 Y89.067 E22.70412
G1 X44.322 Y89.073 E22.71526
G1 X44.862 Y89.101 E22.74043
G0 F6000 X44.894 Y88.702
G1 F1200 X45.226 Y88.728 E22.75594
G1 X46.081 Y88.831 E22.79604
G1 X47.813 Y89.111 E22.87774
G1 X84.676 Y95.819 E24.62242
G1 X87.263 Y96.252 E24.74456
G1 X89.752 Y96.596 E24.86156
G1 X92.296 Y96.876 E24.98073
G1 X94.795 Y97.079 E25.09748
G1 X97.283 Y97.21 E25.21349
G1 X100.863 Y97.279 E25.38022
G1 X147.466 Y97.28 E27.55025
G1 X150.091 Y97.243 E27.6725
G1 X152.599 Y97.136 E27.78939
G1 X155.116 Y96.958 E27.90688
G1 X157.64 Y96.708 E28.02498
G1 X160.149 Y96.387 E28.14277
G1 X162.634 Y95.998 E28.25989
G1 X194.44 Y90.573 E29.7623
G1 X195.394 Y90.425 E29.80725
G1 X195.98 Y90.348 E29.83477
G1 X196.497 Y90.296 E29.85897
G1 X196.725 Y90.279 E29.86961
G1 X197.082 Y90.259 E29.88626
G1 X197.711 Y90.237 E29.91557
G1 X198.582 Y90.226 E29.95613
G1 X208.242 Y90.226 E30.40594
G1 X208.975 Y90.236 E30.44007
G1 X209.894 Y90.289 E30.48294
G1 X211.032 Y90.466 E30.53657
G1 X211.324 Y90.528 E30.55046
G1 X212.215 Y90.758 E30.59331
G1 X213.083 Y91.065 E30.63618
G1 X214.241 Y91.615 E30.69588
G1 X214.406 Y91.706 E30.70465
G1 X215.192 Y92.185 E30.74751
G1 X215.934 Y92.731 E30.79041
G1 X216.625 Y93.339 E30.83327
G1 X217.033 Y93.752 E30.8603
G1 X217.26 Y93.995 E30.87578
G1 X217.859 Y94.694 E30.91865
G1 X218.394 Y95.443 E30.96151
G1 X218.863 Y96.236 E31.00441
G1 X219.261 Y97.066 E31.04727
G1 X219.511 Y97.707 E31.07931
G1 X219.609 Y97.985 E31.09303
G1 X219.877 Y98.866 E31.13591
G1 X220.068 Y99.766 E31.17875
G1 X220.197 Y100.939 E31.2337
G1 X220.221 Y101.385 E31.2545
G1 X220.236 Y101.952 E31.28091
G1 X220.236 Y105.921 E31.46573
G1 X220.227 Y106.561 E31.49553
G1 X220.181 Y107.408 E31.53503
G1 X220.052 Y108.772 E31.59882
G1 X219.828 Y111.468 E31.72479
G1 X219.693 Y113.96 E31.841
G1 X219.627 Y116.478 E31.95829
G1 X219.633 Y119.021 E32.0767
G1 X219.71 Y121.538 E32.19396
G1 X219.859 Y124.074 E32.31225
G1 X220.085 Y126.659 E32.43308
G1 X220.168 Y127.45 E32.47011
G1 X220.221 Y128.238 E32.50689
G1 X220.235 Y128.85 E32.53539
G1 X220.236 Y132.821 E32.7203
G1 X220.227 Y133.492 E32.75155
G1 X220.175 Y134.411 E32.79441
G1 X220.033 Y135.373 E32.83969
G1 X219.977 Y135.661 E32.85335
G1 X219.762 Y136.556 E32.89621
G1 X219.471 Y137.43 E32.9391
G1 X219.104 Y138.274 E32.98196
G1 X218.813 Y138.831 E33.01122
G1 X218.677 Y139.073 E33.02415
G1 X218.191 Y139.855 E33.06702
G1 X217.64 Y140.593 E33.10991
G1 X217.026 Y141.279 E33.15278
G1 X216.202 Y142.039 E33.20497
G1 X215.997 Y142.209 E33.21737
G1 X215.264 Y142.766 E33.26024
G1 X214.485 Y143.256 E33.30309
G1 X213.666 Y143.678 E33.34599
G1 X212.814 Y144.026 E33.38885
G1 X212.197 Y144.227 E33.41907
G1 X211.823 Y144.336 E33.4372
G1 X210.929 Y144.555 E33.48006
G1 X210.019 Y144.695 E33.52294
G1 X209.037 Y144.757 E33.56875
G1 X207.976 Y144.774 E33.61816
G1 X198.449 Y144.774 E34.06178
G1 X197.378 Y144.755 E34.11166
G1 X196.62 Y144.713 E34.14701
G1 X196.217 Y144.677 E34.16585
G1 X195.929 Y144.646 E34.17934
G1 X195.439 Y144.582 E34.20235
G1 X194.281 Y144.401 E34.25692
G1 X162.683 Y139.012 E35.7495
G1 X160.079 Y138.604 E35.87224
G1 X157.572 Y138.286 E35.98991
G1 X155.039 Y138.036 E36.10843
G1 X152.55 Y137.862 E36.22461
G1 X149.997 Y137.756 E36.34359
G1 X147.475 Y137.721 E36.46104
G1 X100.849 Y137.72 E38.63214
G1 X98.225 Y137.757 E38.75433
G1 X95.716 Y137.864 E38.87127
G1 X93.196 Y138.042 E38.9889
G1 X90.681 Y138.291 E39.10659
G1 X88.194 Y138.61 E39.22334
G1 X84.692 Y139.178 E39.38854
G1 X47.644 Y145.917 E41.14196
G1 X46.211 Y146.147 E41.20954
G1 X45.501 Y146.237 E41.24286
G1 X44.935 Y146.289 E41.26933
G1 X44.258 Y146.329 E41.30091
G1 X44.005 Y146.336 E41.31269
G1 X43.157 Y146.325 E41.35218
G1 X42.07 Y146.268 E41.40287
G1 X41.697 Y146.242 E41.42028
G1 X41.078 Y146.183 E41.44923
G1 X40.082 Y146.06 E41.49596
G1 X39.276 Y145.936 E41.53393
G1 X38.308 Y145.759 E41.57976
G1 X37.927 Y145.68 E41.59787
G1 X37.591 Y145.605 E41.6139
G1 X36.775 Y145.408 E41.65299
G1 X36.45 Y145.324 E41.66862
G1 X35.821 Y145.146 E41.69906
G1 X35.037 Y144.905 E41.73725
G1 X34.73 Y144.805 E41.75229
G1 X34.046 Y144.567 E41.78601
G1 X33.093 Y144.206 E41.83346
G1 X32.703 Y144.047 E41.85308
G1 X32.385 Y143.911 E41.86918
G1 X31.391 Y143.462 E41.91997
G1 X31.044 Y143.295 E41.9379
G1 X30.745 Y143.145 E41.95348
G1 X29.763 Y142.629 E42.00513
G1 X29.431 Y142.443 E42.02285
G1 X29.156 Y142.283 E42.03767
G1 X28.235 Y141.725 E42.08781
G1 X27.917 Y141.521 E42.1054
G1 X27.627 Y141.328 E42.12162
G1 X26.955 Y140.865 E42.15962
G1 X26.694 Y140.679 E42.17454
G1 X26.142 Y140.268 E42.20659
G1 X25.505 Y139.769 E42.24427
G1 X25.23 Y139.546 E42.26075
G1 X24.73 Y139.121 E42.29131
G1 X24.165 Y138.62 E42.32647
G1 X23.927 Y138.402 E42.3415
G1 X23.648 Y138.139 E42.35935
G1 X23.404 Y137.901 E42.37523
G1 X22.638 Y137.125 E42.426
G1 X22.405 Y136.877 E42.44184
G1 X22.156 Y136.603 E42.45908
G1 X21.613 Y135.983 E42.49746
G1 X21.396 Y135.727 E42.51309
G1 X20.981 Y135.214 E42.54381
G1 X20.286 Y134.307 E42.59702
G1 X20.101 Y134.052 E42.61169
G1 X19.895 Y133.757 E42.62844
G1 X19.261 Y132.809 E42.68155
G1 X19.077 Y132.518 E42.69758
G1 X18.899 Y132.226 E42.7135
G1 X18.345 Y131.278 E42.76463
G1 X18.23 Y131.07 E42.7757
G1 X18.042 Y130.713 E42.79449
G1 X17.616 Y129.868 E42.83855
G1 X17.349 Y129.305 E42.86756
G1 X17.23 Y129.039 E42.88113
G1 X16.787 Y127.994 E42.93399
G1 X16.693 Y127.757 E42.94586
G1 X16.55 Y127.376 E42.96481
G1 X16.128 Y126.165 E43.02452
G1 X16.062 Y125.957 E43.03468
G1 X15.971 Y125.652 E43.0495
G1 X15.643 Y124.482 E43.10608
G1 X15.58 Y124.23 E43.11818
G1 X15.503 Y123.895 E43.13418
G1 X15.312 Y123.01 E43.17634
G1 X15.199 Y122.422 E43.20422
G1 X15.149 Y122.119 E43.21852
G1 X15.021 Y121.266 E43.25869
G1 X14.944 Y120.654 E43.28741
G1 X14.911 Y120.315 E43.30327
G1 X14.834 Y119.392 E43.3464
G1 X14.798 Y118.802 E43.37392
G1 X14.785 Y118.454 E43.39014
G1 X14.769 Y117.644 E43.42786
G1 X14.771 Y117.05 E43.45552
G1 X14.78 Y116.71 E43.47136
G1 X14.82 Y115.789 E43.51428
G1 X14.867 Y115.151 E43.54407
G1 X14.985 Y114.018 E43.59712
G1 X15.068 Y113.382 E43.62698
G1 X15.124 Y113.027 E43.64372
G1 X15.274 Y112.177 E43.68391
G1 X15.385 Y111.621 E43.71031
G1 X15.464 Y111.268 E43.72715
G1 X15.679 Y110.384 E43.76951
G1 X15.822 Y109.847 E43.79539
G1 X15.919 Y109.518 E43.81136
G1 X16.187 Y108.658 E43.85331
G1 X16.37 Y108.115 E43.87999
G1 X16.49 Y107.786 E43.89629
G1 X16.818 Y106.932 E43.93889
G1 X17.061 Y106.343 E43.96856
G1 X17.186 Y106.059 E43.98301
G1 X17.66 Y105.035 E44.03555
G1 X17.786 Y104.781 E44.04875
G1 X17.948 Y104.469 E44.06512
G1 X18.385 Y103.657 E44.10806
G1 X18.713 Y103.082 E44.13889
G1 X18.875 Y102.812 E44.15355
G1 X19.464 Y101.874 E44.20512
G1 X19.642 Y101.607 E44.22006
G1 X19.833 Y101.331 E44.23569
G1 X20.331 Y100.633 E44.27562
G1 X20.562 Y100.321 E44.2937
G1 X20.932 Y99.847 E44.3217
G1 X21.424 Y99.241 E44.35804
G1 X21.645 Y98.977 E44.37407
G1 X21.88 Y98.706 E44.39078
G1 X22.101 Y98.46 E44.40618
G1 X22.668 Y97.846 E44.44509
G1 X22.924 Y97.577 E44.46238
G1 X23.33 Y97.173 E44.48905
G1 X23.957 Y96.572 E44.5295
G1 X24.224 Y96.324 E44.54646
G1 X24.701 Y95.903 E44.57609
G1 X25.285 Y95.41 E44.61168
G1 X25.538 Y95.204 E44.62687
G1 X25.842 Y94.963 E44.64493
G1 X26.11 Y94.757 E44.66067
G1 X26.746 Y94.285 E44.69755
G1 X27.041 Y94.074 E44.71444
G1 X27.592 Y93.698 E44.7455
G1 X28.24 Y93.275 E44.78153
G1 X28.547 Y93.081 E44.79844
G1 X29.124 Y92.737 E44.82972
G1 X29.825 Y92.339 E44.86726
G1 X30.111 Y92.183 E44.88243
G1 X30.435 Y92.012 E44.89949
G1 X30.736 Y91.859 E44.91521
G1 X31.719 Y91.385 E44.96603
