;FLAVOR:Marlin
;TIME:31644
;Filament used: 22.5211m
;Layer height: 0.2
;MINX:56.235
;MINY:56.268
;MINZ:0.24
;MAXX:163.764
;MAXY:163.66
;MAXZ:20.09
;Generated with Cura_SteamEngine 4.7.0
M140 S60
M105
M190 S60
M104 S220
M105
M109 S220
M82 ;absolute extrusion mode
; Ender 3 Custom Start G-code
G92 E0 ; Reset Extruder
G28 ; Home all axes
G1 Z2.0 F3000 ; Move Z Axis up little to prevent scratching of Heat Bed
G1 X0.1 Y20 Z0.3 F5000.0 ; Move to start position
G1 X0.1 Y200.0 Z0.3 F1500.0 E15 ; Draw the first line
G1 X0.4 Y200.0 Z0.3 F5000.0 ; Move to side a little
G1 X0.4 Y20 Z0.3 F1500.0 E30 ; Draw the second line
G92 E0 ; Reset Extruder
G1 Z2.0 F3000 ; Move Z Axis up little to prevent scratching of Heat Bed
G1 X5 Y20 Z0.3 F5000.0 ; Move over to prevent blob squish
G92 E0
G92 E0
G1 F3000 E-10
;LAYER_COUNT:95
;LAYER:-6
M107
G0 F9000 X61.555 Y61.714 Z0.24
;TYPE:SUPPORT-INTERFACE
G1 F3000 E0
G1 F787.5 X61.712 Y61.558 E0.01767
G1 X62.408 Y60.912 E0.09347
G1 X62.547 Y60.793 E0.10807
G1 X63.238 Y60.239 E0.17877
G1 X63.377 Y60.135 E0.19263
G1 X64.092 Y59.643 E0.26191
G1 X64.276 Y59.526 E0.27932
G1 X65.032 Y59.083 E0.34926
G1 X65.174 Y59.006 E0.36216
G1 X66.006 Y58.597 E0.43616
G1 X66.119 Y58.547 E0.44602
G1 X66.969 Y58.204 E0.51919
G1 X67.142 Y58.142 E0.53386
G1 X67.98 Y57.873 E0.60411
G1 X68.144 Y57.827 E0.61771
G1 X69.016 Y57.615 E0.68935
G1 X69.178 Y57.582 E0.70254
G1 X70.071 Y57.434 E0.7748
G1 X70.248 Y57.411 E0.78905
G1 X71.142 Y57.328 E0.86072
G1 X71.284 Y57.321 E0.87206
G1 X72.025 Y57.3 E0.93124
G1 X147.951 Y57.3 E6.99198
G1 X148.987 Y57.337 E7.07473
G1 X149.11 Y57.346 E7.08457
G1 X150.027 Y57.448 E7.15823
G1 X150.202 Y57.473 E7.17234
G1 X151.091 Y57.637 E7.2445
G1 X151.214 Y57.665 E7.25457
G1 X152.108 Y57.899 E7.32833
G1 X152.271 Y57.948 E7.34192
G1 X153.113 Y58.234 E7.4129
G1 X153.279 Y58.298 E7.42711
G1 X154.082 Y58.639 E7.49674
G1 X154.271 Y58.727 E7.51339
G1 X155.065 Y59.135 E7.58465
G1 X155.182 Y59.202 E7.59541
G1 X155.961 Y59.676 E7.6682
G1 X156.112 Y59.776 E7.68265
G1 X156.826 Y60.287 E7.75274
G1 X156.974 Y60.4 E7.76761
G1 X157.666 Y60.977 E7.83953
G1 X157.774 Y61.073 E7.85106
G1 X158.285 Y61.556 E7.90719
G1 X158.286 Y61.555 E7.9073
G1 X158.442 Y61.712 E7.92497
G1 X159.088 Y62.408 E8.00077
G1 X159.207 Y62.547 E8.01538
G1 X159.761 Y63.238 E8.08607
G1 X159.865 Y63.377 E8.09993
G1 X160.357 Y64.092 E8.16921
G1 X160.474 Y64.276 E8.18662
G1 X160.914 Y65.025 E8.25596
G1 X160.987 Y65.159 E8.26814
G1 X161.392 Y65.982 E8.34136
G1 X161.453 Y66.119 E8.35333
G1 X161.795 Y66.964 E8.4261
G1 X161.854 Y67.13 E8.44016
G1 X162.125 Y67.972 E8.51077
G1 X162.172 Y68.138 E8.52454
G1 X162.383 Y69.007 E8.59592
G1 X162.417 Y69.17 E8.60921
G1 X162.565 Y70.062 E8.68139
G1 X162.589 Y70.248 E8.69636
G1 X162.67 Y71.132 E8.76722
G1 X162.679 Y71.284 E8.77938
G1 X162.7 Y72.017 E8.83791
G1 X162.7 Y147.969 E14.90073
G1 X162.664 Y148.975 E14.98108
G1 X162.654 Y149.11 E14.99189
G1 X162.552 Y150.027 E15.06554
G1 X162.527 Y150.202 E15.07965
G1 X162.365 Y151.08 E15.15092
G1 X162.335 Y151.214 E15.16188
G1 X162.104 Y152.099 E15.23489
G1 X162.052 Y152.271 E15.24924
G1 X161.766 Y153.113 E15.32022
G1 X161.702 Y153.279 E15.33442
G1 X161.361 Y154.082 E15.40406
G1 X161.28 Y154.257 E15.41945
G1 X160.876 Y155.043 E15.49
G1 X160.798 Y155.182 E15.50272
G1 X160.324 Y155.961 E15.57551
G1 X160.224 Y156.112 E15.58997
G1 X159.713 Y156.826 E15.66005
G1 X159.6 Y156.974 E15.67492
G1 X159.023 Y157.666 E15.74684
G1 X158.927 Y157.774 E15.75837
G1 X158.444 Y158.285 E15.8145
G1 X158.445 Y158.286 E15.81462
G1 X158.288 Y158.442 E15.83228
G1 X157.603 Y159.078 E15.9069
G1 X157.455 Y159.205 E15.92246
G1 X156.762 Y159.761 E15.99339
G1 X156.623 Y159.865 E16.00724
G1 X155.908 Y160.357 E16.07652
G1 X155.724 Y160.474 E16.09393
G1 X154.968 Y160.917 E16.16387
G1 X154.826 Y160.994 E16.17677
G1 X153.998 Y161.401 E16.25042
G1 X153.881 Y161.453 E16.26064
G1 X153.026 Y161.798 E16.33423
G1 X152.863 Y161.856 E16.34804
G1 X152.02 Y162.127 E16.41873
G1 X151.856 Y162.173 E16.43232
G1 X150.984 Y162.385 E16.50396
G1 X150.822 Y162.418 E16.51716
G1 X149.929 Y162.566 E16.58941
G1 X149.752 Y162.589 E16.60366
G1 X148.858 Y162.672 E16.67533
G1 X148.716 Y162.679 E16.68668
G1 X147.975 Y162.7 E16.74585
G1 X72.049 Y162.7 E22.80659
G1 X71.013 Y162.663 E22.88934
G1 X70.89 Y162.654 E22.89919
G1 X69.973 Y162.552 E22.97284
G1 X69.798 Y162.527 E22.98695
G1 X68.909 Y162.363 E23.05911
G1 X68.786 Y162.335 E23.06918
G1 X67.892 Y162.101 E23.14295
G1 X67.729 Y162.052 E23.15653
G1 X66.887 Y161.766 E23.22752
G1 X66.721 Y161.702 E23.24172
G1 X65.918 Y161.361 E23.31136
G1 X65.729 Y161.273 E23.328
G1 X64.935 Y160.865 E23.39926
G1 X64.818 Y160.798 E23.41002
G1 X64.039 Y160.324 E23.48281
G1 X63.888 Y160.224 E23.49727
G1 X63.174 Y159.713 E23.56736
G1 X63.026 Y159.6 E23.58222
G1 X62.334 Y159.023 E23.65414
G1 X62.226 Y158.927 E23.66567
G1 X61.715 Y158.444 E23.7218
G1 X61.714 Y158.445 E23.72192
G1 X61.554 Y158.284 E23.74003
G1 X60.91 Y157.59 E23.81561
G1 X60.793 Y157.453 E23.82999
G1 X60.243 Y156.767 E23.90018
G1 X60.127 Y156.611 E23.91569
G1 X59.643 Y155.908 E23.98383
G1 X59.526 Y155.724 E24.00123
G1 X59.083 Y154.968 E24.07118
G1 X59.006 Y154.826 E24.08407
G1 X58.597 Y153.994 E24.15807
G1 X58.547 Y153.881 E24.16794
G1 X58.198 Y153.017 E24.24232
G1 X58.142 Y152.859 E24.2557
G1 X57.87 Y152.011 E24.32679
G1 X57.828 Y151.861 E24.33922
G1 X57.612 Y150.973 E24.41217
G1 X57.583 Y150.83 E24.42382
G1 X57.433 Y149.924 E24.49713
G1 X57.411 Y149.752 E24.51097
G1 X57.328 Y148.853 E24.58304
G1 X57.321 Y148.716 E24.59399
G1 X57.3 Y147.983 E24.65252
G1 X57.3 Y72.031 E30.71534
G1 X57.336 Y71.025 E30.79569
G1 X57.346 Y70.89 E30.8065
G1 X57.447 Y69.975 E30.87998
G1 X57.473 Y69.8 E30.8941
G1 X57.635 Y68.92 E30.96553
G1 X57.665 Y68.786 E30.97649
G1 X57.896 Y67.9 E31.04958
G1 X57.948 Y67.729 E31.06385
G1 X58.234 Y66.887 E31.13483
G1 X58.298 Y66.721 E31.14903
G1 X58.639 Y65.918 E31.21867
G1 X58.72 Y65.743 E31.23406
G1 X59.135 Y64.935 E31.30657
G1 X59.202 Y64.818 E31.31733
G1 X59.676 Y64.039 E31.39012
G1 X59.776 Y63.888 E31.40458
G1 X60.292 Y63.167 E31.47536
G1 X60.4 Y63.026 E31.48953
G1 X60.977 Y62.334 E31.56145
G1 X61.073 Y62.226 E31.57299
G1 X61.556 Y61.715 E31.62912
G1 X61.555 Y61.714 E31.62923
G0 F9000 X60.8 Y62.546
G1 F787.5 X60.8 Y157.461 E39.20576
G0 F9000 X62.4 Y159.078
G1 F787.5 X62.4 Y60.919 E47.04123
G0 F9000 X64 Y59.706
G1 F787.5 X64 Y160.298 E55.07092
G0 F9000 X65.6 Y161.206
G1 F787.5 X65.6 Y58.796 E63.24573
G0 F9000 X67.2 Y58.123
G1 F787.5 X67.2 Y161.872 E71.52742
G0 F9000 X68.8 Y162.338
G1 F787.5 X68.8 Y57.667 E79.88271
G0 F9000 X70.4 Y57.396
G1 F787.5 X70.4 Y162.599 E88.28047
G0 F9000 X72 Y162.698
G1 F787.5 X72 Y57.3 E96.6938
G0 F9000 X73.6 Y57.3
G1 F787.5 X73.6 Y162.7 E105.10728
G0 F9000 X75.2 Y162.7
G1 F787.5 X75.2 Y57.3 E113.52076
G0 F9000 X76.8 Y57.3
G1 F787.5 X76.8 Y162.7 E121.93425
G0 F9000 X78.4 Y162.7
G1 F787.5 X78.4 Y57.3 E130.34773
G0 F9000 X80 Y57.3
G1 F787.5 X80 Y162.7 E138.76122
G0 F9000 X81.6 Y162.7
G1 F787.5 X81.6 Y57.3 E147.1747
G0 F9000 X83.2 Y57.3
G1 F787.5 X83.2 Y162.7 E155.58818
G0 F9000 X84.8 Y162.7
G1 F787.5 X84.8 Y57.3 E164.00167
G0 F9000 X86.4 Y57.3
G1 F787.5 X86.4 Y162.7 E172.41515
G0 F9000 X88 Y162.7
G1 F787.5 X88 Y57.3 E180.82863
G0 F9000 X89.6 Y57.3
G1 F787.5 X89.6 Y162.7 E189.24212
G0 F9000 X91.2 Y162.7
G1 F787.5 X91.2 Y57.3 E197.6556
G0 F9000 X92.8 Y57.3
G1 F787.5 X92.8 Y162.7 E206.06909
G0 F9000 X94.4 Y162.7
G1 F787.5 X94.4 Y57.3 E214.48257
G0 F9000 X96 Y57.3
G1 F787.5 X96 Y162.7 E222.89605
G0 F9000 X97.6 Y162.7
G1 F787.5 X97.6 Y57.3 E231.30954
G0 F9000 X99.2 Y57.3
G1 F787.5 X99.2 Y162.7 E239.72302
G0 F9000 X100.8 Y162.7
G1 F787.5 X100.8 Y57.3 E248.1365
G0 F9000 X102.4 Y57.3
G1 F787.5 X102.4 Y162.7 E256.54999
G0 F9000 X104 Y162.7
G1 F787.5 X104 Y57.3 E264.96347
G0 F9000 X105.6 Y57.3
G1 F787.5 X105.6 Y162.7 E273.37696
G0 F9000 X107.2 Y162.7
G1 F787.5 X107.2 Y57.3 E281.79044
G0 F9000 X108.8 Y57.3
G1 F787.5 X108.8 Y162.7 E290.20392
G0 F9000 X110.4 Y162.7
G1 F787.5 X110.4 Y57.3 E298.61741
G0 F9000 X112 Y57.3
G1 F787.5 X112 Y162.7 E307.03089
G0 F9000 X113.6 Y162.7
G1 F787.5 X113.6 Y57.3 E315.44437
G0 F9000 X115.2 Y57.3
G1 F787.5 X115.2 Y162.7 E323.85786
G0 F9000 X116.8 Y162.7
G1 F787.5 X116.8 Y57.3 E332.27134
G0 F9000 X118.4 Y57.3
G1 F787.5 X118.4 Y162.7 E340.68483
G0 F9000 X120 Y162.7
G1 F787.5 X120 Y57.3 E349.09831
G0 F9000 X121.6 Y57.3
G1 F787.5 X121.6 Y162.7 E357.51179
G0 F9000 X123.2 Y162.7
G1 F787.5 X123.2 Y57.3 E365.92528
G0 F9000 X124.8 Y57.3
G1 F787.5 X124.8 Y162.7 E374.33876
G0 F9000 X126.4 Y162.7
G1 F787.5 X126.4 Y57.3 E382.75224
G0 F9000 X128 Y57.3
G1 F787.5 X128 Y162.7 E391.16573
G0 F9000 X129.6 Y162.7
G1 F787.5 X129.6 Y57.3 E399.57921
G0 F9000 X131.2 Y57.3
G1 F787.5 X131.2 Y162.7 E407.9927
G0 F9000 X132.8 Y162.7
G1 F787.5 X132.8 Y57.3 E416.40618
G0 F9000 X134.4 Y57.3
G1 F787.5 X134.4 Y162.7 E424.81966
G0 F9000 X136 Y162.7
G1 F787.5 X136 Y57.3 E433.23315
G0 F9000 X137.6 Y57.3
G1 F787.5 X137.6 Y162.7 E441.64663
G0 F9000 X139.2 Y162.7
G1 F787.5 X139.2 Y57.3 E450.06011
G0 F9000 X140.8 Y57.3
G1 F787.5 X140.8 Y162.7 E458.4736
G0 F9000 X142.4 Y162.7
G1 F787.5 X142.4 Y57.3 E466.88708
G0 F9000 X144 Y57.3
G1 F787.5 X144 Y162.7 E475.30057
G0 F9000 X145.6 Y162.7
G1 F787.5 X145.6 Y57.3 E483.71405
G0 F9000 X147.2 Y57.3
G1 F787.5 X147.2 Y162.7 E492.12753
G0 F9000 X148.8 Y162.675
G1 F787.5 X148.8 Y57.331 E500.53655
G0 F9000 X150.4 Y57.51
G1 F787.5 X150.4 Y162.488 E508.91635
G0 F9000 X152 Y162.133
G1 F787.5 X152 Y57.871 E517.23899
G0 F9000 X153.6 Y58.435
G1 F787.5 X153.6 Y161.567 E525.47143
G0 F9000 X155.2 Y160.782
G1 F787.5 X155.2 Y59.213 E533.57911
G0 F9000 X156.8 Y60.269
G1 F787.5 X156.8 Y159.731 E541.51859
G0 F9000 X158.4 Y158.331
G1 F787.5 X158.4 Y61.67 E549.23449
G0 F9000 X160 Y63.574
G1 F787.5 X160 Y156.425 E556.64626
G0 F9000 X161.6 Y153.52
G1 F787.5 X161.6 Y66.483 E563.59393
G1 F3000 E553.59393
G0 F9000 X162.587 Y66.085
G0 X161.843 Y64.508
G0 X160.734 Y62.763
G0 X159.888 Y61.706
G0 X158.366 Y60.174
G0 X156.722 Y58.904
G0 X155.563 Y58.195
G0 X153.683 Y57.313
G0 X152.393 Y56.873
G0 X150.366 Y56.421
G0 X149.04 Y56.274
G0 X71.061 Y56.268
G0 X68.984 Y56.534
G0 X67.675 Y56.853
G0 X65.71 Y57.565
G0 X64.515 Y58.153
G0 X62.763 Y59.266
G0 X61.706 Y60.112
G0 X60.174 Y61.634
G0 X59.146 Y62.965
G0 X58.29 Y64.269
G0 X59.2 Y64.821
G1 F3000 E563.59393
G1 F787.5 X59.2 Y155.167 E570.80574
G1 F3000 E560.80574
G0 F9000 X58.064 Y155.322
G0 X57.206 Y153.403
G0 X57.09 Y153.041
G0 X56.574 Y151.212
G0 X57.6 Y150.913
G1 F3000 E570.80574
G1 F787.5 X57.6 Y69.11 E577.33561
G1 F3000 E567.33561
G0 F300 X57.6 Y69.11 Z0.54
G0 F9000 X56.421 Y69.632
G0 X56.274 Y70.96
G0 X56.268 Y148.939
G0 X56.534 Y151.015
G0 X56.853 Y152.325
G0 X57.565 Y154.29
G0 X57.731 Y154.628
G0 X58.606 Y156.261
G0 X59.525 Y155.723
;TIME_ELAPSED:566.960429
;LAYER:-5
;TYPE:SUPPORT
G1 F3000 E577.33561
G1 F787.5 X59.643 Y155.907 E577.35742
G1 X60.126 Y156.61 E577.44253
G1 X60.243 Y156.766 E577.46198
G1 X60.793 Y157.452 E577.54972
G1 X60.909 Y157.589 E577.56763
G1 X61.553 Y158.283 E577.6621
G1 X61.713 Y158.444 E577.68475
G0 F9000 X61.714 Y158.442
G1 F787.5 X62.226 Y158.925 E577.75498
G1 X62.334 Y159.022 E577.76946
G1 X63.025 Y159.599 E577.85929
G1 X63.173 Y159.712 E577.87787
G1 X63.888 Y160.223 E577.96556
G1 X64.039 Y160.323 E577.98363
G1 X64.339 Y160.506 E578.01869
G1 X59.481 Y155.647 E578.70428
G1 X59.083 Y154.966 E578.78298
G1 X59.006 Y154.825 E578.79901
G1 X58.597 Y153.993 E578.89152
G1 X58.547 Y153.88 E578.90385
G1 X58.197 Y153.016 E578.99686
G1 X58.16 Y152.913 E579.00779
G1 X67.077 Y161.829 E580.266
G1 X67.728 Y162.051 E580.33463
G1 X67.892 Y162.099 E580.35168
G1 X68.785 Y162.334 E580.44382
G1 X68.908 Y162.361 E580.45638
G1 X69.048 Y162.387 E580.47059
G1 X57.605 Y150.943 E582.08539
G1 X57.583 Y150.829 E582.09698
G1 X57.432 Y149.923 E582.18863
G1 X57.411 Y149.751 E582.20592
G1 X57.368 Y149.292 E582.25191
G1 X70.708 Y162.632 E584.13433
G1 X70.89 Y162.652 E584.1526
G1 X71.012 Y162.662 E584.16482
G1 X72.049 Y162.698 E584.26835
G1 X72.189 Y162.698 E584.28232
G1 X57.299 Y147.809 E586.38339
G1 X57.299 Y146.395 E586.52448
G1 X73.603 Y162.698 E588.82508
G1 X75.017 Y162.698 E588.96617
G1 X57.299 Y144.98 E591.46637
G1 X57.299 Y143.566 E591.60746
G1 X76.431 Y162.698 E594.30719
G1 X77.846 Y162.698 E594.44838
G1 X57.299 Y142.152 E597.34771
G1 X57.299 Y140.738 E597.4888
G1 X79.26 Y162.698 E600.58767
G1 X80.674 Y162.698 E600.72876
G1 X57.299 Y139.324 E604.02715
G1 X57.299 Y137.909 E604.16834
G1 X82.088 Y162.698 E607.66634
G1 X83.502 Y162.698 E607.80743
G1 X57.299 Y136.495 E611.50495
G1 X57.299 Y135.081 E611.64604
G1 X84.917 Y162.698 E615.54317
G1 X86.331 Y162.698 E615.68426
G1 X57.299 Y133.667 E619.78092
G1 X57.299 Y132.253 E619.92201
G1 X87.745 Y162.698 E624.21819
G1 X89.159 Y162.698 E624.35928
G1 X57.299 Y130.838 E628.85507
G1 X57.299 Y129.424 E628.99616
G1 X90.574 Y162.698 E633.69156
G1 X91.988 Y162.698 E633.83264
G1 X57.299 Y128.01 E638.72757
G1 X57.299 Y126.596 E638.86866
G1 X93.402 Y162.698 E643.96311
G1 X94.816 Y162.698 E644.1042
G1 X57.299 Y125.181 E649.39825
G1 X57.299 Y123.767 E649.53934
G1 X96.23 Y162.698 E655.03293
G1 X97.645 Y162.698 E655.17412
G1 X57.299 Y122.353 E660.8673
G1 X57.299 Y120.939 E661.00839
G1 X99.059 Y162.698 E666.90111
G1 X100.473 Y162.698 E667.0422
G1 X57.299 Y119.525 E673.13444
G1 X57.299 Y118.11 E673.27563
G1 X101.887 Y162.698 E679.56748
G1 X103.301 Y162.698 E679.70857
G1 X57.299 Y116.696 E686.19995
G1 X57.299 Y115.282 E686.34104
G1 X104.716 Y162.698 E693.03202
G1 X106.13 Y162.698 E693.17311
G1 X57.299 Y113.868 E700.06362
G1 X57.299 Y112.454 E700.20471
G1 X107.544 Y162.698 E707.29475
G1 X108.958 Y162.698 E707.43584
G1 X57.299 Y111.039 E714.72548
G1 X57.299 Y109.625 E714.86657
G1 X110.373 Y162.698 E722.35582
G1 X111.787 Y162.698 E722.49691
G1 X57.299 Y108.211 E730.18568
G1 X57.299 Y106.797 E730.32677
G1 X113.201 Y162.698 E738.21508
G1 X114.615 Y162.698 E738.35617
G1 X57.299 Y105.382 E746.44407
G1 X57.299 Y103.968 E746.58516
G1 X116.029 Y162.698 E754.8726
G1 X117.444 Y162.698 E755.01379
G1 X57.299 Y102.554 E763.50083
G1 X57.299 Y101.14 E763.64192
G1 X118.858 Y162.698 E772.32849
G1 X120.272 Y162.698 E772.46958
G1 X57.299 Y99.726 E781.35568
G1 X57.299 Y98.311 E781.49687
G1 X121.686 Y162.698 E790.58257
G1 X123.1 Y162.698 E790.72366
G1 X57.299 Y96.897 E800.00889
G1 X57.299 Y95.483 E800.14998
G1 X124.515 Y162.698 E809.63481
G1 X125.929 Y162.698 E809.7759
G1 X57.299 Y94.069 E819.46026
G1 X57.299 Y92.655 E819.60135
G1 X127.343 Y162.698 E829.48525
G1 X128.757 Y162.698 E829.62634
G1 X57.299 Y91.24 E839.70983
G1 X57.299 Y89.826 E839.85092
G1 X130.171 Y162.698 E850.13395
G1 X131.586 Y162.698 E850.27514
G1 X57.299 Y88.412 E860.75777
G1 X57.299 Y86.998 E860.89886
G1 X133 Y162.698 E871.58101
G1 X134.414 Y162.698 E871.7221
G1 X57.299 Y85.583 E882.60386
G1 X57.299 Y84.169 E882.74495
G1 X135.828 Y162.698 E893.82624
G1 X137.243 Y162.698 E893.96743
G1 X57.299 Y82.755 E905.24832
G1 X57.299 Y81.341 E905.38941
G1 X138.657 Y162.698 E916.86984
G1 X140.071 Y162.698 E917.01093
G1 X57.299 Y79.927 E928.69088
G1 X57.299 Y78.512 E928.83207
G1 X141.485 Y162.698 E940.71162
G1 X142.899 Y162.698 E940.85271
G1 X57.299 Y77.098 E952.9318
G1 X57.299 Y75.684 E953.07288
G1 X144.314 Y162.698 E965.35157
G1 X145.728 Y162.698 E965.49266
G1 X57.299 Y74.27 E977.97088
G1 X57.299 Y72.856 E978.11197
G1 X147.142 Y162.698 E990.78971
G1 X147.974 Y162.699 E990.87273
G1 X148.541 Y162.683 E990.92933
G1 X57.319 Y71.461 E1003.80174
G1 X57.335 Y71.023 E1003.84547
G1 X57.345 Y70.889 E1003.85888
G1 X57.426 Y70.154 E1003.93266
G1 X149.847 Y162.575 E1016.97426
G1 X149.929 Y162.565 E1016.98251
G1 X150.822 Y162.417 E1017.07283
G1 X150.984 Y162.384 E1017.08932
G1 X151.053 Y162.367 E1017.09641
G1 X57.629 Y68.943 E1030.27955
G1 X57.634 Y68.918 E1030.28209
G1 X57.665 Y68.785 E1030.29572
G1 X57.896 Y67.899 E1030.38708
G1 X57.919 Y67.819 E1030.39538
G1 X152.175 Y162.075 E1043.69592
G1 X152.862 Y161.855 E1043.7679
G1 X153.026 Y161.797 E1043.78526
G1 X153.229 Y161.714 E1043.80714
G1 X58.279 Y66.765 E1057.20554
G1 X58.298 Y66.719 E1057.21051
G1 X58.638 Y65.917 E1057.29743
