;FLAVOR:Marlin
;TIME:7983
;Filament used: 7.85969m
;Layer height: 0.28
;MINX:66.911
;MINY:76.462
;MINZ:0.336
;MAXX:168.09
;MAXY:158.539
;MAXZ:54.666
;Generated with Cura_SteamEngine 4.6.1
M140 S60
M105
M190 S60
M104 S200
M105
M109 S200
M82 ;absolute extrusion mode
; Ender 3 Custom Start G-code
G92 E0 ; Reset Extruder
G28 ; Home all axes
G1 Z2.0 F3000 ; Move Z Axis up little to prevent scratching of Heat Bed
G1 X0.1 Y20 Z0.3 F5000.0 ; Move to start position
G1 X0.1 Y200.0 Z0.3 F1500.0 E15 ; Draw the first line
G1 X0.4 Y200.0 Z0.3 F5000.0 ; Move to side a little
G1 X0.4 Y20 Z0.3 F1500.0 E30 ; Draw the second line
G92 E0 ; Reset Extruder
G1 Z2.0 F3000 ; Move Z Axis up little to prevent scratching of Heat Bed
G1 X5 Y20 Z0.3 F5000.0 ; Move over to prevent blob squish
G92 E0
G92 E0
G1 F1500 E-6.5
;LAYER_COUNT:190
;LAYER:-6
M107
G0 F9000 X73.083 Y84.922 Z0.336
;TYPE:SUPPORT-INTERFACE
G1 F1500 E0
G1 F1125 X73.222 Y84.803 E0.02045
G1 X73.913 Y84.249 E0.11943
G1 X74.052 Y84.145 E0.13883
G1 X74.767 Y83.652 E0.23588
G1 X74.951 Y83.536 E0.26019
G1 X75.707 Y83.093 E0.35811
G1 X75.849 Y83.016 E0.37617
G1 X76.794 Y82.557 E0.49357
G1 X77.649 Y82.212 E0.59661
G1 X77.816 Y82.152 E0.61644
G1 X78.655 Y81.883 E0.7149
G1 X78.819 Y81.837 E0.73394
G1 X79.691 Y81.625 E0.83422
G1 X79.853 Y81.592 E0.8527
G1 X80.746 Y81.444 E0.95386
G1 X80.923 Y81.421 E0.9738
G1 X81.817 Y81.338 E1.07414
G1 X81.959 Y81.331 E1.09003
G1 X82.7 Y81.31 E1.17287
G1 X85.767 Y81.31 E1.51562
G1 X86.435 Y81.268 E1.59042
G1 X87.106 Y81.139 E1.66678
G1 X87.76 Y80.924 E1.74372
G1 X88.615 Y80.49 E1.85087
G1 X89.727 Y79.794 E1.99748
G1 X89.976 Y79.656 E2.02929
G1 X90.989 Y79.143 E2.15619
G1 X91.453 Y78.939 E2.21283
G1 X91.788 Y78.801 E2.25332
G1 X92.838 Y78.411 E2.3785
G1 X93.435 Y78.227 E2.44831
G1 X93.775 Y78.134 E2.4877
G1 X95.339 Y77.78 E2.66691
G1 X95.656 Y77.727 E2.70282
G1 X96.582 Y77.602 E2.80725
G1 X96.753 Y77.585 E2.82645
G1 X97.616 Y77.524 E2.92314
G1 X98.526 Y77.5 E3.02487
G1 X149.295 Y77.502 E8.69851
G1 X150.139 Y77.527 E8.79287
G1 X150.521 Y77.553 E8.83566
G1 X152.107 Y77.737 E9.01409
G1 X152.453 Y77.8 E9.05339
G1 X153.987 Y78.149 E9.2292
G1 X154.277 Y78.232 E9.26291
G1 X155.312 Y78.566 E9.38445
G1 X156.103 Y78.877 E9.47944
G1 X156.238 Y78.937 E9.49595
G1 X157.197 Y79.377 E9.61386
G1 X157.997 Y79.807 E9.71536
G1 X158.083 Y79.859 E9.72659
G1 X159.37 Y80.667 E9.89642
G1 X159.629 Y80.851 E9.93192
G1 X160.503 Y81.517 E10.05472
G1 X161.143 Y82.072 E10.14939
G1 X161.263 Y82.185 E10.16781
G1 X162.386 Y83.307 E10.34521
G1 X162.624 Y83.575 E10.38527
G1 X163.308 Y84.401 E10.50512
G1 X163.815 Y85.094 E10.60108
G1 X163.874 Y85.184 E10.6131
G1 X164.66 Y86.431 E10.77783
G1 X164.86 Y86.783 E10.82308
G1 X165.377 Y87.803 E10.95087
G1 X165.578 Y88.26 E11.00667
G1 X165.724 Y88.613 E11.04936
G1 X166.102 Y89.625 E11.17008
G1 X166.285 Y90.218 E11.23944
G1 X166.394 Y90.61 E11.28491
G1 X166.745 Y92.162 E11.46273
G1 X166.801 Y92.507 E11.50179
G1 X166.938 Y93.556 E11.62002
G1 X167.001 Y94.441 E11.71917
G1 X167.025 Y95.344 E11.82012
G1 X167.023 Y139.77 E16.7849
G1 X166.999 Y140.609 E16.8787
G1 X166.972 Y140.996 E16.92206
G1 X166.789 Y142.578 E17.10003
G1 X166.728 Y142.914 E17.13819
G1 X166.394 Y144.402 E17.30862
G1 X166.296 Y144.745 E17.34849
G1 X165.962 Y145.777 E17.46971
G1 X165.755 Y146.315 E17.53413
G1 X165.595 Y146.698 E17.58051
G1 X165.143 Y147.683 E17.70163
G1 X164.865 Y148.209 E17.76812
G1 X164.67 Y148.552 E17.81221
G1 X163.865 Y149.835 E17.98148
G1 X163.679 Y150.097 E18.01738
G1 X163.087 Y150.878 E18.1269
G1 X162.453 Y151.618 E18.2358
G1 X162.34 Y151.738 E18.25422
G1 X161.218 Y152.861 E18.43163
G1 X160.956 Y153.093 E18.47074
G1 X160.124 Y153.783 E18.59153
G1 X159.641 Y154.14 E18.65865
G1 X159.341 Y154.349 E18.69951
G1 X158.094 Y155.135 E18.86424
G1 X157.717 Y155.347 E18.91258
G1 X156.715 Y155.855 E19.03812
G1 X156.247 Y156.061 E19.09527
G1 X155.912 Y156.199 E19.13576
G1 X154.862 Y156.589 E19.26093
G1 X154.265 Y156.773 E19.33075
G1 X153.925 Y156.866 E19.37014
G1 X152.354 Y157.221 E19.55013
G1 X152.044 Y157.273 E19.58526
G1 X151.118 Y157.398 E19.68968
G1 X150.947 Y157.415 E19.70889
G1 X150.084 Y157.476 E19.80557
G1 X149.174 Y157.5 E19.9073
G1 X98.405 Y157.498 E25.58094
G1 X97.561 Y157.473 E25.6753
G1 X97.179 Y157.447 E25.71809
G1 X95.593 Y157.263 E25.89652
G1 X95.247 Y157.2 E25.93583
G1 X93.713 Y156.851 E26.11164
G1 X93.423 Y156.768 E26.14535
G1 X92.384 Y156.433 E26.26735
G1 X91.597 Y156.123 E26.36187
G1 X91.462 Y156.063 E26.37838
G1 X90.492 Y155.618 E26.49765
G1 X89.715 Y155.2 E26.59625
G1 X89.617 Y155.141 E26.60903
G1 X88.603 Y154.506 E26.74274
G1 X88.013 Y154.187 E26.81769
G1 X87.377 Y153.941 E26.8939
G1 X86.708 Y153.775 E26.97093
G1 X85.766 Y153.69 E27.07663
G1 X82.689 Y153.689 E27.4205
G1 X81.565 Y153.644 E27.54621
G1 X80.648 Y153.542 E27.64932
G1 X80.473 Y153.517 E27.66908
G1 X79.584 Y153.353 E27.7701
G1 X79.461 Y153.325 E27.7842
G1 X78.567 Y153.091 E27.88747
G1 X78.404 Y153.042 E27.90649
G1 X77.562 Y152.755 E28.00591
G1 X77.396 Y152.692 E28.02575
G1 X76.593 Y152.351 E28.12324
G1 X76.404 Y152.263 E28.14654
G1 X75.493 Y151.789 E28.26131
G1 X74.714 Y151.314 E28.36327
G1 X74.563 Y151.214 E28.38351
G1 X73.849 Y150.703 E28.48163
G1 X73.701 Y150.59 E28.50244
G1 X72.901 Y149.917 E28.61927
G1 X72.229 Y149.274 E28.72321
G1 X71.585 Y148.58 E28.82902
G1 X71.468 Y148.443 E28.84915
G1 X70.914 Y147.752 E28.94813
G1 X70.81 Y147.613 E28.96753
G1 X70.317 Y146.898 E29.06459
G1 X70.201 Y146.714 E29.08889
G1 X69.758 Y145.958 E29.18682
G1 X69.681 Y145.816 E29.20487
G1 X69.22 Y144.867 E29.32277
G1 X68.874 Y144.01 E29.42606
G1 X68.817 Y143.849 E29.44515
G1 X68.545 Y143.001 E29.54467
G1 X68.499 Y142.837 E29.5637
G1 X68.288 Y141.965 E29.66396
G1 X68.255 Y141.804 E29.68233
G1 X68.108 Y140.914 E29.78314
G1 X68.086 Y140.742 E29.80252
G1 X67.996 Y139.706 E29.91873
G1 X67.975 Y138.973 E30.00068
G1 X67.975 Y135.411 E30.39875
G1 X68.011 Y134.405 E30.51125
G1 X68.021 Y134.27 E30.52637
G1 X68.123 Y133.353 E30.62948
G1 X68.148 Y133.178 E30.64924
G1 X68.31 Y132.3 E30.74902
G1 X68.34 Y132.166 E30.76436
G1 X68.571 Y131.281 E30.86658
G1 X68.623 Y131.109 E30.88666
G1 X68.91 Y130.267 E30.98607
G1 X68.973 Y130.101 E31.00591
G1 X69.314 Y129.298 E31.10341
G1 X69.395 Y129.123 E31.12496
G1 X69.876 Y128.198 E31.24147
G1 X70.351 Y127.419 E31.34344
G1 X70.451 Y127.268 E31.36368
G1 X70.962 Y126.554 E31.4618
G1 X71.075 Y126.406 E31.48261
G1 X71.748 Y125.606 E31.59944
G1 X72.387 Y124.938 E31.70275
G1 X73.083 Y124.292 E31.80887
G1 X73.222 Y124.173 E31.82932
G1 X73.913 Y123.619 E31.92829
G1 X74.052 Y123.515 E31.94769
G1 X74.767 Y123.022 E32.04475
G1 X74.951 Y122.906 E32.06906
G1 X75.707 Y122.463 E32.16698
G1 X75.942 Y122.34 E32.19662
G1 X76.524 Y122.007 E32.27156
G1 X77.069 Y121.596 E32.34784
G1 X77.558 Y121.119 E32.42418
G1 X77.983 Y120.584 E32.50054
G1 X78.337 Y120.001 E32.57676
G1 X78.615 Y119.376 E32.65321
G1 X78.811 Y118.723 E32.7294
G1 X78.924 Y118.049 E32.80577
G1 X78.951 Y117.367 E32.88205
G1 X78.89 Y116.687 E32.95835
G1 X78.746 Y116.019 E33.03471
G1 X78.518 Y115.375 E33.11106
G1 X78.21 Y114.766 E33.18733
G1 X77.828 Y114.2 E33.26364
G1 X77.378 Y113.687 E33.3399
G1 X76.862 Y113.231 E33.41685
G1 X76.042 Y112.707 E33.5256
G1 X75.493 Y112.419 E33.59489
G1 X74.714 Y111.944 E33.69685
G1 X74.563 Y111.844 E33.71709
G1 X73.849 Y111.333 E33.81521
G1 X73.701 Y111.22 E33.83602
G1 X72.901 Y110.547 E33.95285
G1 X72.229 Y109.904 E34.05679
G1 X71.585 Y109.21 E34.1626
G1 X71.468 Y109.073 E34.18273
G1 X70.914 Y108.382 E34.28171
G1 X70.81 Y108.243 E34.30111
G1 X70.317 Y107.528 E34.39817
G1 X70.201 Y107.344 E34.42247
G1 X69.758 Y106.588 E34.5204
G1 X69.681 Y106.446 E34.53845
G1 X69.222 Y105.501 E34.65585
G1 X68.874 Y104.64 E34.75964
G1 X68.817 Y104.479 E34.77872
G1 X68.545 Y103.631 E34.87825
G1 X68.499 Y103.467 E34.89728
G1 X68.288 Y102.595 E34.99754
G1 X68.255 Y102.434 E35.01591
G1 X68.108 Y101.544 E35.11672
G1 X68.086 Y101.372 E35.1361
G1 X68.003 Y100.473 E35.23699
G1 X67.996 Y100.336 E35.25232
G1 X67.975 Y99.603 E35.33427
G1 X67.975 Y96.041 E35.73234
G1 X68.011 Y95.035 E35.84484
G1 X68.021 Y94.9 E35.85996
G1 X68.123 Y93.983 E35.96307
G1 X68.148 Y93.808 E35.98283
G1 X68.31 Y92.93 E36.08261
G1 X68.34 Y92.796 E36.09795
G1 X68.571 Y91.911 E36.20017
G1 X68.623 Y91.739 E36.22025
G1 X68.91 Y90.897 E36.31966
G1 X68.979 Y90.715 E36.34141
G1 X69.314 Y89.928 E36.437
G1 X69.395 Y89.753 E36.45855
G1 X69.876 Y88.828 E36.57506
G1 X70.351 Y88.049 E36.67703
G1 X70.451 Y87.898 E36.69727
G1 X70.962 Y87.184 E36.79539
G1 X71.075 Y87.036 E36.8162
G1 X71.748 Y86.236 E36.93303
G1 X72.387 Y85.568 E37.03634
G1 X73.083 Y84.922 E37.14246
G0 F9000 X73.6 Y84.499
G1 F1125 X73.6 Y111.135 E40.11914
G0 F9000 X75.2 Y112.24
G1 F1125 X75.2 Y83.39 E43.34324
G0 F9000 X76.8 Y82.554
G1 F1125 X76.8 Y113.191 E46.76705
G0 F9000 X78.4 Y115.141
G1 F1125 X78.4 Y81.964 E50.47472
G0 F9000 X80 Y81.567
G1 F1125 X80 Y153.429 E58.50559
G0 F9000 X81.6 Y153.645
G1 F1125 X81.6 Y81.358 E66.58395
G0 F9000 X83.2 Y81.31
G1 F1125 X83.2 Y153.689 E74.6726
G0 F9000 X84.8 Y153.689
G1 F1125 X84.8 Y81.31 E82.76125
G0 F9000 X86.4 Y81.27
G1 F1125 X86.4 Y153.747 E90.86084
G0 F9000 X88 Y154.181
G1 F1125 X88 Y80.802 E99.06124
G0 F9000 X89.6 Y79.873
G1 F1125 X89.6 Y155.13 E107.47152
G0 F9000 X91.2 Y155.942
G1 F1125 X91.2 Y79.05 E116.06451
G0 F9000 X92.8 Y78.425
G1 F1125 X92.8 Y156.567 E124.7972
G0 F9000 X94.4 Y157.007
G1 F1125 X94.4 Y77.992 E133.62744
G0 F9000 X96 Y77.68
G1 F1125 X96 Y157.31 E142.52642
G0 F9000 X97.6 Y157.474
G1 F1125 X97.6 Y77.525 E151.46104
G0 F9000 X99.2 Y77.501
G1 F1125 X99.2 Y157.498 E160.40103
G0 F9000 X100.8 Y157.498
G1 F1125 X100.8 Y77.501 E169.34102
G0 F9000 X102.4 Y77.501
G1 F1125 X102.4 Y157.498 E178.28101
G0 F9000 X104 Y157.498
G1 F1125 X104 Y77.501 E187.221
G0 F9000 X105.6 Y77.501
G1 F1125 X105.6 Y157.498 E196.16099
G0 F9000 X107.2 Y157.498
G1 F1125 X107.2 Y77.501 E205.10098
G0 F9000 X108.8 Y77.501
G1 F1125 X108.8 Y157.498 E214.04097
G0 F9000 X110.4 Y157.498
G1 F1125 X110.4 Y77.501 E222.98096
G0 F9000 X112 Y77.501
G1 F1125 X112 Y157.498 E231.92095
G0 F9000 X113.6 Y157.498
G1 F1125 X113.6 Y77.501 E240.86093
G0 F9000 X115.2 Y77.501
G1 F1125 X115.2 Y157.498 E249.80092
G0 F9000 X116.8 Y157.498
G1 F1125 X116.8 Y77.501 E258.74091
G0 F9000 X118.4 Y77.501
G1 F1125 X118.4 Y157.498 E267.6809
G0 F9000 X120 Y157.498
G1 F1125 X120 Y77.501 E276.62089
G0 F9000 X121.6 Y77.501
G1 F1125 X121.6 Y157.498 E285.56088
G0 F9000 X123.2 Y157.498
G1 F1125 X123.2 Y77.501 E294.50087
G0 F9000 X124.8 Y77.502
G1 F1125 X124.8 Y157.499 E303.44086
G0 F9000 X126.4 Y157.499
G1 F1125 X126.4 Y77.502 E312.38085
G0 F9000 X128 Y77.502
G1 F1125 X128 Y157.499 E321.32084
G0 F9000 X129.6 Y157.499
G1 F1125 X129.6 Y77.502 E330.26083
G0 F9000 X131.2 Y77.502
G1 F1125 X131.2 Y157.499 E339.20081
G0 F9000 X132.8 Y157.499
G1 F1125 X132.8 Y77.502 E348.1408
G0 F9000 X134.4 Y77.502
G1 F1125 X134.4 Y157.499 E357.08079
G0 F9000 X136 Y157.499
G1 F1125 X136 Y77.502 E366.02078
G0 F9000 X137.6 Y77.502
G1 F1125 X137.6 Y157.499 E374.96077
G0 F9000 X139.2 Y157.499
G1 F1125 X139.2 Y77.502 E383.90076
G0 F9000 X140.8 Y77.502
G1 F1125 X140.8 Y157.499 E392.84075
G0 F9000 X142.4 Y157.499
G1 F1125 X142.4 Y77.502 E401.78074
G0 F9000 X144 Y77.502
G1 F1125 X144 Y157.499 E410.72073
G0 F9000 X145.6 Y157.499
G1 F1125 X145.6 Y77.502 E419.66072
G0 F9000 X147.2 Y77.502
G1 F1125 X147.2 Y157.499 E428.6007
G0 F9000 X148.8 Y157.499
G1 F1125 X148.8 Y77.502 E437.54069
G0 F9000 X150.4 Y77.545
G1 F1125 X150.4 Y157.454 E446.47085
G0 F9000 X152 Y157.279
G1 F1125 X152 Y77.725 E455.36133
G0 F9000 X153.6 Y78.061
G1 F1125 X153.6 Y156.94 E464.17638
G0 F9000 X155.2 Y156.464
G1 F1125 X155.2 Y78.53 E472.88582
G0 F9000 X156.8 Y79.195
G1 F1125 X156.8 Y155.812 E481.44808
G0 F9000 X158.4 Y154.943
G1 F1125 X158.4 Y80.059 E489.81667
G0 F9000 X160 Y81.134
G1 F1125 X160 Y153.875 E497.94577
G0 F9000 X161.6 Y152.479
G1 F1125 X161.6 Y82.522 E505.76375
G0 F9000 X163.2 Y84.271
G1 F1125 X163.2 Y150.729 E513.1907
G0 F9000 X164.8 Y148.324
G1 F1125 X164.8 Y86.678 E520.07989
G0 F9000 X166.4 Y90.637
G1 F1125 X166.4 Y144.376 E526.08544
G1 F1500 E519.58544
G0 F9000 X167.345 Y144.951
G0 X166.566 Y147.134
G0 X165.576 Y149.111
G0 X164.532 Y150.734
G0 X163.808 Y151.686
G0 X161.946 Y153.639
G0 X160.26 Y155.007
G0 X158.213 Y156.289
G0 X156.291 Y157.193
G0 X154.335 Y157.859
G0 X152.201 Y158.326
G0 X150.122 Y158.539
G0 X97.517 Y158.536
G0 X95.037 Y158.244
G0 X78.282 Y154.117
G0 X78.4 Y153.04
G1 F1500 E526.08544
G1 F1125 X78.4 Y119.859 E529.79355
G0 F9000 X76.8 Y121.798
G1 F1125 X76.8 Y152.438 E533.2177
G0 F9000 X75.2 Y151.61
G1 F1125 X75.2 Y122.76 E536.4418
G0 F9000 X73.6 Y123.869
G1 F1125 X73.6 Y150.505 E539.41848
G0 F9000 X72 Y149.027
G1 F1125 X72 Y125.342 E542.06538
G0 F9000 X70.4 Y127.345
G1 F1125 X70.4 Y147.018 E544.26392
G0 F9000 X68.8 Y143.796
G1 F1125 X68.8 Y130.589 E545.73985
G1 F1500 E539.23985
G0 F9000 X67.988 Y129.697
G0 X71.456 Y110.635
G0 X72 Y109.657
G1 F1500 E545.73985
G1 F1125 X72 Y85.972 E548.38675
G0 F9000 X70.4 Y87.975
G1 F1125 X70.4 Y107.648 E550.58528
G0 F9000 X68.8 Y104.426
G1 F1125 X68.8 Y91.219 E552.06122
G1 F1500 E545.56122
G0 F300 X68.8 Y91.219 Z0.756
G0 F9000 X67.611 Y91.407
G0 X67.269 Y92.711
G0 X66.962 Y94.796
G0 X66.911 Y96.016
G0 X66.943 Y100.559
G0 X67.209 Y102.636
G0 X67.528 Y103.945
G0 X68.104 Y105.536
G0 X68.739 Y106.942
G0 X69.758 Y106.587
;TIME_ELAPSED:279.563607
;LAYER:-5
M140 S60
;TYPE:SUPPORT
G1 F1500 E552.06122
G1 F1125 X70.2 Y107.343 E552.18355
G1 X70.316 Y107.527 E552.21394
G1 X70.809 Y108.242 E552.33526
G1 X70.914 Y108.381 E552.35959
G1 X71.467 Y109.071 E552.48312
G1 X71.585 Y109.209 E552.50848
G1 X72.228 Y109.903 E552.64064
G1 X72.901 Y110.546 E552.77067
G1 X73.701 Y111.218 E552.91662
G1 X73.848 Y111.332 E552.9426
G1 X74.562 Y111.843 E553.06526
G1 X74.714 Y111.943 E553.09067
G1 X75.492 Y112.417 E553.21793
G1 X75.82 Y112.589 E553.26967
G1 X69.687 Y106.457 E554.48118
G1 X69.681 Y106.445 E554.48305
G1 X69.221 Y105.5 E554.62987
G1 X68.873 Y104.639 E554.7596
G1 X68.817 Y104.477 E554.78354
G1 X68.672 Y104.027 E554.84959
G1 X122.142 Y157.498 E565.41296
G1 X123.557 Y157.498 E565.61062
G1 X68.207 Y102.148 E576.5453
G1 X68.108 Y101.543 E576.63094
G1 X68.085 Y101.37 E576.65532
G1 X68.008 Y100.535 E576.77246
G1 X124.971 Y157.498 E588.02579
G1 X126.385 Y157.498 E588.22331
G1 X67.974 Y99.087 E599.76271
G1 X67.974 Y97.673 E599.96023
G1 X127.799 Y157.498 E611.77897
G1 X129.213 Y157.498 E611.97649
G1 X67.974 Y96.259 E624.07457
G1 X67.974 Y96.039 E624.1053
G1 X68.01 Y95.033 E624.24592
G1 X68.02 Y94.899 E624.26469
G1 X68.021 Y94.891 E624.26582
G1 X130.628 Y157.498 E636.63415
G1 X132.042 Y157.498 E636.83168
G1 X68.179 Y93.635 E649.44814
G1 X68.31 Y92.928 E649.54859
G1 X68.339 Y92.795 E649.5676
G1 X68.425 Y92.466 E649.6151
G1 X133.457 Y157.498 E662.46251
G1 X134.871 Y157.498 E662.66003
G1 X68.747 Y91.374 E675.72317
G1 X68.909 Y90.896 E675.79367
G1 X68.978 Y90.714 E675.82086
G1 X69.134 Y90.347 E675.87657
G1 X136.285 Y157.498 E689.14259
G1 X137.699 Y157.498 E689.34012
G1 X69.585 Y89.384 E702.79639
G1 X69.875 Y88.827 E702.88411
G1 X70.089 Y88.474 E702.94178
G1 X139.114 Y157.498 E716.57792
G1 X140.528 Y157.498 E716.77545
G1 X70.649 Y87.619 E730.5804
G1 X70.962 Y87.183 E730.65538
G1 X71.074 Y87.035 E730.6813
G1 X71.259 Y86.815 E730.72146
G1 X141.942 Y157.498 E744.68525
G1 X143.356 Y157.498 E744.88277
G1 X71.916 Y86.058 E758.99611
G1 X72.387 Y85.567 E759.09115
G1 X72.621 Y85.349 E759.13583
G1 X144.77 Y157.498 E773.38923
G1 X146.185 Y157.498 E773.5869
G1 X73.37 Y84.683 E787.97187
G1 X73.913 Y84.248 E788.06907
G1 X74.052 Y84.144 E788.09332
G1 X74.167 Y84.066 E788.11273
G1 X147.599 Y157.498 E802.6196
G1 X149.013 Y157.498 E802.81712
G1 X75.014 Y83.499 E817.436
G1 X75.707 Y83.092 E817.54827
G1 X75.849 Y83.015 E817.57084
G1 X75.913 Y82.984 E817.58077
G1 X150.382 Y157.453 E832.2925
G1 X150.946 Y157.413 E832.37149
G1 X151.117 Y157.397 E832.39548
G1 X151.665 Y157.322 E832.47274
G1 X76.869 Y82.526 E847.24908
G1 X77.648 Y82.211 E847.36646
G1 X77.815 Y82.151 E847.39125
G1 X77.886 Y82.129 E847.40163
G1 X152.862 Y157.104 E862.21342
G1 X153.925 Y156.865 E862.36562
