;FLAVOR:Marlin
;TIME:24027
;Filament used: 18.1621m
;Layer height: 0.2
;MINX:55.7
;MINY:43
;MINZ:0.2
;MAXX:179.3
;MAXY:192
;MAXZ:53.2
;Generated with Cura_SteamEngine 4.6.1
M140 S60
M105
M190 S60
M104 S200
M105
M109 S200
M82 ;absolute extrusion mode
; Ender 3 Custom Start G-code
G92 E0 ; Reset Extruder
G28 ; Home all axes
G1 Z2.0 F3000 ; Move Z Axis up little to prevent scratching of Heat Bed
G1 X0.1 Y20 Z0.3 F5000.0 ; Move to start position
G1 X0.1 Y200.0 Z0.3 F1500.0 E15 ; Draw the first line
G1 X0.4 Y200.0 Z0.3 F5000.0 ; Move to side a little
G1 X0.4 Y20 Z0.3 F1500.0 E30 ; Draw the second line
G92 E0 ; Reset Extruder
G1 Z2.0 F3000 ; Move Z Axis up little to prevent scratching of Heat Bed
G1 X5 Y20 Z0.3 F5000.0 ; Move over to prevent blob squish
G92 E0
G92 E0
G1 F1500 E-6.5
;LAYER_COUNT:266
;LAYER:0
M107
G0 F6000 X168.437 Y43.811 Z0.2
;TYPE:SKIRT
G1 F1500 E0
G1 F1200 X169.339 Y43.864 E0.03005
G1 X170.232 Y43.996 E0.06008
G1 X171.11 Y44.207 E0.09011
G1 X171.966 Y44.495 E0.12015
G1 X172.793 Y44.857 E0.15018
G1 X173.585 Y45.292 E0.18023
G1 X174.336 Y45.794 E0.21027
G1 X175.039 Y46.361 E0.24031
G1 X175.689 Y46.988 E0.27035
G1 X176.281 Y47.67 E0.30039
G1 X176.811 Y48.401 E0.33042
G1 X177.273 Y49.177 E0.36046
G1 X177.666 Y49.99 E0.39049
G1 X177.984 Y50.835 E0.42052
G1 X178.227 Y51.705 E0.45056
G1 X178.392 Y52.593 E0.4806
G1 X178.487 Y53.723 E0.51832
G1 X178.5 Y54.33 E0.53851
G1 X178.5 Y180.264 E4.7271
G1 X178.49 Y181.117 E4.75547
G1 X178.439 Y182.019 E4.78552
G1 X178.308 Y182.913 E4.81557
G1 X178.099 Y183.791 E4.84559
G1 X177.813 Y184.648 E4.87564
G1 X177.452 Y185.476 E4.90568
G1 X177.02 Y186.268 E4.93569
G1 X176.519 Y187.02 E4.96574
G1 X175.953 Y187.724 E4.99578
G1 X175.328 Y188.375 E5.0258
G1 X174.647 Y188.969 E5.05586
G1 X173.916 Y189.5 E5.08591
G1 X173.142 Y189.964 E5.11592
G1 X172.329 Y190.358 E5.14597
G1 X171.485 Y190.678 E5.17599
G1 X170.615 Y190.923 E5.20605
G1 X169.728 Y191.089 E5.23607
G1 X168.577 Y191.187 E5.27449
G1 X167.97 Y191.2 E5.29468
G1 X80.107 Y191.2 E8.21702
G1 X79.957 Y191.199 E8.22201
G1 X79.276 Y191.189 E8.24466
G1 X78.375 Y191.136 E8.27468
G1 X77.481 Y191.003 E8.30474
G1 X76.603 Y190.792 E8.33477
G1 X75.747 Y190.504 E8.36481
G1 X74.92 Y190.141 E8.39485
G1 X74.129 Y189.706 E8.42488
G1 X73.378 Y189.204 E8.45492
G1 X72.676 Y188.637 E8.48493
G1 X72.026 Y188.01 E8.51497
G1 X71.434 Y187.327 E8.54504
G1 X70.904 Y186.596 E8.57507
G1 X70.442 Y185.82 E8.6051
G1 X70.138 Y185.205 E8.62792
G1 X69.838 Y184.542 E8.65213
G1 X68.766 Y182.079 E8.74147
G1 X67.689 Y179.787 E8.8257
G1 X66.545 Y177.518 E8.91021
G1 X65.326 Y175.262 E8.9955
G1 X64.066 Y173.081 E9.07928
G1 X62.742 Y170.931 E9.16326
G1 X61.336 Y168.785 E9.24859
G1 X59.897 Y166.722 E9.33225
G1 X58.675 Y165.07 E9.40059
G1 X58.435 Y164.737 E9.41425
G1 X57.94 Y163.982 E9.44427
G1 X57.514 Y163.185 E9.47433
G1 X57.16 Y162.355 E9.50434
G1 X56.88 Y161.496 E9.53439
G1 X56.678 Y160.616 E9.56442
G1 X56.554 Y159.721 E9.59447
G1 X56.515 Y159.078 E9.6159
G1 X56.5 Y158.439 E9.63716
G1 X56.501 Y155.526 E9.73405
G1 X56.511 Y154.829 E9.75723
G1 X56.564 Y153.927 E9.78728
G1 X56.63 Y153.416 E9.80442
G1 X56.732 Y152.763 E9.8264
G1 X57.014 Y151.119 E9.88188
G1 X57.368 Y148.645 E9.965
G1 X57.657 Y146.116 E10.04967
G1 X57.875 Y143.559 E10.13502
G1 X58.017 Y141.067 E10.21804
G1 X58.091 Y138.497 E10.30355
G1 X58.093 Y135.961 E10.3879
G1 X58.022 Y133.431 E10.47208
G1 X57.879 Y130.891 E10.5567
G1 X57.664 Y128.342 E10.64178
G1 X57.381 Y125.845 E10.72536
G1 X57.018 Y123.281 E10.81149
G1 X56.777 Y121.82 E10.86074
G1 X56.659 Y121.137 E10.88379
G1 X56.545 Y120.241 E10.91383
G1 X56.515 Y119.714 E10.93139
G1 X56.5 Y119.075 E10.95265
G1 X56.501 Y116.156 E11.04974
G1 X56.511 Y115.459 E11.07292
G1 X56.564 Y114.557 E11.10297
G1 X56.63 Y114.046 E11.12011
G1 X56.732 Y113.393 E11.14209
G1 X57.014 Y111.749 E11.19757
G1 X57.368 Y109.275 E11.28069
G1 X57.657 Y106.746 E11.36536
G1 X57.875 Y104.189 E11.45071
G1 X58.017 Y101.697 E11.53373
G1 X58.091 Y99.127 E11.61924
G1 X58.093 Y96.591 E11.70359
G1 X58.022 Y94.061 E11.78777
G1 X57.879 Y91.521 E11.87239
G1 X57.664 Y88.972 E11.95747
G1 X57.381 Y86.475 E12.04105
G1 X57.018 Y83.911 E12.12718
G1 X56.777 Y82.45 E12.17643
G1 X56.659 Y81.767 E12.19948
G1 X56.545 Y80.871 E12.22952
G1 X56.515 Y80.344 E12.24708
G1 X56.5 Y79.705 E12.26834
G1 X56.501 Y76.786 E12.36543
G1 X56.511 Y76.088 E12.38864
G1 X56.564 Y75.186 E12.4187
G1 X56.696 Y74.293 E12.44872
G1 X56.907 Y73.415 E12.47876
G1 X57.195 Y72.559 E12.50879
G1 X57.557 Y71.732 E12.53882
G1 X57.992 Y70.94 E12.56887
G1 X58.49 Y70.195 E12.59868
G1 X59.11 Y69.351 E12.63351
G1 X60.65 Y67.205 E12.72136
G1 X62.066 Y65.108 E12.80552
G1 X63.434 Y62.952 E12.89045
G1 X64.738 Y60.763 E12.97519
G1 X65.96 Y58.575 E13.05855
G1 X67.15 Y56.293 E13.14415
G1 X68.258 Y54.014 E13.22843
G1 X69.301 Y51.705 E13.3127
G1 X69.706 Y50.74 E13.34751
G1 X70.046 Y49.959 E13.37584
G1 X70.443 Y49.147 E13.4059
G1 X70.91 Y48.374 E13.43594
G1 X71.443 Y47.646 E13.46595
G1 X72.039 Y46.967 E13.496
G1 X72.693 Y46.344 E13.52604
G1 X73.399 Y45.781 E13.55607
G1 X74.152 Y45.283 E13.5861
G1 X74.946 Y44.853 E13.61613
G1 X75.775 Y44.495 E13.64617
G1 X76.633 Y44.212 E13.67622
G1 X77.512 Y44.006 E13.70624
G1 X78.48 Y43.871 E13.73875
G1 X78.812 Y43.841 E13.74984
G1 X79.73 Y43.8 E13.7804
G1 X167.593 Y43.8 E16.70274
G1 X167.739 Y43.801 E16.70759
G1 X168.437 Y43.811 E16.73081
G0 F6000 X168.443 Y43.411
G1 F1200 X169.362 Y43.464 E16.76143
G1 X170.273 Y43.597 E16.79205
G1 X171.169 Y43.808 E16.82266
G1 X172.043 Y44.096 E16.85327
G1 X172.89 Y44.459 E16.88392
G1 X173.701 Y44.894 E16.91453
G1 X174.471 Y45.398 E16.94514
G1 X175.195 Y45.967 E16.97577
G1 X175.867 Y46.597 E17.0064
G1 X176.482 Y47.282 E17.03702
G1 X177.035 Y48.018 E17.06764
G1 X177.522 Y48.799 E17.09825
G1 X177.939 Y49.62 E17.12888
G1 X178.284 Y50.474 E17.15951
G1 X178.553 Y51.354 E17.19012
G1 X178.745 Y52.255 E17.22076
G1 X178.858 Y53.168 E17.25136
G1 X178.887 Y53.712 E17.26948
G1 X178.9 Y54.33 E17.29004
G1 X178.9 Y180.264 E21.47862
G1 X178.89 Y181.122 E21.50716
G1 X178.839 Y182.041 E21.53777
G1 X178.708 Y182.953 E21.56842
G1 X178.498 Y183.849 E21.59902
G1 X178.212 Y184.724 E21.62964
G1 X177.851 Y185.571 E21.66027
G1 X177.417 Y186.383 E21.69089
G1 X176.915 Y187.155 E21.72152
G1 X176.347 Y187.88 E21.75215
G1 X175.719 Y188.553 E21.78277
G1 X175.035 Y189.169 E21.81338
G1 X174.3 Y189.723 E21.84399
G1 X173.52 Y190.212 E21.87461
G1 X172.7 Y190.631 E21.90524
G1 X171.847 Y190.977 E21.93586
G1 X170.967 Y191.248 E21.96648
G1 X170.067 Y191.441 E21.9971
G1 X169.153 Y191.556 E22.02774
G1 X168.588 Y191.587 E22.04656
G1 X167.97 Y191.6 E22.06712
G1 X80.107 Y191.6 E24.98945
G1 X79.951 Y191.599 E24.99464
G1 X79.27 Y191.589 E25.01729
G1 X78.351 Y191.535 E25.04791
G1 X77.44 Y191.402 E25.07853
G1 X76.544 Y191.191 E25.10915
G1 X75.67 Y190.902 E25.13977
G1 X74.824 Y190.539 E25.17038
G1 X74.013 Y190.104 E25.20099
G1 X73.242 Y189.6 E25.23163
G1 X72.519 Y189.03 E25.26225
G1 X71.847 Y188.401 E25.29287
G1 X71.233 Y187.715 E25.32349
G1 X70.68 Y186.979 E25.35411
G1 X70.193 Y186.197 E25.38475
G1 X69.774 Y185.371 E25.41555
G1 X69.471 Y184.702 E25.43998
G1 X68.395 Y182.231 E25.52962
G1 X67.328 Y179.959 E25.6131
G1 X66.194 Y177.709 E25.69691
G1 X64.985 Y175.473 E25.78145
G1 X63.721 Y173.285 E25.8655
G1 X62.394 Y171.13 E25.94967
G1 X61.006 Y169.012 E26.03389
G1 X59.567 Y166.949 E26.11755
G1 X58.111 Y164.971 E26.19924
G1 X57.605 Y164.201 E26.22989
G1 X57.169 Y163.391 E26.26048
G1 X56.804 Y162.545 E26.29113
G1 X56.514 Y161.672 E26.32173
G1 X56.301 Y160.776 E26.35236
G1 X56.166 Y159.865 E26.38299
G1 X56.115 Y159.09 E26.40882
G1 X56.1 Y158.439 E26.43048
G1 X56.101 Y155.52 E26.52757
G1 X56.111 Y154.823 E26.55075
G1 X56.164 Y153.904 E26.58137
G1 X56.235 Y153.355 E26.59978
G1 X56.338 Y152.695 E26.622
G1 X56.618 Y151.065 E26.677
G1 X56.968 Y148.614 E26.75935
G1 X57.262 Y146.037 E26.84562
G1 X57.473 Y143.57 E26.92797
G1 X57.618 Y141.032 E27.01252
G1 X57.691 Y138.485 E27.09727
G1 X57.693 Y135.972 E27.18085
G1 X57.622 Y133.43 E27.26543
G1 X57.48 Y130.911 E27.34935
G1 X57.27 Y128.419 E27.43253
G1 X56.982 Y125.874 E27.51772
G1 X56.625 Y123.358 E27.60224
G1 X56.395 Y121.964 E27.64923
G1 X56.264 Y121.205 E27.67485
G1 X56.147 Y120.292 E27.70546
G1 X56.115 Y119.726 E27.72432
G1 X56.1 Y119.075 E27.74597
G1 X56.101 Y116.15 E27.84326
G1 X56.111 Y115.453 E27.86644
G1 X56.164 Y114.534 E27.89706
G1 X56.235 Y113.985 E27.91547
G1 X56.338 Y113.325 E27.93769
G1 X56.618 Y111.695 E27.9927
G1 X56.968 Y109.244 E28.07505
G1 X57.262 Y106.667 E28.16131
G1 X57.473 Y104.2 E28.24367
G1 X57.618 Y101.662 E28.32822
G1 X57.691 Y99.115 E28.41297
G1 X57.693 Y96.602 E28.49655
G1 X57.622 Y94.06 E28.58113
G1 X57.48 Y91.541 E28.66504
G1 X57.27 Y89.049 E28.74822
G1 X56.982 Y86.504 E28.83341
G1 X56.625 Y83.988 E28.91793
G1 X56.395 Y82.594 E28.96492
G1 X56.264 Y81.835 E28.99054
G1 X56.147 Y80.922 E29.02115
G1 X56.115 Y80.356 E29.04001
G1 X56.1 Y79.705 E29.06167
G1 X56.101 Y76.78 E29.15895
G1 X56.111 Y76.082 E29.18217
G1 X56.164 Y75.163 E29.21279
G1 X56.297 Y74.252 E29.24341
G1 X56.508 Y73.356 E29.27403
G1 X56.796 Y72.482 E29.30463
G1 X57.159 Y71.635 E29.33528
G1 X57.594 Y70.824 E29.36589
G1 X58.168 Y69.958 E29.40045
G1 X58.782 Y69.122 E29.43495
G1 X60.309 Y66.994 E29.52206
G1 X61.74 Y64.875 E29.6071
G1 X63.096 Y62.739 E29.69125
G1 X64.394 Y60.559 E29.77564
G1 X65.599 Y58.401 E29.85785
G1 X66.793 Y56.112 E29.94372
G1 X67.892 Y53.853 E30.02727
G1 X68.939 Y51.533 E30.11193
G1 X69.339 Y50.58 E30.1463
G1 X69.679 Y49.799 E30.17463
G1 X70.083 Y48.972 E30.20525
G1 X70.557 Y48.182 E30.23589
G1 X71.098 Y47.437 E30.26651
G1 X71.701 Y46.742 E30.29712
G1 X72.362 Y46.101 E30.32774
G1 X73.077 Y45.521 E30.35836
G1 X73.839 Y45.005 E30.38897
G1 X74.643 Y44.556 E30.4196
G1 X75.483 Y44.179 E30.45022
G1 X76.353 Y43.877 E30.48085
G1 X77.245 Y43.651 E30.51146
G1 X78.444 Y43.473 E30.55177
G1 X78.776 Y43.443 E30.56286
G1 X79.73 Y43.4 E30.59462
G1 X167.593 Y43.4 E33.51696
G1 X167.745 Y43.401 E33.52201
G1 X168.443 Y43.411 E33.54523
G0 F6000 X168.449 Y43.011
G1 F1200 X169.385 Y43.065 E33.57642
G1 X170.313 Y43.197 E33.60759
G1 X171.227 Y43.409 E33.6388
G1 X172.119 Y43.698 E33.66998
G1 X172.984 Y44.061 E33.70119
G1 X173.814 Y44.497 E33.73237
G1 X174.605 Y45.002 E33.76358
G1 X175.349 Y45.573 E33.79477
G1 X176.042 Y46.205 E33.82597
G1 X176.679 Y46.893 E33.85715
G1 X177.254 Y47.634 E33.88835
G1 X177.765 Y48.42 E33.91953
G1 X178.207 Y49.248 E33.95075
G1 X178.576 Y50.11 E33.98194
G1 X178.871 Y51 E34.01312
G1 X179.089 Y51.912 E34.04431
G1 X179.229 Y52.84 E34.07552
G1 X179.287 Y53.701 E34.10423
G1 X179.3 Y54.33 E34.12515
G1 X179.3 Y180.264 E38.31373
G1 X179.29 Y181.127 E38.34244
G1 X179.239 Y182.064 E38.37365
G1 X179.107 Y182.992 E38.40483
G1 X178.898 Y183.906 E38.43601
G1 X178.611 Y184.799 E38.46721
G1 X178.249 Y185.665 E38.49843
G1 X177.815 Y186.496 E38.52961
G1 X177.311 Y187.287 E38.5608
G1 X176.742 Y188.032 E38.59198
G1 X176.111 Y188.727 E38.6232
G1 X175.424 Y189.365 E38.65439
G1 X174.685 Y189.942 E38.68557
G1 X173.899 Y190.454 E38.71677
G1 X173.073 Y190.897 E38.74795
G1 X172.211 Y191.269 E38.77917
G1 X171.322 Y191.565 E38.81034
G1 X170.41 Y191.785 E38.84154
G1 X169.483 Y191.926 E38.87273
G1 X168.599 Y191.987 E38.9022
G1 X167.97 Y192 E38.92312
G1 X80.107 Y192 E41.84546
G1 X79.945 Y191.999 E41.85085
G1 X79.264 Y191.989 E41.8735
G1 X78.328 Y191.935 E41.90468
G1 X77.4 Y191.802 E41.93586
G1 X76.486 Y191.59 E41.96707
G1 X75.594 Y191.301 E41.99826
G1 X74.73 Y190.937 E42.02944
G1 X73.899 Y190.501 E42.06065
G1 X73.109 Y189.995 E42.09185
G1 X72.365 Y189.425 E42.12303
G1 X71.672 Y188.793 E42.15422
G1 X71.036 Y188.104 E42.18541
G1 X70.46 Y187.363 E42.21663
G1 X69.95 Y186.576 E42.24782
G1 X69.409 Y185.536 E42.28681
G1 X69.105 Y184.861 E42.31143
G1 X68.044 Y182.424 E42.39983
G1 X66.966 Y180.13 E42.48414
G1 X65.828 Y177.872 E42.56824
G1 X64.646 Y175.684 E42.65095
G1 X63.378 Y173.489 E42.73526
G1 X62.068 Y171.363 E42.81832
G1 X60.66 Y169.214 E42.90377
G1 X59.246 Y167.187 E42.98597
G1 X58.026 Y165.538 E43.0542
G1 X57.786 Y165.205 E43.06785
G1 X57.271 Y164.421 E43.09905
G1 X56.824 Y163.596 E43.13026
G1 X56.449 Y162.737 E43.16143
G1 X56.149 Y161.848 E43.19264
G1 X55.925 Y160.937 E43.22384
G1 X55.78 Y160.011 E43.25501
G1 X55.715 Y159.102 E43.28532
G1 X55.7 Y158.439 E43.30738
G1 X55.701 Y155.514 E43.40467
G1 X55.711 Y154.817 E43.42785
G1 X55.765 Y153.881 E43.45903
G1 X55.839 Y153.294 E43.47871
G1 X55.944 Y152.628 E43.50114
G1 X56.221 Y151.018 E43.55547
G1 X56.574 Y148.544 E43.63859
G1 X56.861 Y146.029 E43.72278
G1 X57.076 Y143.514 E43.80674
G1 X57.22 Y140.997 E43.89059
G1 X57.291 Y138.509 E43.97338
G1 X57.293 Y135.983 E44.05739
G1 X57.222 Y133.463 E44.14124
G1 X57.08 Y130.934 E44.22549
G1 X56.868 Y128.427 E44.30917
G1 X56.587 Y125.939 E44.39245
G1 X56.226 Y123.392 E44.47801
G1 X56.002 Y122.032 E44.52385
G1 X55.87 Y121.273 E44.54947
G1 X55.75 Y120.343 E44.58066
G1 X55.715 Y119.738 E44.60082
G1 X55.705 Y119.411 E44.6117
G1 X55.7 Y119.075 E44.62287
G1 X55.701 Y116.144 E44.72036
G1 X55.711 Y115.447 E44.74354
G1 X55.765 Y114.511 E44.77473
G1 X55.839 Y113.924 E44.79441
G1 X55.944 Y113.258 E44.81683
G1 X56.221 Y111.648 E44.87117
G1 X56.574 Y109.174 E44.95429
G1 X56.861 Y106.659 E45.03848
G1 X57.076 Y104.144 E45.12243
G1 X57.22 Y101.627 E45.20628
G1 X57.291 Y99.139 E45.28907
G1 X57.293 Y96.613 E45.37308
G1 X57.222 Y94.093 E45.45693
G1 X57.08 Y91.564 E45.54118
G1 X56.868 Y89.057 E45.62486
G1 X56.587 Y86.569 E45.70814
G1 X56.226 Y84.022 E45.7937
G1 X56.002 Y82.662 E45.83954
G1 X55.87 Y81.903 E45.86517
G1 X55.75 Y80.973 E45.89635
G1 X55.715 Y80.368 E45.91651
G1 X55.705 Y80.041 E45.92739
G1 X55.7 Y79.705 E45.93857
G1 X55.701 Y76.774 E46.03605
G1 X55.711 Y76.076 E46.05927
G1 X55.765 Y75.14 E46.09045
G1 X55.897 Y74.212 E46.12163
G1 X56.109 Y73.298 E46.15284
G1 X56.398 Y72.406 E46.18402
G1 X56.761 Y71.541 E46.21522
G1 X57.197 Y70.711 E46.24641
G1 X57.845 Y69.721 E46.28576
G1 X58.507 Y68.82 E46.32295
G1 X59.986 Y66.759 E46.40732
G1 X61.404 Y64.658 E46.49163
G1 X62.742 Y62.55 E46.57467
G1 X64.034 Y60.38 E46.65867
G1 X65.276 Y58.159 E46.74331
G1 X66.423 Y55.959 E46.82583
G1 X67.539 Y53.664 E46.9107
G1 X68.57 Y51.38 E46.99405
G1 X68.972 Y50.42 E47.02867
G1 X69.312 Y49.639 E47.057
G1 X69.723 Y48.796 E47.08819
G1 X70.204 Y47.991 E47.11938
G1 X70.752 Y47.23 E47.15057
G1 X71.362 Y46.518 E47.18176
G1 X72.032 Y45.861 E47.21297
G1 X72.754 Y45.263 E47.24415
G1 X73.525 Y44.729 E47.27534
G1 X74.339 Y44.262 E47.30655
G1 X75.189 Y43.867 E47.33773
G1 X76.07 Y43.545 E47.36893
G1 X76.976 Y43.3 E47.40014
G1 X77.898 Y43.133 E47.43131
G1 X78.408 Y43.075 E47.44838
G1 X78.74 Y43.045 E47.45947
G1 X79.73 Y43 E47.49243
G1 X167.593 Y43 E50.41476
G1 X167.751 Y43.001 E50.42002
G1 X168.449 Y43.011 E50.44324
G1 F1500 E43.94324
G0 F6000 X79.243 Y53.339
G0 X78.739 Y53.843
G0 X75.65 Y78.025
G1 F1500 E50.44324
G1 F1200 X76.8 Y78.025 E50.48149
G1 X76.8 Y78.235 E50.48847
G1 X75.65 Y78.235 E50.52672
G1 X75.65 Y78.025 E50.5337
G0 F6000 X75.25 Y77.625
G1 F1200 X77.2 Y77.625 E50.59856
G1 X77.2 Y78.635 E50.63215
G1 X75.25 Y78.635 E50.69701
G1 X75.25 Y77.625 E50.7306
G0 F6000 X74.85 Y77.225
G1 F1200 X77.6 Y77.225 E50.82207
G1 X77.6 Y79.035 E50.88227
G1 X74.85 Y79.035 E50.97374
G1 X74.85 Y77.225 E51.03394
G0 F6000 X74.45 Y76.825
G1 F1200 X78 Y76.825 E51.15201
G1 X78 Y79.435 E51.23882
G1 X74.45 Y79.435 E51.35689
G1 X74.45 Y76.825 E51.4437
G0 F6000 X74.05 Y76.425
G1 F1200 X78.4 Y76.425 E51.58838
G1 X78.4 Y79.835 E51.7018
G1 X74.05 Y79.835 E51.84648
G1 X74.05 Y76.425 E51.9599
G1 F1500 E45.4599
G0 F6000 X74.05 Y115.795
G1 F1500 E51.9599
G1 F1200 X78.4 Y115.796 E52.10458
G1 X78.4 Y119.205 E52.21796
G1 X74.05 Y119.204 E52.36265
G1 X74.05 Y115.795 E52.47603
G0 F6000 X74.45 Y116.195
G1 F1200 X78 Y116.196 E52.5941
G1 X78 Y118.805 E52.68088
G1 X74.45 Y118.804 E52.79895
G1 X74.45 Y116.195 E52.88573
G0 F6000 X74.85 Y116.595
G1 F1200 X77.6 Y116.596 E52.97719
G1 X77.6 Y118.405 E53.03736
G1 X74.85 Y118.404 E53.12883
G1 X74.85 Y116.595 E53.18899
G0 F6000 X75.25 Y116.995
G1 F1200 X77.2 Y116.996 E53.25385
G1 X77.2 Y118.005 E53.28741
G1 X75.25 Y118.004 E53.35227
G1 X75.25 Y116.995 E53.38583
