;FLAVOR:Marlin
;TIME:705
;Filament used: 0.345587m
;Layer height: 0.2
;MINX:101.945
;MINY:101.945
;MINZ:0.2
;MAXX:118.055
;MAXY:118.055
;MAXZ:8.8
;Generated with Cura_SteamEngine 4.8.0
M140 S60
M105
M190 S60
M104 S215
M105
M109 S215
M82 ;absolute extrusion mode
; Ender 3 Custom Start G-code
G92 E0 ; Reset Extruder
G28 ; Home all axes
G1 Z2.0 F3000 ; Move Z Axis up little to prevent scratching of Heat Bed
G1 X0.1 Y20 Z0.3 F5000.0 ; Move to start position
G1 X0.1 Y200.0 Z0.3 F1500.0 E15 ; Draw the first line
G1 X0.4 Y200.0 Z0.3 F5000.0 ; Move to side a little
G1 X0.4 Y20 Z0.3 F1500.0 E30 ; Draw the second line
G92 E0 ; Reset Extruder
G1 Z2.0 F3000 ; Move Z Axis up little to prevent scratching of Heat Bed
G1 X5 Y20 Z0.3 F5000.0 ; Move over to prevent blob squish
G92 E0
G92 E0
G1 F1500 E-6.5
;LAYER_COUNT:44
;LAYER:0
M107
;MESH:buttonForCatButton.ipt
G0 F6000 X110.173 Y117.042 Z0.2
;TYPE:WALL-INNER
G1 F1500 E0
G1 F1200 X109.945 Y117.044 E0.00758
G1 X109.69 Y117.037 E0.01607
G1 X109.209 Y117 E0.03211
G1 X108.958 Y116.968 E0.04053
G1 X108.487 Y116.881 E0.05646
G1 X108.243 Y116.822 E0.06481
G1 X108.017 Y116.759 E0.07261
G1 X107.766 Y116.681 E0.08135
G1 X107.328 Y116.518 E0.0969
G1 X107.095 Y116.417 E0.10535
G1 X106.869 Y116.31 E0.11366
G1 X106.443 Y116.081 E0.12975
G1 X106.225 Y115.948 E0.13824
G1 X105.835 Y115.682 E0.15394
G1 X105.627 Y115.523 E0.16265
G1 X105.261 Y115.212 E0.17863
G1 X105.076 Y115.038 E0.18707
G1 X104.914 Y114.875 E0.19472
G1 X104.739 Y114.685 E0.20331
G1 X104.436 Y114.321 E0.21906
G1 X104.281 Y114.113 E0.22769
G1 X104.011 Y113.711 E0.24379
G1 X103.767 Y113.283 E0.26018
G1 X103.559 Y112.855 E0.27601
G1 X103.462 Y112.623 E0.28437
G1 X103.298 Y112.169 E0.30043
G1 X103.222 Y111.92 E0.30909
G1 X103.162 Y111.693 E0.31689
G1 X103.105 Y111.446 E0.32533
G1 X103.061 Y111.215 E0.33315
G1 X103.022 Y110.965 E0.34156
G1 X102.973 Y110.487 E0.35754
G1 X102.956 Y110.009 E0.37345
G1 X102.96 Y109.751 E0.38203
G1 X102.993 Y109.277 E0.39784
G1 X103.024 Y109.021 E0.40641
G1 X103.105 Y108.554 E0.42218
G1 X103.162 Y108.307 E0.43061
G1 X103.294 Y107.843 E0.44666
G1 X103.372 Y107.614 E0.4547
G1 X103.467 Y107.366 E0.46353
G1 X103.659 Y106.931 E0.47935
G1 X103.884 Y106.503 E0.49543
G1 X104.142 Y106.088 E0.51168
G1 X104.281 Y105.887 E0.51981
G1 X104.436 Y105.679 E0.52844
G1 X104.739 Y105.315 E0.54419
G1 X104.914 Y105.125 E0.55278
G1 X105.076 Y104.962 E0.56043
G1 X105.261 Y104.788 E0.56888
G1 X105.449 Y104.622 E0.57722
G1 X105.627 Y104.477 E0.58485
G1 X105.838 Y104.316 E0.59368
G1 X106.225 Y104.052 E0.60926
G1 X106.446 Y103.917 E0.61788
G1 X106.869 Y103.69 E0.63384
G1 X107.095 Y103.583 E0.64216
G1 X107.328 Y103.482 E0.65061
G1 X107.766 Y103.319 E0.66615
G1 X108.019 Y103.24 E0.67496
G1 X108.243 Y103.178 E0.6827
G1 X108.487 Y103.119 E0.69104
G1 X108.958 Y103.032 E0.70697
G1 X109.209 Y103 E0.71539
G1 X109.69 Y102.963 E0.73144
G1 X109.945 Y102.956 E0.73992
G1 X110.173 Y102.958 E0.7475
G1 X110.435 Y102.97 E0.75623
G1 X110.664 Y102.988 E0.76387
G1 X110.921 Y103.016 E0.77247
G1 X111.395 Y103.094 E0.78844
G1 X111.639 Y103.149 E0.79676
G1 X112.104 Y103.277 E0.8128
G1 X112.343 Y103.357 E0.82119
G1 X112.559 Y103.436 E0.82884
G1 X112.804 Y103.537 E0.83765
G1 X113.227 Y103.738 E0.85323
G1 X113.449 Y103.858 E0.86162
G1 X113.867 Y104.112 E0.87789
G1 X114.259 Y104.388 E0.89383
G1 X114.453 Y104.542 E0.90207
G1 X114.656 Y104.713 E0.9109
G1 X114.819 Y104.861 E0.91822
G1 X115.006 Y105.044 E0.92693
G1 X115.17 Y105.214 E0.93478
G1 X115.336 Y105.401 E0.9431
G1 X115.639 Y105.778 E0.95919
G1 X115.786 Y105.982 E0.96755
G1 X116.043 Y106.379 E0.98328
G1 X116.171 Y106.604 E0.99189
G1 X116.387 Y107.029 E1.00774
G1 X116.494 Y107.271 E1.01654
G1 X116.662 Y107.707 E1.03209
G1 X116.786 Y108.12 E1.04643
G1 X116.851 Y108.365 E1.05486
G1 X116.944 Y108.827 E1.07053
G1 X116.982 Y109.084 E1.07917
G1 X117.028 Y109.558 E1.09501
G1 X117.04 Y109.816 E1.1036
G1 X117.042 Y110.046 E1.11125
G1 X117.036 Y110.304 E1.11984
G1 X117 Y110.778 E1.13565
G1 X116.959 Y111.097 E1.14634
G1 X116.869 Y111.562 E1.1621
G1 X116.786 Y111.887 E1.17325
G1 X116.687 Y112.21 E1.18449
G1 X116.609 Y112.437 E1.19247
G1 X116.514 Y112.678 E1.20109
G1 X116.422 Y112.891 E1.20881
G1 X116.312 Y113.124 E1.21738
G1 X116.206 Y113.33 E1.22508
G1 X116.044 Y113.62 E1.23613
G1 X115.927 Y113.809 E1.24352
G1 X115.786 Y114.018 E1.25191
G1 X115.639 Y114.222 E1.26027
G1 X115.497 Y114.405 E1.26798
G1 X115.327 Y114.61 E1.27683
G1 X115.184 Y114.771 E1.284
G1 X114.955 Y115.005 E1.29489
G1 X114.698 Y115.247 E1.30663
G1 X114.508 Y115.411 E1.31497
G1 X114.269 Y115.604 E1.32519
G1 X113.876 Y115.882 E1.3412
G1 X113.665 Y116.016 E1.34952
G1 X113.449 Y116.142 E1.35783
G1 X113.021 Y116.364 E1.37387
G1 X112.792 Y116.467 E1.38222
G1 X112.574 Y116.558 E1.39008
G1 X112.332 Y116.647 E1.39865
G1 X111.881 Y116.789 E1.41438
G1 X111.636 Y116.853 E1.4228
G1 X111.16 Y116.949 E1.43895
G1 X110.921 Y116.984 E1.44699
G1 X110.664 Y117.012 E1.45559
G1 X110.435 Y117.03 E1.46323
G1 X110.173 Y117.042 E1.47195
G0 F6000 X110.191 Y117.442
;TYPE:WALL-OUTER
G1 F1200 X109.937 Y117.444 E1.4804
G1 X109.679 Y117.437 E1.48898
G1 X109.415 Y117.421 E1.49778
G1 X109.158 Y117.397 E1.50636
G1 X108.907 Y117.365 E1.51478
G1 X108.653 Y117.322 E1.52335
G1 X108.393 Y117.27 E1.53217
G1 X108.149 Y117.211 E1.54052
G1 X107.898 Y117.141 E1.54918
G1 X107.647 Y117.063 E1.55793
G1 X107.403 Y116.977 E1.56653
G1 X107.169 Y116.885 E1.57489
G1 X106.924 Y116.779 E1.58377
G1 X106.698 Y116.672 E1.59209
G1 X106.468 Y116.553 E1.6007
G1 X106.237 Y116.424 E1.6095
G1 X106.016 Y116.289 E1.61812
G1 X105.801 Y116.147 E1.62668
G1 X105.592 Y116 E1.63518
G1 X105.384 Y115.841 E1.64389
G1 X105.184 Y115.678 E1.65247
G1 X104.996 Y115.512 E1.66081
G1 X104.802 Y115.33 E1.66966
G1 X104.62 Y115.146 E1.67827
G1 X104.445 Y114.956 E1.68686
G1 X104.277 Y114.761 E1.69542
G1 X104.115 Y114.56 E1.70401
G1 X103.96 Y114.352 E1.71264
G1 X103.813 Y114.14 E1.72122
G1 X103.676 Y113.93 E1.72956
G1 X103.54 Y113.701 E1.73841
G1 X103.416 Y113.475 E1.74699
G1 X103.302 Y113.249 E1.75541
G1 X103.19 Y113.009 E1.76422
G1 X103.093 Y112.777 E1.77258
G1 X102.997 Y112.529 E1.78142
G1 X102.915 Y112.286 E1.78995
G1 X102.839 Y112.037 E1.79861
G1 X102.775 Y111.795 E1.80694
G1 X102.715 Y111.537 E1.81575
G1 X102.668 Y111.29 E1.82411
G1 X102.627 Y111.027 E1.83297
G1 X102.595 Y110.771 E1.84155
G1 X102.574 Y110.52 E1.84992
G1 X102.56 Y110.255 E1.85875
G1 X102.556 Y110.003 E1.86713
G1 X102.56 Y109.745 E1.87571
G1 X102.574 Y109.48 E1.88454
G1 X102.596 Y109.229 E1.89292
G1 X102.627 Y108.973 E1.9015
G1 X102.667 Y108.71 E1.91035
G1 X102.715 Y108.463 E1.91871
G1 X102.775 Y108.205 E1.92752
G1 X102.839 Y107.963 E1.93585
G1 X102.915 Y107.714 E1.94451
G1 X102.998 Y107.471 E1.95305
G1 X103.093 Y107.223 E1.96188
G1 X103.19 Y106.991 E1.97025
G1 X103.302 Y106.751 E1.97906
G1 X103.416 Y106.525 E1.98747
G1 X103.54 Y106.299 E1.99605
G1 X103.676 Y106.07 E2.00491
G1 X103.813 Y105.86 E2.01325
G1 X103.96 Y105.648 E2.02183
G1 X104.115 Y105.44 E2.03045
G1 X104.277 Y105.239 E2.03904
G1 X104.445 Y105.044 E2.0476
G1 X104.62 Y104.854 E2.05619
G1 X104.802 Y104.67 E2.0648
G1 X104.996 Y104.488 E2.07365
G1 X105.184 Y104.322 E2.08199
G1 X105.384 Y104.159 E2.09057
G1 X105.595 Y103.998 E2.0994
G1 X105.801 Y103.853 E2.10778
G1 X106.016 Y103.711 E2.11635
G1 X106.237 Y103.576 E2.12496
G1 X106.468 Y103.447 E2.13376
G1 X106.698 Y103.328 E2.14237
G1 X106.924 Y103.221 E2.15069
G1 X107.169 Y103.115 E2.15957
G1 X107.403 Y103.023 E2.16793
G1 X107.647 Y102.937 E2.17654
G1 X107.9 Y102.858 E2.18535
G1 X108.149 Y102.789 E2.19395
G1 X108.393 Y102.73 E2.2023
G1 X108.653 Y102.678 E2.21111
G1 X108.907 Y102.635 E2.21968
G1 X109.158 Y102.603 E2.2281
G1 X109.415 Y102.579 E2.23668
G1 X109.679 Y102.563 E2.24548
G1 X109.937 Y102.556 E2.25407
G1 X110.191 Y102.558 E2.26251
G1 X110.456 Y102.57 E2.27134
G1 X110.707 Y102.59 E2.27971
G1 X110.971 Y102.619 E2.28854
G1 X111.22 Y102.656 E2.29692
G1 X111.481 Y102.704 E2.30574
G1 X111.725 Y102.758 E2.31406
G1 X111.982 Y102.824 E2.32288
G1 X112.23 Y102.898 E2.33149
G1 X112.469 Y102.977 E2.33986
G1 X112.711 Y103.066 E2.34844
G1 X112.956 Y103.167 E2.35725
G1 X113.185 Y103.271 E2.36562
G1 X113.417 Y103.386 E2.37423
G1 X113.651 Y103.512 E2.38307
G1 X113.867 Y103.638 E2.39139
G1 X114.091 Y103.781 E2.40022
G1 X114.305 Y103.926 E2.40882
G1 X114.508 Y104.075 E2.4172
G1 X114.711 Y104.236 E2.42581
G1 X114.914 Y104.407 E2.43464
G1 X115.099 Y104.575 E2.44295
G1 X115.286 Y104.758 E2.45166
G1 X115.469 Y104.948 E2.46043
G1 X115.635 Y105.135 E2.46875
G1 X115.801 Y105.335 E2.47739
G1 X115.964 Y105.544 E2.48621
G1 X116.111 Y105.748 E2.49457
G1 X116.259 Y105.968 E2.50339
G1 X116.391 Y106.181 E2.51172
G1 X116.519 Y106.406 E2.52033
G1 X116.644 Y106.641 E2.52919
G1 X116.753 Y106.867 E2.53753
G1 X116.86 Y107.109 E2.54633
G1 X116.955 Y107.342 E2.5547
G1 X117.045 Y107.592 E2.56354
G1 X117.173 Y108.017 E2.5783
G1 X117.238 Y108.262 E2.58673
G1 X117.293 Y108.514 E2.59531
G1 X117.34 Y108.768 E2.6039
G1 X117.378 Y109.025 E2.61254
G1 X117.41 Y109.288 E2.62136
G1 X117.428 Y109.539 E2.62973
G1 X117.44 Y109.797 E2.63832
G1 X117.442 Y110.055 E2.6469
G1 X117.436 Y110.313 E2.65548
G1 X117.42 Y110.578 E2.66431
G1 X117.397 Y110.829 E2.67269
G1 X117.355 Y111.155 E2.68363
G1 X117.31 Y111.41 E2.69224
G1 X117.257 Y111.661 E2.70077
G1 X117.174 Y111.986 E2.71193
G1 X117.065 Y112.341 E2.72428
G1 X116.981 Y112.584 E2.73283
G1 X116.886 Y112.825 E2.74145
G1 X116.784 Y113.062 E2.75003
G1 X116.674 Y113.295 E2.7586
G1 X116.555 Y113.525 E2.76721
G1 X116.39 Y113.82 E2.77845
G1 X116.259 Y114.032 E2.78674
G1 X116.111 Y114.252 E2.79556
G1 X115.964 Y114.456 E2.80392
G1 X115.805 Y114.66 E2.81253
G1 X115.635 Y114.865 E2.82138
G1 X115.47 Y115.051 E2.82965
G1 X115.241 Y115.285 E2.84054
G1 X114.959 Y115.55 E2.85341
G1 X114.769 Y115.714 E2.86176
G1 X114.506 Y115.926 E2.873
G1 X114.305 Y116.074 E2.8813
G1 X114.091 Y116.219 E2.8899
G1 X113.867 Y116.362 E2.89874
G1 X113.651 Y116.488 E2.90705
G1 X113.423 Y116.611 E2.91567
G1 X113.185 Y116.729 E2.92451
G1 X112.956 Y116.832 E2.93286
G1 X112.712 Y116.934 E2.94165
G1 X112.469 Y117.023 E2.95026
G1 X112.23 Y117.102 E2.95863
G1 X111.982 Y117.176 E2.96724
G1 X111.725 Y117.243 E2.97607
G1 X111.481 Y117.296 E2.98438
G1 X111.219 Y117.344 E2.99324
G1 X110.971 Y117.381 E3.00158
G1 X110.707 Y117.41 E3.01041
G1 X110.456 Y117.43 E3.01879
G1 X110.191 Y117.442 E3.02761
G0 F6000 X110.18 Y117.003
G0 X110.155 Y116.652
;TYPE:SKIN
G1 F1200 X109.951 Y116.654 E3.03439
G1 X109.7 Y116.647 E3.04275
G1 X109.247 Y116.612 E3.05786
G1 X109.029 Y116.584 E3.06517
G1 X108.561 Y116.498 E3.08099
G1 X108.127 Y116.384 E3.09592
G1 X107.881 Y116.308 E3.10448
G1 X107.5 Y116.167 E3.11799
G1 X107.256 Y116.061 E3.12684
G1 X107.036 Y115.957 E3.13494
G1 X106.642 Y115.746 E3.1498
G1 X106.434 Y115.619 E3.15791
G1 X106.064 Y115.366 E3.17282
G1 X105.872 Y115.219 E3.18086
G1 X105.52 Y114.92 E3.19622
G1 X105.191 Y114.6 E3.21148
G1 X105.033 Y114.428 E3.21925
G1 X104.736 Y114.071 E3.2347
G1 X104.605 Y113.895 E3.242
G1 X104.339 Y113.499 E3.25786
G1 X104.11 Y113.098 E3.27322
G1 X103.915 Y112.695 E3.28811
G1 X103.826 Y112.481 E3.29582
G1 X103.665 Y112.036 E3.31156
G1 X103.541 Y111.6 E3.32664
G1 X103.482 Y111.347 E3.33528
G1 X103.451 Y111.178 E3.34099
G1 X103.408 Y110.905 E3.35018
G1 X103.363 Y110.465 E3.36489
G1 X103.346 Y110.015 E3.37987
G1 X103.35 Y109.778 E3.38776
G1 X103.381 Y109.324 E3.40289
G1 X103.412 Y109.068 E3.41147
G1 X103.485 Y108.642 E3.42584
G1 X103.54 Y108.404 E3.43397
G1 X103.663 Y107.968 E3.44904
G1 X103.732 Y107.765 E3.45617
G1 X103.828 Y107.515 E3.46507
G1 X104.016 Y107.089 E3.48056
G1 X104.222 Y106.697 E3.49529
G1 X104.468 Y106.302 E3.51077
G1 X104.736 Y105.929 E3.52604
G1 X105.033 Y105.572 E3.54149
G1 X105.348 Y105.242 E3.55666
G1 X105.695 Y104.924 E3.57232
G1 X106.058 Y104.638 E3.58769
G1 X106.436 Y104.38 E3.60291
G1 X106.649 Y104.25 E3.61121
G1 X107.036 Y104.043 E3.62581
G1 X107.256 Y103.939 E3.6339
G1 X107.5 Y103.833 E3.64275
G1 X107.889 Y103.689 E3.65654
G1 X108.13 Y103.614 E3.66494
G1 X108.565 Y103.502 E3.67988
G1 X109.029 Y103.416 E3.69557
G1 X109.247 Y103.388 E3.70288
G1 X109.7 Y103.353 E3.718
G1 X109.951 Y103.346 E3.72635
G1 X110.155 Y103.348 E3.73313
G1 X110.417 Y103.359 E3.74186
G1 X110.868 Y103.403 E3.75693
G1 X111.32 Y103.476 E3.77216
G1 X111.54 Y103.526 E3.77966
G1 X111.984 Y103.648 E3.79497
G1 X112.418 Y103.8 E3.81027
G1 X112.636 Y103.89 E3.81811
G1 X113.059 Y104.09 E3.83368
G1 X113.246 Y104.191 E3.84074
G1 X113.656 Y104.44 E3.8567
G1 X114.026 Y104.701 E3.87176
G1 X114.206 Y104.844 E3.8794
G1 X114.399 Y105.007 E3.88781
G1 X114.725 Y105.315 E3.90272
G1 X115.038 Y105.653 E3.91805
G1 X115.327 Y106.011 E3.93335
G1 X115.464 Y106.202 E3.94117
G1 X115.704 Y106.572 E3.95583
G1 X115.832 Y106.797 E3.96444
G1 X116.03 Y107.187 E3.97899
G1 X116.133 Y107.42 E3.98746
G1 X116.288 Y107.82 E4.00173
G1 X116.411 Y108.227 E4.01587
G1 X116.471 Y108.453 E4.02365
G1 X116.558 Y108.884 E4.03828
G1 X116.594 Y109.121 E4.04625
G1 X116.638 Y109.576 E4.06145
G1 X116.652 Y110.037 E4.07679
G1 X116.646 Y110.295 E4.08538
G1 X116.614 Y110.729 E4.09985
G1 X116.576 Y111.023 E4.10971
G1 X116.488 Y111.477 E4.12509
G1 X116.413 Y111.772 E4.13521
G1 X116.318 Y112.083 E4.14603
G1 X116.155 Y112.524 E4.16167
G1 X115.965 Y112.945 E4.17703
G1 X115.865 Y113.139 E4.18429
G1 X115.707 Y113.422 E4.19507
G1 X115.603 Y113.591 E4.20167
G1 X115.462 Y113.8 E4.21006
G1 X115.197 Y114.156 E4.22482
G1 X115.035 Y114.351 E4.23325
G1 X114.898 Y114.505 E4.2401
G1 X114.682 Y114.726 E4.25038
G1 X114.437 Y114.957 E4.26158
G1 X114.263 Y115.107 E4.26922
G1 X114.033 Y115.293 E4.27906
G1 X113.659 Y115.558 E4.29431
G1 X113.27 Y115.795 E4.30946
G1 X112.842 Y116.017 E4.32549
G1 X112.675 Y116.093 E4.3316
G1 X112.426 Y116.197 E4.34057
G1 X112.209 Y116.277 E4.34826
G1 X111.782 Y116.411 E4.36315
G1 X111.536 Y116.475 E4.3716
G1 X111.096 Y116.565 E4.38654
G1 X110.878 Y116.596 E4.39386
G1 X110.621 Y116.624 E4.40246
G1 X110.417 Y116.64 E4.40927
G1 X110.155 Y116.652 E4.41799
G0 F6000 X110.165 Y116.931
G0 X108.517 Y116.713
G0 X107.163 Y116.26
G0 X106.313 Y115.802
G0 X105.406 Y115.082
G0 X104.337 Y113.999
G0 X104.703 Y113.754
G1 F1200 X106.239 Y115.29 E4.49024
G0 F6000 X105.99 Y115.654
G0 X107.335 Y116.4
G0 X107.51 Y115.995
G1 F1200 X104.002 Y112.487 E4.65525
G0 F6000 X103.717 Y111.637
G1 F1200 X108.359 Y116.278 E4.87357
G0 F6000 X109.073 Y116.427
G1 F1200 X103.573 Y110.927 E5.13227
G0 F6000 X103.516 Y110.305
G1 F1200 X109.697 Y116.485 E5.42298
G0 F6000 X110.262 Y116.485
G1 F1200 X103.513 Y109.735 E5.74046
G0 F6000 X103.555 Y109.211
G1 F1200 X110.786 Y116.443 E6.08061
G0 F6000 X111.273 Y116.364
G1 F1200 X103.632 Y108.723 E6.44001
G0 F6000 X103.743 Y108.269
G1 F1200 X111.731 Y116.256 E6.81572
G0 F6000 X112.162 Y116.122
G1 F1200 X103.875 Y107.835 E7.20552
G0 F6000 X104.038 Y107.432
G1 F1200 X112.568 Y115.962 E7.60674
G0 F6000 X112.95 Y115.778
G1 F1200 X104.217 Y107.046 E8.01749
G0 F6000 X104.419 Y106.681
G1 F1200 X113.315 Y115.578 E8.43596
G0 F6000 X113.661 Y115.358
G1 F1200 X104.639 Y106.336 E8.86032
G0 F6000 X104.877 Y106.008
G1 F1200 X113.989 Y115.12 E9.28892
G0 F6000 X114.298 Y114.864
G1 F1200 X105.133 Y105.699 E9.72002
G0 F6000 X105.408 Y105.408
G1 F1200 X114.59 Y114.59 E10.15191
G0 F6000 X114.865 Y114.299
G1 F1200 X105.701 Y105.135 E10.58296
G0 F6000 X106.01 Y104.879
G1 F1200 X115.121 Y113.989 E11.01149
G0 F6000 X115.36 Y113.663
G1 F1200 X106.337 Y104.64 E11.4359
G0 F6000 X106.68 Y104.417
G1 F1200 X115.581 Y113.318 E11.85458
G0 F6000 X115.78 Y112.952
G1 F1200 X107.046 Y104.218 E12.2654
G0 F6000 X107.431 Y104.037
G1 F1200 X115.96 Y112.566 E12.66658
G0 F6000 X116.118 Y112.159
G1 F1200 X107.838 Y103.878 E13.05607
G0 F6000 X108.269 Y103.743
G1 F1200 X116.257 Y111.732 E13.43182
G0 F6000 X116.364 Y111.273
G1 F1200 X108.726 Y103.634 E13.79111
G0 F6000 X109.211 Y103.554
G1 F1200 X116.445 Y110.788 E14.13138
G0 F6000 X116.485 Y110.263
G1 F1200 X109.735 Y103.512 E14.4489
G0 F6000 X110.303 Y103.514
G1 F1200 X116.48 Y109.692 E14.73947
G0 F6000 X116.423 Y109.069
G1 F1200 X110.928 Y103.574 E14.99794
G0 F6000 X111.639 Y103.719
G1 F1200 X116.28 Y108.361 E15.21626
