;FLAVOR:Marlin
;TIME:21552
;Filament used: 19.4206m
;Layer height: 0.2
;MINX:58.535
;MINY:20.435
;MINZ:0.2
;MAXX:161.465
;MAXY:198.7
;MAXZ:4.6
;Generated with Cura_SteamEngine 4.8.0
M140 S55
M105
M190 S55
M104 S210
M105
M109 S210
M82 ;absolute extrusion mode
; Ender 3 Custom Start G-code
G92 E0 ; Reset Extruder
G28 ; Home all axes
G1 Z2.0 F3000 ; Move Z Axis up little to prevent scratching of Heat Bed
G1 X0.1 Y20 Z0.3 F5000.0 ; Move to start position
G1 X0.1 Y200.0 Z0.3 F1500.0 E15 ; Draw the first line
G1 X0.4 Y200.0 Z0.3 F5000.0 ; Move to side a little
G1 X0.4 Y20 Z0.3 F1500.0 E30 ; Draw the second line
G92 E0 ; Reset Extruder
G1 Z2.0 F3000 ; Move Z Axis up little to prevent scratching of Heat Bed
G1 X5 Y20 Z0.3 F5000.0 ; Move over to prevent blob squish
G92 E0
G92 E0
G1 F1500 E-7
;LAYER_COUNT:23
;LAYER:0
M107
;MESH:gateGasket.ipt
G0 F6000 X140.698 Y82.13 Z0.2
;TYPE:WALL-INNER
G1 F1500 E0
G1 F1200 X141.273 Y82.238 E0.01946
G1 X141.877 Y82.259 E0.03956
G1 X142.468 Y82.191 E0.05935
G1 X143.032 Y82.039 E0.07877
G1 X143.586 Y81.796 E0.0989
G1 X144.08 Y81.485 E0.11831
G1 X144.514 Y81.113 E0.13732
G1 X155.778 Y69.846 E0.66722
G1 X156.145 Y69.421 E0.68589
G1 X156.466 Y68.906 E0.70608
G1 X156.702 Y68.361 E0.72583
G1 X156.853 Y67.797 E0.74525
G1 X156.919 Y67.195 E0.76539
G1 X156.897 Y66.611 E0.78483
G1 X156.783 Y66.017 E0.80495
G1 X156.59 Y65.466 E0.82437
G1 X156.306 Y64.931 E0.84451
G1 X155.958 Y64.461 E0.86396
G1 X155.529 Y64.034 E0.88409
G1 X155.05 Y63.682 E0.90387
G1 X154.533 Y63.409 E0.92331
G1 X153.962 Y63.211 E0.94341
G1 X153.387 Y63.103 E0.96287
G1 X152.783 Y63.082 E0.98297
G1 X152.201 Y63.147 E1.00245
G1 X151.617 Y63.306 E1.02258
G1 X151.073 Y63.545 E1.04234
G1 X150.579 Y63.856 E1.06176
G1 X150.146 Y64.228 E1.08075
G1 X138.881 Y75.494 E1.61064
G1 X138.514 Y75.92 E1.62934
G1 X138.194 Y76.433 E1.64945
G1 X137.96 Y76.969 E1.6689
G1 X137.806 Y77.555 E1.68906
G1 X137.74 Y78.146 E1.70884
G1 X137.762 Y78.729 E1.72824
G1 X137.876 Y79.323 E1.74836
G1 X138.07 Y79.876 E1.76785
G1 X138.354 Y80.409 E1.78794
G1 X138.7 Y80.88 E1.80737
G1 X139.131 Y81.308 E1.82758
G1 X139.611 Y81.658 E1.84733
G1 X140.126 Y81.931 E1.86672
G1 X140.698 Y82.13 E1.88686
G0 F6000 X140.801 Y81.742
;TYPE:WALL-OUTER
G1 F1200 X141.317 Y81.839 E1.90433
G1 X141.861 Y81.858 E1.92243
G1 X142.393 Y81.797 E1.94024
G1 X142.899 Y81.661 E1.95767
G1 X143.398 Y81.442 E1.97579
G1 X143.842 Y81.162 E1.99325
G1 X144.242 Y80.819 E2.01078
G1 X155.485 Y69.574 E2.53966
G1 X155.822 Y69.183 E2.55683
G1 X156.111 Y68.72 E2.57498
G1 X156.323 Y68.229 E2.59277
G1 X156.459 Y67.723 E2.6102
G1 X156.518 Y67.181 E2.62833
G1 X156.498 Y66.656 E2.64581
G1 X156.396 Y66.121 E2.66392
G1 X156.223 Y65.627 E2.68133
G1 X155.967 Y65.145 E2.69948
G1 X155.655 Y64.723 E2.71694
G1 X155.268 Y64.339 E2.73507
G1 X154.837 Y64.022 E2.75286
G1 X154.373 Y63.777 E2.77032
G1 X153.859 Y63.599 E2.78841
G1 X153.343 Y63.502 E2.80587
G1 X152.798 Y63.483 E2.82401
G1 X152.276 Y63.541 E2.84148
G1 X151.751 Y63.684 E2.85958
G1 X151.261 Y63.899 E2.87737
G1 X150.817 Y64.179 E2.89483
G1 X150.418 Y64.522 E2.91233
G1 X139.174 Y75.766 E3.44122
G1 X138.837 Y76.158 E3.45841
G1 X138.549 Y76.62 E3.47652
G1 X138.339 Y77.101 E3.49397
G1 X138.2 Y77.628 E3.5121
G1 X138.141 Y78.16 E3.5299
G1 X138.161 Y78.684 E3.54734
G1 X138.263 Y79.219 E3.56546
G1 X138.437 Y79.715 E3.58294
G1 X138.693 Y80.195 E3.60103
G1 X139.004 Y80.618 E3.6185
G1 X139.391 Y81.003 E3.63665
G1 X139.823 Y81.318 E3.65444
G1 X140.286 Y81.563 E3.67186
G1 X140.801 Y81.742 E3.68999
G0 F6000 X140.688 Y82.167
G1 F1500 E-3.31001
G0 F6000 X139.236 Y81.186
G0 X138.822 Y80.775
G0 X138.49 Y80.323
G0 X138.217 Y79.812
G0 X138.031 Y79.281
G0 X137.779 Y76.906
G0 X139.156 Y77.391
G0 X110.582 Y41.156
G0 X111.311 Y42.422
G0 X110.006 Y42.582
;TYPE:WALL-INNER
G1 F1500 E3.68999
G1 F1200 X110.432 Y42.543 E3.70422
G1 X110.838 Y42.431 E3.71823
G1 X111.216 Y42.256 E3.73208
G1 X111.568 Y42.008 E3.7464
G1 X111.868 Y41.706 E3.76056
G1 X112.109 Y41.358 E3.77464
G1 X112.286 Y40.979 E3.78855
G1 X112.394 Y40.565 E3.80278
G1 X112.432 Y40.144 E3.81684
G1 X112.393 Y39.718 E3.83107
G1 X112.281 Y39.312 E3.84508
G1 X112.106 Y38.934 E3.85893
G1 X111.858 Y38.582 E3.87326
G1 X111.556 Y38.282 E3.88741
G1 X111.208 Y38.041 E3.90149
G1 X110.829 Y37.864 E3.91541
G1 X110.415 Y37.756 E3.92964
G1 X109.994 Y37.718 E3.9437
G1 X109.568 Y37.757 E3.95792
G1 X109.162 Y37.869 E3.97193
G1 X108.784 Y38.044 E3.98579
G1 X108.432 Y38.292 E4.00011
G1 X108.132 Y38.594 E4.01427
G1 X107.891 Y38.942 E4.02835
G1 X107.714 Y39.321 E4.04226
G1 X107.606 Y39.735 E4.05649
G1 X107.568 Y40.156 E4.07055
G1 X107.607 Y40.582 E4.08478
G1 X107.719 Y40.988 E4.09878
G1 X107.894 Y41.366 E4.11264
G1 X108.142 Y41.718 E4.12696
G1 X108.444 Y42.018 E4.14112
G1 X108.792 Y42.259 E4.1552
G1 X109.171 Y42.436 E4.16911
G1 X109.585 Y42.544 E4.18334
G1 X110.006 Y42.582 E4.1974
G0 F6000 X110.006 Y42.18
;TYPE:WALL-OUTER
G1 F1200 X110.36 Y42.148 E4.20922
G1 X110.7 Y42.054 E4.22095
G1 X111.015 Y41.908 E4.2325
G1 X111.309 Y41.701 E4.24446
G1 X111.559 Y41.449 E4.25627
G1 X111.761 Y41.158 E4.26805
G1 X111.908 Y40.843 E4.27961
G1 X111.999 Y40.496 E4.29154
G1 X112.03 Y40.144 E4.3033
G1 X111.998 Y39.79 E4.31512
G1 X111.904 Y39.45 E4.32685
G1 X111.758 Y39.135 E4.3384
G1 X111.551 Y38.841 E4.35036
G1 X111.299 Y38.591 E4.36216
G1 X111.008 Y38.389 E4.37395
G1 X110.693 Y38.242 E4.38551
G1 X110.346 Y38.151 E4.39744
G1 X109.994 Y38.12 E4.40919
G1 X109.64 Y38.152 E4.42101
G1 X109.3 Y38.246 E4.43275
G1 X108.985 Y38.392 E4.44429
G1 X108.691 Y38.599 E4.45625
G1 X108.441 Y38.851 E4.46806
G1 X108.239 Y39.142 E4.47984
G1 X108.092 Y39.457 E4.4914
G1 X108.001 Y39.804 E4.50333
G1 X107.97 Y40.156 E4.51509
G1 X108.002 Y40.51 E4.52691
G1 X108.096 Y40.85 E4.53864
G1 X108.242 Y41.165 E4.55019
G1 X108.449 Y41.459 E4.56215
G1 X108.701 Y41.709 E4.57395
G1 X108.992 Y41.911 E4.58574
G1 X109.307 Y42.058 E4.5973
G1 X109.654 Y42.149 E4.60923
G1 X110.006 Y42.18 E4.62098
G0 F6000 X110.006 Y42.62
G1 F1500 E-2.37902
G0 F6000 X108.696 Y42.425
G0 X109.424 Y41.159
G0 X80.944 Y77.766
G0 X82.379 Y77.495
G0 X81.974 Y79.261
G0 X81.783 Y79.809
G0 X81.521 Y80.304
G0 X81.186 Y80.764
G0 X80.775 Y81.178
G0 X79.323 Y82.124
;TYPE:WALL-INNER
G1 F1500 E4.62098
G1 F1200 X79.876 Y81.93 E4.64047
G1 X80.409 Y81.646 E4.66056
G1 X80.88 Y81.3 E4.68
G1 X81.308 Y80.869 E4.7002
G1 X81.658 Y80.389 E4.71996
G1 X81.931 Y79.874 E4.73935
G1 X82.13 Y79.302 E4.75949
G1 X82.238 Y78.727 E4.77895
G1 X82.259 Y78.123 E4.79905
G1 X82.191 Y77.532 E4.81884
G1 X82.039 Y76.968 E4.83827
G1 X81.796 Y76.414 E4.85839
G1 X81.485 Y75.92 E4.8778
G1 X81.113 Y75.486 E4.89681
G1 X69.846 Y64.222 E5.42671
G1 X69.421 Y63.855 E5.44538
G1 X68.906 Y63.534 E5.46557
G1 X68.361 Y63.298 E5.48532
G1 X67.797 Y63.147 E5.50474
G1 X67.195 Y63.081 E5.52488
G1 X66.611 Y63.103 E5.54432
G1 X66.017 Y63.217 E5.56444
G1 X65.466 Y63.41 E5.58386
G1 X64.931 Y63.694 E5.604
G1 X64.461 Y64.042 E5.62345
G1 X64.034 Y64.471 E5.64359
G1 X63.682 Y64.95 E5.66336
G1 X63.409 Y65.467 E5.6828
G1 X63.211 Y66.038 E5.7029
G1 X63.103 Y66.613 E5.72236
G1 X63.082 Y67.217 E5.74246
G1 X63.147 Y67.799 E5.76194
G1 X63.306 Y68.383 E5.78207
G1 X63.545 Y68.927 E5.80183
G1 X63.856 Y69.421 E5.82125
G1 X64.228 Y69.854 E5.84024
G1 X75.494 Y81.119 E6.37013
G1 X75.92 Y81.486 E6.38883
G1 X76.433 Y81.806 E6.40894
G1 X76.969 Y82.04 E6.42839
G1 X77.555 Y82.194 E6.44855
G1 X78.146 Y82.26 E6.46833
G1 X78.729 Y82.238 E6.48773
G1 X79.323 Y82.124 E6.50785
G0 F6000 X79.219 Y81.737
;TYPE:WALL-OUTER
G1 F1200 X79.715 Y81.563 E6.52533
G1 X80.195 Y81.307 E6.54342
G1 X80.618 Y80.996 E6.56089
G1 X81.003 Y80.609 E6.57904
G1 X81.318 Y80.177 E6.59682
G1 X81.563 Y79.714 E6.61425
G1 X81.742 Y79.199 E6.63238
G1 X81.839 Y78.683 E6.64984
G1 X81.858 Y78.139 E6.66795
G1 X81.797 Y77.607 E6.68576
G1 X81.661 Y77.101 E6.70319
G1 X81.442 Y76.602 E6.72131
G1 X81.162 Y76.158 E6.73877
G1 X80.819 Y75.758 E6.7563
G1 X69.574 Y64.515 E7.28518
G1 X69.183 Y64.178 E7.30235
G1 X68.72 Y63.889 E7.3205
G1 X68.229 Y63.677 E7.33829
G1 X67.723 Y63.541 E7.35572
G1 X67.181 Y63.482 E7.37385
G1 X66.656 Y63.502 E7.39132
G1 X66.121 Y63.604 E7.40944
G1 X65.627 Y63.777 E7.42685
G1 X65.145 Y64.033 E7.445
G1 X64.723 Y64.345 E7.46245
G1 X64.339 Y64.732 E7.48059
G1 X64.022 Y65.163 E7.49838
G1 X63.777 Y65.627 E7.51583
G1 X63.599 Y66.141 E7.53393
G1 X63.502 Y66.657 E7.55139
G1 X63.483 Y67.202 E7.56953
G1 X63.541 Y67.724 E7.58699
G1 X63.684 Y68.249 E7.60509
G1 X63.899 Y68.739 E7.62289
G1 X64.179 Y69.183 E7.64035
G1 X64.522 Y69.582 E7.65785
G1 X75.766 Y80.826 E8.18673
G1 X76.158 Y81.163 E8.20393
G1 X76.62 Y81.451 E8.22203
G1 X77.101 Y81.661 E8.23949
G1 X77.628 Y81.8 E8.25762
G1 X78.16 Y81.859 E8.27542
G1 X78.684 Y81.839 E8.29286
G1 X79.219 Y81.737 E8.31098
G0 F6000 X79.333 Y82.161
G1 F1500 E1.31098
G0 F6000 X78.138 Y82.451
G0 X78.187 Y80.992
G0 X76.343 Y139.818
G0 X75.356 Y138.747
G0 X63.984 Y150.675
G0 X63.676 Y151.169
G0 X63.451 Y151.692
G0 X63.305 Y152.233
G0 X63.243 Y152.811
G0 X63.264 Y153.371
G0 X63.372 Y153.941
G0 X63.557 Y154.469
G0 X63.83 Y154.983
G0 X64.163 Y155.434
G0 X64.576 Y155.843
G0 X65.035 Y156.181
G0 X65.532 Y156.443
G0 X66.08 Y156.633
G0 X66.631 Y156.736
G0 X67.211 Y156.756
G0 X67.769 Y156.695
G0 X69.421 Y156.144
;TYPE:WALL-INNER
G1 F1500 E8.31098
G1 F1200 X69.854 Y155.772 E8.32996
G1 X81.119 Y144.506 E8.85986
G1 X81.486 Y144.08 E8.87856
G1 X81.806 Y143.567 E8.89867
G1 X82.04 Y143.031 E8.91812
G1 X82.194 Y142.445 E8.93827
G1 X82.26 Y141.854 E8.95805
G1 X82.238 Y141.271 E8.97746
G1 X82.124 Y140.677 E8.99757
G1 X81.93 Y140.124 E9.01707
G1 X81.646 Y139.591 E9.03715
G1 X81.3 Y139.12 E9.05659
G1 X80.869 Y138.692 E9.07679
G1 X80.389 Y138.342 E9.09655
G1 X79.874 Y138.069 E9.11594
G1 X79.302 Y137.87 E9.13608
G1 X78.727 Y137.762 E9.15554
G1 X78.123 Y137.741 E9.17564
G1 X77.532 Y137.809 E9.19543
G1 X76.968 Y137.961 E9.21486
G1 X76.414 Y138.204 E9.23498
G1 X75.92 Y138.515 E9.25439
G1 X75.486 Y138.887 E9.2734
G1 X64.222 Y150.154 E9.8033
G1 X63.855 Y150.579 E9.82198
G1 X63.534 Y151.094 E9.84216
G1 X63.298 Y151.639 E9.86191
G1 X63.147 Y152.203 E9.88133
G1 X63.081 Y152.805 E9.90147
G1 X63.103 Y153.389 E9.92091
G1 X63.217 Y153.983 E9.94103
G1 X63.41 Y154.534 E9.96045
G1 X63.694 Y155.069 E9.98059
G1 X64.042 Y155.539 E10.00004
G1 X64.471 Y155.966 E10.02018
G1 X64.95 Y156.318 E10.03995
G1 X65.467 Y156.591 E10.05939
G1 X66.038 Y156.789 E10.07949
G1 X66.613 Y156.897 E10.09895
G1 X67.217 Y156.918 E10.11905
G1 X67.799 Y156.853 E10.13853
G1 X68.383 Y156.694 E10.15866
G1 X68.927 Y156.455 E10.17842
G1 X69.421 Y156.144 E10.19784
G0 F6000 X69.183 Y155.821
;TYPE:WALL-OUTER
G1 F1200 X69.582 Y155.478 E10.21534
G1 X80.826 Y144.234 E10.74422
G1 X81.163 Y143.842 E10.76142
G1 X81.451 Y143.38 E10.77952
G1 X81.661 Y142.899 E10.79698
G1 X81.8 Y142.372 E10.81511
G1 X81.859 Y141.84 E10.83291
G1 X81.839 Y141.316 E10.85035
G1 X81.737 Y140.781 E10.86847
G1 X81.563 Y140.285 E10.88595
G1 X81.307 Y139.805 E10.90404
G1 X80.996 Y139.382 E10.92151
G1 X80.609 Y138.997 E10.93966
G1 X80.177 Y138.682 E10.95744
G1 X79.714 Y138.437 E10.97487
G1 X79.199 Y138.258 E10.993
G1 X78.683 Y138.161 E11.01046
G1 X78.139 Y138.142 E11.02857
G1 X77.607 Y138.203 E11.04638
G1 X77.101 Y138.339 E11.06381
G1 X76.602 Y138.558 E11.08193
G1 X76.158 Y138.838 E11.09939
G1 X75.758 Y139.181 E11.11692
G1 X64.515 Y150.426 E11.6458
G1 X64.178 Y150.817 E11.66297
G1 X63.889 Y151.28 E11.68112
G1 X63.677 Y151.771 E11.69891
G1 X63.541 Y152.277 E11.71633
G1 X63.482 Y152.819 E11.73447
G1 X63.502 Y153.344 E11.75194
G1 X63.604 Y153.879 E11.77006
G1 X63.777 Y154.373 E11.78747
G1 X64.033 Y154.855 E11.80562
G1 X64.345 Y155.277 E11.82307
G1 X64.732 Y155.661 E11.84121
G1 X65.163 Y155.978 E11.859
G1 X65.627 Y156.223 E11.87645
G1 X66.141 Y156.401 E11.89455
G1 X66.657 Y156.498 E11.91201
G1 X67.202 Y156.517 E11.93015
G1 X67.724 Y156.459 E11.94761
G1 X68.249 Y156.316 E11.96571
G1 X68.739 Y156.101 E11.98351
G1 X69.183 Y155.821 E12.00097
G0 F6000 X69.444 Y156.174
G1 F1500 E5.00097
G0 F6000 X81.259 Y144.636
G0 X80.195 Y143.643
G0 X109.256 Y142.643
G0 X108.321 Y143.765
G0 X110.006 Y144.182
;TYPE:WALL-INNER
G1 F1500 E12.00097
G1 F1200 X110.432 Y144.143 E12.0152
G1 X110.838 Y144.031 E12.0292
G1 X111.216 Y143.856 E12.04306
G1 X111.568 Y143.608 E12.05738
G1 X111.868 Y143.306 E12.07154
G1 X112.109 Y142.958 E12.08562
G1 X112.286 Y142.579 E12.09953
G1 X112.394 Y142.165 E12.11376
G1 X112.432 Y141.744 E12.12782
G1 X112.393 Y141.318 E12.14205
G1 X112.281 Y140.912 E12.15606
G1 X112.106 Y140.534 E12.16991
G1 X111.858 Y140.182 E12.18423
G1 X111.556 Y139.882 E12.19839
G1 X111.208 Y139.641 E12.21247
G1 X110.829 Y139.464 E12.22638
G1 X110.415 Y139.356 E12.24061
G1 X109.994 Y139.318 E12.25467
G1 X109.568 Y139.357 E12.2689
G1 X109.162 Y139.469 E12.28291
G1 X108.784 Y139.644 E12.29676
G1 X108.432 Y139.892 E12.31108
G1 X108.132 Y140.194 E12.32524
G1 X107.891 Y140.542 E12.33932
G1 X107.714 Y140.921 E12.35323
G1 X107.606 Y141.335 E12.36746
G1 X107.568 Y141.756 E12.38152
G1 X107.607 Y142.182 E12.39575
G1 X107.719 Y142.588 E12.40976
G1 X107.894 Y142.966 E12.42361
G1 X108.142 Y143.318 E12.43794
G1 X108.444 Y143.618 E12.45209
G1 X108.792 Y143.859 E12.46617
G1 X109.171 Y144.036 E12.48009
G1 X109.585 Y144.144 E12.49432
G1 X110.006 Y144.182 E12.50838
G0 F6000 X110.006 Y143.78
;TYPE:WALL-OUTER
G1 F1200 X110.36 Y143.748 E12.5202
G1 X110.7 Y143.654 E12.53193
G1 X111.015 Y143.508 E12.54348
G1 X111.309 Y143.301 E12.55544
G1 X111.559 Y143.049 E12.56724
G1 X111.761 Y142.758 E12.57902
G1 X111.908 Y142.443 E12.59059
G1 X111.999 Y142.096 E12.60252
G1 X112.03 Y141.744 E12.61427
G1 X111.998 Y141.39 E12.62609
G1 X111.904 Y141.05 E12.63783
G1 X111.758 Y140.735 E12.64937
G1 X111.551 Y140.441 E12.66133
G1 X111.299 Y140.191 E12.67314
G1 X111.008 Y139.989 E12.68492
G1 X110.693 Y139.842 E12.69648
G1 X110.346 Y139.751 E12.70841
G1 X109.994 Y139.72 E12.72017
G1 X109.64 Y139.752 E12.73199
G1 X109.3 Y139.846 E12.74372
G1 X108.985 Y139.992 E12.75527
G1 X108.691 Y140.199 E12.76723
G1 X108.441 Y140.451 E12.77903
G1 X108.239 Y140.742 E12.79082
G1 X108.092 Y141.057 E12.80238
G1 X108.001 Y141.404 E12.81431
G1 X107.97 Y141.756 E12.82606
G1 X108.002 Y142.11 E12.83788
G1 X108.096 Y142.45 E12.84962
G1 X108.242 Y142.765 E12.86117
G1 X108.449 Y143.059 E12.87312
G1 X108.701 Y143.309 E12.88493
G1 X108.992 Y143.511 E12.89671
G1 X109.307 Y143.658 E12.90827
G1 X109.654 Y143.749 E12.92021
G1 X110.006 Y143.78 E12.93196
G0 F6000 X110.006 Y144.22
G1 F1500 E5.93196
G0 F6000 X111.692 Y143.754
G0 X110.748 Y142.64
G0 X139.818 Y143.657
G0 X138.747 Y144.644
G0 X150.579 Y156.145
;TYPE:WALL-INNER
G1 F1500 E12.93196
G1 F1200 X151.094 Y156.466 E12.95214
G1 X151.639 Y156.702 E12.9719
G1 X152.203 Y156.853 E12.99132
G1 X152.805 Y156.919 E13.01146
G1 X153.389 Y156.897 E13.0309
G1 X153.983 Y156.783 E13.05101
G1 X154.534 Y156.59 E13.07043
G1 X155.069 Y156.306 E13.09058
G1 X155.539 Y155.958 E13.11003
G1 X155.966 Y155.529 E13.13016
G1 X156.318 Y155.05 E13.14993
G1 X156.591 Y154.533 E13.16938
G1 X156.789 Y153.962 E13.18948
G1 X156.897 Y153.387 E13.20894
G1 X156.918 Y152.783 E13.22904
G1 X156.853 Y152.201 E13.24851
G1 X156.694 Y151.617 E13.26865
G1 X156.455 Y151.073 E13.28841
G1 X156.144 Y150.579 E13.30782
G1 X155.772 Y150.146 E13.32681
G1 X144.506 Y138.881 E13.8567
G1 X144.08 Y138.514 E13.87541
G1 X143.567 Y138.194 E13.89552
G1 X143.031 Y137.96 E13.91497
G1 X142.445 Y137.806 E13.93512
G1 X141.854 Y137.74 E13.9549
G1 X141.271 Y137.762 E13.9743
G1 X140.677 Y137.876 E13.99442
G1 X140.124 Y138.07 E14.01391
G1 X139.591 Y138.354 E14.034
G1 X139.12 Y138.7 E14.05344
G1 X138.692 Y139.131 E14.07364
G1 X138.342 Y139.611 E14.0934
G1 X138.069 Y140.126 E14.11279
G1 X137.87 Y140.698 E14.13293
G1 X137.762 Y141.273 E14.15239
G1 X137.741 Y141.877 E14.17249
G1 X137.809 Y142.468 E14.19228
G1 X137.961 Y143.032 E14.2117
G1 X138.204 Y143.586 E14.23182
G1 X138.515 Y144.08 E14.25124
G1 X138.887 Y144.514 E14.27025
G1 X150.154 Y155.778 E14.80015
G1 X150.579 Y156.145 E14.81882
G0 F6000 X150.817 Y155.822
;TYPE:WALL-OUTER
G1 F1200 X151.28 Y156.111 E14.83698
G1 X151.771 Y156.323 E14.85476
G1 X152.277 Y156.459 E14.87219
G1 X152.819 Y156.518 E14.89032
