;FLAVOR:Marlin
;TIME:884
;Filament used: 0.460987m
;Layer height: 0.2
;MINX:101.31
;MINY:101.31
;MINZ:0.2
;MAXX:118.69
;MAXY:118.69
;MAXZ:11.4
;Generated with Cura_SteamEngine 4.8.0
M140 S60
M105
M190 S60
M104 S215
M105
M109 S215
M82 ;absolute extrusion mode
; Ender 3 Custom Start G-code
G92 E0 ; Reset Extruder
G28 ; Home all axes
G1 Z2.0 F3000 ; Move Z Axis up little to prevent scratching of Heat Bed
G1 X0.1 Y20 Z0.3 F5000.0 ; Move to start position
G1 X0.1 Y200.0 Z0.3 F1500.0 E15 ; Draw the first line
G1 X0.4 Y200.0 Z0.3 F5000.0 ; Move to side a little
G1 X0.4 Y20 Z0.3 F1500.0 E30 ; Draw the second line
G92 E0 ; Reset Extruder
G1 Z2.0 F3000 ; Move Z Axis up little to prevent scratching of Heat Bed
G1 X5 Y20 Z0.3 F5000.0 ; Move over to prevent blob squish
G92 E0
G92 E0
G1 F1500 E-6.5
;LAYER_COUNT:57
;LAYER:0
M107
;MESH:buttonForCatButton.ipt
G0 F6000 X109.677 Y117.669 Z0.2
;TYPE:WALL-INNER
G1 F1500 E0
G1 F1200 X109.407 Y117.652 E0.009
G1 X109.148 Y117.628 E0.01765
G1 X108.871 Y117.592 E0.02694
G1 X108.607 Y117.548 E0.03584
G1 X108.344 Y117.494 E0.04477
G1 X108.088 Y117.433 E0.05352
G1 X107.819 Y117.359 E0.0628
G1 X107.557 Y117.277 E0.07193
G1 X107.324 Y117.195 E0.08015
G1 X107.06 Y117.09 E0.0896
G1 X106.818 Y116.986 E0.09836
G1 X106.581 Y116.871 E0.10712
G1 X106.333 Y116.743 E0.1164
G1 X106.092 Y116.607 E0.12561
G1 X105.88 Y116.477 E0.13388
G1 X105.65 Y116.324 E0.14307
G1 X105.425 Y116.162 E0.15229
G1 X105.216 Y116.002 E0.16104
G1 X104.999 Y115.823 E0.1704
G1 X104.796 Y115.643 E0.17942
G1 X104.6 Y115.457 E0.18841
G1 X104.429 Y115.28 E0.1966
G1 X104.233 Y115.065 E0.20627
G1 X104.063 Y114.866 E0.21498
G1 X103.891 Y114.648 E0.22421
G1 X103.735 Y114.436 E0.23297
G1 X103.588 Y114.22 E0.24166
G1 X103.441 Y113.986 E0.25085
G1 X103.308 Y113.757 E0.25966
G1 X103.173 Y113.508 E0.26908
G1 X103.054 Y113.267 E0.27802
G1 X102.947 Y113.028 E0.28673
G1 X102.848 Y112.786 E0.29542
G1 X102.751 Y112.521 E0.30481
G1 X102.666 Y112.263 E0.31384
G1 X102.591 Y112.004 E0.32281
G1 X102.526 Y111.754 E0.3314
G1 X102.472 Y111.502 E0.33998
G1 X102.421 Y111.216 E0.34964
G1 X102.385 Y110.962 E0.35817
G1 X102.354 Y110.679 E0.36764
G1 X102.337 Y110.43 E0.37594
G1 X102.325 Y110.147 E0.38536
G1 X102.325 Y109.895 E0.39374
G1 X102.335 Y109.612 E0.40316
G1 X102.353 Y109.347 E0.412
G1 X102.378 Y109.088 E0.42065
G1 X102.415 Y108.822 E0.42958
G1 X102.463 Y108.553 E0.43867
G1 X102.52 Y108.277 E0.44804
G1 X102.585 Y108.017 E0.45696
G1 X102.657 Y107.768 E0.46558
G1 X102.737 Y107.515 E0.4744
G1 X102.836 Y107.242 E0.48406
G1 X102.931 Y107.01 E0.4924
G1 X103.046 Y106.751 E0.50183
G1 X103.159 Y106.518 E0.51044
G1 X103.29 Y106.273 E0.51968
G1 X103.419 Y106.05 E0.52825
G1 X103.563 Y105.817 E0.53736
G1 X103.712 Y105.598 E0.54617
G1 X103.868 Y105.382 E0.55503
G1 X104.035 Y105.169 E0.56403
G1 X104.222 Y104.947 E0.57369
G1 X104.39 Y104.762 E0.582
G1 X104.587 Y104.558 E0.59143
G1 X104.772 Y104.38 E0.59997
G1 X104.969 Y104.203 E0.60878
G1 X105.188 Y104.021 E0.61825
G1 X105.396 Y103.859 E0.62702
G1 X105.621 Y103.696 E0.63626
G1 X105.838 Y103.55 E0.64496
G1 X106.072 Y103.405 E0.65411
G1 X106.299 Y103.275 E0.66282
G1 X106.531 Y103.153 E0.67153
G1 X106.787 Y103.03 E0.68098
G1 X107.034 Y102.921 E0.68996
G1 X107.276 Y102.824 E0.69863
G1 X107.537 Y102.731 E0.70785
G1 X107.79 Y102.65 E0.71668
G1 X108.063 Y102.572 E0.72613
G1 X108.302 Y102.515 E0.7343
G1 X108.586 Y102.455 E0.74395
G1 X108.835 Y102.414 E0.75235
G1 X109.115 Y102.375 E0.76175
G1 X109.367 Y102.351 E0.77017
G1 X109.642 Y102.333 E0.77933
G1 X109.921 Y102.325 E0.78862
G1 X110.175 Y102.327 E0.79707
G1 X110.457 Y102.338 E0.80645
G1 X110.717 Y102.358 E0.81512
G1 X110.983 Y102.388 E0.82403
G1 X111.252 Y102.428 E0.83307
G1 X111.531 Y102.479 E0.84251
G1 X111.788 Y102.536 E0.85126
G1 X112.042 Y102.602 E0.85999
G1 X112.308 Y102.68 E0.86921
G1 X112.557 Y102.763 E0.87794
G1 X112.803 Y102.854 E0.88666
G1 X113.056 Y102.958 E0.89576
G1 X113.315 Y103.076 E0.90523
G1 X113.537 Y103.187 E0.91348
G1 X113.78 Y103.32 E0.9227
G1 X114.02 Y103.461 E0.93196
G1 X114.24 Y103.601 E0.94063
G1 X114.456 Y103.751 E0.94938
G1 X114.678 Y103.915 E0.95856
G1 X114.921 Y104.109 E0.9689
G1 X115.124 Y104.285 E0.97783
G1 X115.297 Y104.444 E0.98565
G1 X115.483 Y104.628 E0.99435
G1 X115.665 Y104.821 E1.00317
G1 X115.847 Y105.027 E1.01232
G1 X116.015 Y105.232 E1.02113
G1 X116.187 Y105.455 E1.0305
G1 X116.334 Y105.664 E1.039
G1 X116.481 Y105.888 E1.04791
G1 X116.632 Y106.136 E1.05757
G1 X116.762 Y106.365 E1.06632
G1 X116.877 Y106.591 E1.07476
G1 X116.998 Y106.848 E1.08421
G1 X117.103 Y107.091 E1.09301
G1 X117.198 Y107.333 E1.10166
G1 X117.287 Y107.589 E1.11067
G1 X117.374 Y107.867 E1.12036
G1 X117.442 Y108.119 E1.12904
G1 X117.502 Y108.377 E1.13785
G1 X117.554 Y108.631 E1.14648
G1 X117.597 Y108.897 E1.15544
G1 X117.632 Y109.178 E1.16486
G1 X117.655 Y109.434 E1.1734
G1 X117.67 Y109.701 E1.1823
G1 X117.675 Y109.971 E1.19128
G1 X117.671 Y110.242 E1.20029
G1 X117.658 Y110.532 E1.20995
G1 X117.636 Y110.779 E1.2182
G1 X117.604 Y111.047 E1.22717
G1 X117.562 Y111.318 E1.2363
G1 X117.509 Y111.589 E1.24548
G1 X117.452 Y111.839 E1.25401
G1 X117.379 Y112.114 E1.26347
G1 X117.306 Y112.356 E1.27188
G1 X117.213 Y112.624 E1.28131
G1 X117.118 Y112.872 E1.29015
G1 X117.011 Y113.128 E1.29938
G1 X116.904 Y113.357 E1.30778
G1 X116.781 Y113.597 E1.31675
G1 X116.646 Y113.84 E1.326
G1 X116.504 Y114.078 E1.33522
G1 X116.366 Y114.289 E1.3436
G1 X116.207 Y114.516 E1.35282
G1 X116.048 Y114.726 E1.36158
G1 X115.869 Y114.947 E1.37104
G1 X115.703 Y115.138 E1.37946
G1 X115.51 Y115.344 E1.38884
G1 X115.322 Y115.531 E1.39766
G1 X115.13 Y115.71 E1.4064
G1 X114.915 Y115.897 E1.41587
G1 X114.719 Y116.055 E1.42425
G1 X114.492 Y116.224 E1.43366
G1 X114.274 Y116.374 E1.44246
G1 X114.04 Y116.526 E1.45174
G1 X113.811 Y116.662 E1.4606
G1 X113.574 Y116.793 E1.46961
G1 X113.347 Y116.907 E1.47805
G1 X113.083 Y117.029 E1.48773
G1 X112.841 Y117.132 E1.49647
G1 X112.602 Y117.221 E1.50496
G1 X112.335 Y117.312 E1.51434
G1 X112.078 Y117.389 E1.52326
G1 X111.817 Y117.458 E1.53224
G1 X111.567 Y117.514 E1.54076
G1 X111.294 Y117.565 E1.55
G1 X111.022 Y117.606 E1.55915
G1 X110.762 Y117.638 E1.56786
G1 X110.497 Y117.659 E1.5767
G1 X110.21 Y117.672 E1.58626
G1 X109.954 Y117.675 E1.59477
G1 X109.677 Y117.669 E1.60399
G0 F6000 X109.668 Y118.069
;TYPE:WALL-OUTER
G1 F1200 X109.378 Y118.051 E1.61365
G1 X109.096 Y118.025 E1.62307
G1 X108.815 Y117.988 E1.6325
G1 X108.542 Y117.943 E1.6417
G1 X108.264 Y117.886 E1.65114
G1 X107.982 Y117.819 E1.66078
G1 X107.713 Y117.745 E1.67006
G1 X107.438 Y117.659 E1.67964
G1 X107.178 Y117.567 E1.68882
G1 X106.913 Y117.462 E1.6983
G1 X106.646 Y117.347 E1.70797
G1 X106.398 Y117.227 E1.71713
G1 X106.14 Y117.094 E1.72678
G1 X105.894 Y116.954 E1.7362
G1 X105.658 Y116.81 E1.74539
G1 X105.416 Y116.649 E1.75506
G1 X105.191 Y116.487 E1.76428
G1 X104.961 Y116.311 E1.77391
G1 X104.743 Y116.13 E1.78334
G1 X104.531 Y115.942 E1.79276
G1 X104.325 Y115.747 E1.8022
G1 X104.133 Y115.549 E1.81137
G1 X103.937 Y115.334 E1.82105
G1 X103.752 Y115.118 E1.83051
G1 X103.577 Y114.896 E1.83991
G1 X103.413 Y114.673 E1.84912
G1 X103.249 Y114.433 E1.85878
G1 X103.102 Y114.199 E1.86797
G1 X102.956 Y113.948 E1.87763
G1 X102.821 Y113.699 E1.88705
G1 X102.695 Y113.444 E1.89651
G1 X102.582 Y113.192 E1.9057
G1 X102.472 Y112.923 E1.91537
G1 X102.375 Y112.658 E1.92475
G1 X102.286 Y112.388 E1.93421
G1 X102.207 Y112.116 E1.94363
G1 X102.136 Y111.841 E1.95307
G1 X102.078 Y111.572 E1.96223
G1 X102.027 Y111.286 E1.97189
G1 X101.987 Y111.006 E1.9813
G1 X101.956 Y110.723 E1.99076
G1 X101.937 Y110.447 E1.99997
G1 X101.925 Y110.164 E2.00939
G1 X101.925 Y109.881 E2.0188
G1 X101.935 Y109.598 E2.02822
G1 X101.955 Y109.308 E2.03789
G1 X101.982 Y109.033 E2.04708
G1 X102.021 Y108.752 E2.05651
G1 X102.071 Y108.472 E2.06597
G1 X102.128 Y108.196 E2.07535
G1 X102.197 Y107.92 E2.08481
G1 X102.276 Y107.647 E2.09426
G1 X102.361 Y107.379 E2.10361
G1 X102.46 Y107.106 E2.11327
G1 X102.565 Y106.848 E2.12254
G1 X102.68 Y106.589 E2.13196
G1 X102.806 Y106.329 E2.14157
G1 X102.937 Y106.084 E2.15081
G1 X103.079 Y105.839 E2.16023
G1 X103.232 Y105.592 E2.16989
G1 X103.388 Y105.363 E2.17911
G1 X103.553 Y105.135 E2.18847
G1 X103.729 Y104.911 E2.19795
G1 X103.916 Y104.689 E2.2076
G1 X104.102 Y104.484 E2.21681
G1 X104.299 Y104.28 E2.22624
G1 X104.504 Y104.083 E2.23569
G1 X104.713 Y103.895 E2.24504
G1 X104.932 Y103.713 E2.25452
G1 X105.161 Y103.535 E2.26416
G1 X105.386 Y103.372 E2.2734
G1 X105.627 Y103.21 E2.28306
G1 X105.861 Y103.065 E2.29222
G1 X106.113 Y102.921 E2.30187
G1 X106.358 Y102.792 E2.31108
G1 X106.614 Y102.669 E2.32053
G1 X106.872 Y102.555 E2.32991
G1 X107.142 Y102.447 E2.33958
G1 X107.403 Y102.354 E2.3488
G1 X107.68 Y102.265 E2.35847
G1 X107.953 Y102.187 E2.36792
G1 X108.221 Y102.123 E2.37708
G1 X108.505 Y102.064 E2.38673
G1 X108.779 Y102.018 E2.39597
G1 X109.064 Y101.978 E2.40554
G1 X109.341 Y101.952 E2.41479
G1 X109.631 Y101.933 E2.42446
G1 X109.913 Y101.925 E2.43384
G1 X110.19 Y101.927 E2.44306
G1 X110.481 Y101.938 E2.45274
G1 X110.756 Y101.96 E2.46192
G1 X111.04 Y101.991 E2.47142
G1 X111.318 Y102.033 E2.48077
G1 X111.603 Y102.085 E2.49041
G1 X111.874 Y102.145 E2.49964
G1 X112.155 Y102.218 E2.5093
G1 X112.421 Y102.296 E2.51852
G1 X112.696 Y102.388 E2.52816
G1 X112.955 Y102.484 E2.53735
G1 X113.217 Y102.592 E2.54677
G1 X113.481 Y102.712 E2.55642
G1 X113.728 Y102.836 E2.56561
G1 X113.983 Y102.975 E2.57527
G1 X114.223 Y103.116 E2.58453
G1 X114.468 Y103.272 E2.59419
G1 X114.694 Y103.429 E2.60334
G1 X114.928 Y103.602 E2.61302
G1 X115.171 Y103.796 E2.62336
G1 X115.386 Y103.982 E2.63282
G1 X115.568 Y104.15 E2.64106
G1 X115.774 Y104.354 E2.6507
G1 X115.964 Y104.556 E2.65992
G1 X116.157 Y104.774 E2.66961
G1 X116.332 Y104.988 E2.6788
G1 X116.504 Y105.211 E2.68817
G1 X116.668 Y105.444 E2.69764
G1 X116.823 Y105.68 E2.70703
G1 X116.974 Y105.928 E2.71669
G1 X117.11 Y106.168 E2.72587
G1 X117.239 Y106.421 E2.73531
G1 X117.36 Y106.678 E2.74476
G1 X117.475 Y106.945 E2.75443
G1 X117.576 Y107.202 E2.76361
G1 X117.669 Y107.47 E2.77305
G1 X117.756 Y107.748 E2.78274
G1 X117.828 Y108.015 E2.79193
G1 X117.894 Y108.297 E2.80157
G1 X117.949 Y108.568 E2.81076
G1 X117.994 Y108.848 E2.8202
G1 X118.029 Y109.129 E2.82962
G1 X118.054 Y109.411 E2.83903
G1 X118.07 Y109.694 E2.84846
G1 X118.075 Y109.977 E2.85787
G1 X118.071 Y110.261 E2.86732
G1 X118.057 Y110.551 E2.87698
G1 X118.033 Y110.827 E2.88619
G1 X117.999 Y111.108 E2.89561
G1 X117.955 Y111.395 E2.90526
G1 X117.902 Y111.666 E2.91445
G1 X117.839 Y111.942 E2.92386
G1 X117.766 Y112.217 E2.93333
G1 X117.684 Y112.487 E2.94271
G1 X117.591 Y112.755 E2.95215
G1 X117.487 Y113.026 E2.9618
G1 X117.38 Y113.282 E2.97103
G1 X117.26 Y113.539 E2.98046
G1 X117.131 Y113.791 E2.98988
G1 X116.99 Y114.045 E2.99954
G1 X116.848 Y114.283 E3.00876
G1 X116.693 Y114.519 E3.01815
G1 X116.526 Y114.757 E3.02782
G1 X116.359 Y114.978 E3.03703
G1 X116.18 Y115.199 E3.04649
G1 X115.995 Y115.412 E3.05588
G1 X115.801 Y115.619 E3.06531
G1 X115.595 Y115.824 E3.07498
G1 X115.392 Y116.013 E3.0842
G1 X115.177 Y116.199 E3.09366
G1 X114.958 Y116.376 E3.10302
G1 X114.731 Y116.545 E3.11244
G1 X114.492 Y116.71 E3.1221
G1 X114.253 Y116.865 E3.13157
G1 X114.016 Y117.006 E3.14074
G1 X113.768 Y117.143 E3.15017
G1 X113.515 Y117.27 E3.15958
G1 X113.251 Y117.392 E3.16926
G1 X112.989 Y117.503 E3.17872
G1 X112.731 Y117.6 E3.18789
G1 X112.464 Y117.691 E3.19727
G1 X112.185 Y117.775 E3.20696
G1 X111.918 Y117.845 E3.21614
G1 X111.641 Y117.907 E3.22558
G1 X111.354 Y117.961 E3.23529
G1 X111.082 Y118.002 E3.24444
G1 X110.794 Y118.037 E3.25409
G1 X110.518 Y118.059 E3.2633
G1 X110.228 Y118.072 E3.27296
G1 X109.949 Y118.075 E3.28224
G1 X109.668 Y118.069 E3.29159
G0 F6000 X109.686 Y117.63
G0 X109.702 Y117.279
;TYPE:SKIN
G1 F1200 X109.401 Y117.261 E3.30161
G1 X109.184 Y117.24 E3.30887
G1 X108.935 Y117.208 E3.31722
G1 X108.685 Y117.166 E3.32565
G1 X108.434 Y117.114 E3.33417
G1 X108.178 Y117.053 E3.34293
G1 X107.928 Y116.984 E3.35155
G1 X107.674 Y116.905 E3.3604
G1 X107.46 Y116.829 E3.36795
G1 X107.204 Y116.727 E3.37712
G1 X106.972 Y116.627 E3.38552
G1 X106.756 Y116.522 E3.39351
G1 X106.518 Y116.399 E3.40242
G1 X106.289 Y116.27 E3.41116
G1 X106.091 Y116.148 E3.4189
G1 X105.866 Y115.999 E3.42787
G1 X105.658 Y115.849 E3.4364
G1 X105.442 Y115.683 E3.44546
G1 X105.253 Y115.527 E3.45361
G1 X105.06 Y115.355 E3.46221
G1 X104.869 Y115.174 E3.47096
G1 X104.71 Y115.009 E3.47858
G1 X104.522 Y114.802 E3.48789
G1 X104.359 Y114.612 E3.49621
G1 X104.197 Y114.406 E3.50493
G1 X104.053 Y114.21 E3.51302
G1 X103.91 Y114 E3.52147
G1 X103.775 Y113.785 E3.52991
G1 X103.645 Y113.562 E3.5385
G1 X103.52 Y113.329 E3.54729
G1 X103.407 Y113.101 E3.55575
G1 X103.306 Y112.874 E3.56402
G1 X103.209 Y112.638 E3.5725
G1 X103.117 Y112.387 E3.5814
G1 X103.036 Y112.141 E3.59001
G1 X102.965 Y111.895 E3.59853
G1 X102.854 Y111.42 E3.61475
G1 X102.805 Y111.147 E3.62398
G1 X102.771 Y110.907 E3.63204
G1 X102.743 Y110.644 E3.64083
G1 X102.727 Y110.403 E3.64887
G1 X102.715 Y110.147 E3.65739
G1 X102.715 Y109.909 E3.66531
G1 X102.725 Y109.639 E3.67429
G1 X102.745 Y109.344 E3.68413
G1 X102.764 Y109.142 E3.69088
G1 X102.799 Y108.89 E3.69934
G1 X102.845 Y108.631 E3.70809
G1 X102.898 Y108.372 E3.71688
G1 X102.959 Y108.126 E3.72531
G1 X103.029 Y107.885 E3.73366
G1 X103.104 Y107.648 E3.74193
G1 X103.197 Y107.39 E3.75105
G1 X103.288 Y107.168 E3.75903
G1 X103.397 Y106.921 E3.76801
G1 X103.507 Y106.695 E3.77637
G1 X103.63 Y106.463 E3.7851
G1 X103.751 Y106.255 E3.7931
G1 X103.89 Y106.03 E3.8019
G1 X104.028 Y105.826 E3.81009
G1 X104.184 Y105.61 E3.81895
G1 X104.333 Y105.42 E3.82698
G1 X104.516 Y105.204 E3.8364
G1 X104.671 Y105.033 E3.84408
G1 X104.858 Y104.839 E3.85304
G1 X105.219 Y104.503 E3.86944
G1 X105.428 Y104.329 E3.87849
G1 X105.636 Y104.167 E3.88726
G1 X105.839 Y104.02 E3.89559
G1 X106.056 Y103.873 E3.90431
G1 X106.265 Y103.744 E3.91248
G1 X106.487 Y103.617 E3.92098
G1 X106.707 Y103.501 E3.92926
G1 X106.945 Y103.387 E3.93803
G1 X107.185 Y103.281 E3.94676
G1 X107.414 Y103.189 E3.95497
G1 X107.656 Y103.102 E3.96352
G1 X107.897 Y103.025 E3.97194
G1 X108.161 Y102.95 E3.98106
G1 X108.392 Y102.895 E3.98896
G1 X108.666 Y102.837 E3.99828
G1 X108.889 Y102.8 E4.0058
G1 X109.162 Y102.762 E4.01496
G1 X109.392 Y102.741 E4.02265
G1 X109.667 Y102.723 E4.03181
G1 X109.929 Y102.715 E4.04053
G1 X110.16 Y102.717 E4.04821
G1 X110.442 Y102.728 E4.0576
G1 X110.635 Y102.742 E4.06404
G1 X110.94 Y102.776 E4.07424
G1 X111.185 Y102.813 E4.08248
G1 X111.455 Y102.862 E4.09161
G1 X111.674 Y102.91 E4.09907
G1 X111.944 Y102.98 E4.10835
G1 X112.185 Y103.05 E4.11669
G1 X112.422 Y103.129 E4.125
G1 X112.662 Y103.218 E4.13351
G1 X112.894 Y103.313 E4.14185
G1 X113.153 Y103.431 E4.15132
G1 X113.357 Y103.533 E4.15891
G1 X113.582 Y103.656 E4.16743
G1 X113.816 Y103.793 E4.17645
G1 X114.224 Y104.065 E4.19276
G1 X114.441 Y104.225 E4.20173
G1 X114.666 Y104.404 E4.21129
G1 X114.864 Y104.576 E4.22002
G1 X115.022 Y104.721 E4.22715
G1 X115.203 Y104.9 E4.23561
G1 X115.377 Y105.084 E4.24404
G1 X115.545 Y105.274 E4.25247
G1 X115.718 Y105.486 E4.26157
G1 X115.873 Y105.686 E4.26999
G1 X116.148 Y106.091 E4.28627
G1 X116.293 Y106.329 E4.29554
G1 X116.423 Y106.558 E4.3043
G1 X116.524 Y106.757 E4.31172
G1 X116.642 Y107.008 E4.32095
G1 X116.742 Y107.239 E4.32932
G1 X116.832 Y107.468 E4.3375
G1 X116.915 Y107.706 E4.34589
G1 X117 Y107.977 E4.35533
G1 X117.062 Y108.207 E4.36326
G1 X117.12 Y108.455 E4.37173
G1 X117.17 Y108.702 E4.38011
G1 X117.21 Y108.945 E4.3883
G1 X117.245 Y109.219 E4.39749
G1 X117.265 Y109.456 E4.4054
G1 X117.28 Y109.709 E4.41383
G1 X117.285 Y109.965 E4.42234
G1 X117.281 Y110.224 E4.43096
G1 X117.268 Y110.514 E4.44061
G1 X117.253 Y110.687 E4.44639
G1 X117.218 Y110.987 E4.45644
G1 X117.171 Y111.292 E4.4667
G1 X117.076 Y111.739 E4.4819
G1 X117.006 Y112.001 E4.49092
G1 X116.936 Y112.235 E4.49904
G1 X116.849 Y112.484 E4.50781
G1 X116.758 Y112.722 E4.51629
G1 X116.654 Y112.971 E4.52526
G1 X116.557 Y113.179 E4.5329
G1 X116.44 Y113.408 E4.54145
G1 X116.311 Y113.641 E4.55031
G1 X116.173 Y113.872 E4.55926
G1 X116.061 Y114.044 E4.56609
G1 X115.891 Y114.287 E4.57595
