;FLAVOR:Marlin
;TIME:22932
;Filament used: 20.0082m
;Layer height: 0.2
;MINX:46
;MINY:10.1
;MINZ:0.2
;MAXX:174
;MAXY:209.9
;MAXZ:6.2
;Generated with Cura_SteamEngine 4.8.0
M140 S60
M105
M190 S60
M104 S215
M105
M109 S215
M82 ;absolute extrusion mode
; Ender 3 Custom Start G-code
G92 E0 ; Reset Extruder
G28 ; Home all axes
G1 Z2.0 F3000 ; Move Z Axis up little to prevent scratching of Heat Bed
G1 X0.1 Y20 Z0.3 F5000.0 ; Move to start position
G1 X0.1 Y200.0 Z0.3 F1500.0 E15 ; Draw the first line
G1 X0.4 Y200.0 Z0.3 F5000.0 ; Move to side a little
G1 X0.4 Y20 Z0.3 F1500.0 E30 ; Draw the second line
G92 E0 ; Reset Extruder
G1 Z2.0 F3000 ; Move Z Axis up little to prevent scratching of Heat Bed
G1 X5 Y20 Z0.3 F5000.0 ; Move over to prevent blob squish
G92 E0
G92 E0
G1 F1500 E-6.5
;LAYER_COUNT:31
;LAYER:0
M107
G0 F6000 X46.707 Y18.563 Z0.2
;TYPE:SKIRT
G1 F1500 E0
G1 F1200 X47.126 Y17.523 E0.03729
G1 X47.233 Y17.292 E0.04576
G1 X47.663 Y16.458 E0.07697
G1 X48.119 Y15.727 E0.10562
G1 X48.268 Y15.508 E0.11443
G1 X48.828 Y14.756 E0.14562
G1 X49.486 Y14.018 E0.1785
G1 X49.679 Y13.82 E0.1877
G1 X50.362 Y13.177 E0.2189
G1 X51.148 Y12.557 E0.2522
G1 X51.388 Y12.385 E0.26202
G1 X52.173 Y11.872 E0.29321
G1 X53.059 Y11.398 E0.32663
G1 X53.3 Y11.283 E0.33551
G1 X54.163 Y10.916 E0.3667
G1 X55.068 Y10.619 E0.39838
G1 X55.332 Y10.545 E0.4075
G1 X56.245 Y10.331 E0.43869
G1 X57.188 Y10.193 E0.47039
G1 X57.424 Y10.169 E0.47828
G1 X58.367 Y10.114 E0.5097
G1 X59.377 Y10.1 E0.54329
G1 X160.709 Y10.1 E3.91361
G1 X161.495 Y10.11 E3.93975
G1 X162.153 Y10.139 E3.96166
G1 X162.476 Y10.163 E3.97243
G1 X163.408 Y10.273 E4.00365
G1 X164.355 Y10.468 E4.0358
G1 X164.648 Y10.542 E4.04585
G1 X165.546 Y10.81 E4.07702
G1 X166.613 Y11.242 E4.11531
G1 X166.844 Y11.35 E4.12379
G1 X167.676 Y11.783 E4.15499
G1 X168.344 Y12.201 E4.1812
G1 X168.563 Y12.349 E4.18999
G1 X169.317 Y12.907 E4.22119
G1 X170.082 Y13.586 E4.25521
G1 X170.28 Y13.779 E4.2644
G1 X170.923 Y14.462 E4.2956
G1 X171.543 Y15.248 E4.3289
G1 X171.715 Y15.488 E4.33872
G1 X172.228 Y16.273 E4.36991
G1 X172.702 Y17.159 E4.40333
G1 X172.817 Y17.4 E4.41221
G1 X173.184 Y18.263 E4.4434
G1 X173.485 Y19.183 E4.4756
G1 X173.56 Y19.452 E4.48489
G1 X173.773 Y20.365 E4.51607
G1 X173.914 Y21.363 E4.54959
G1 X173.936 Y21.594 E4.55731
G1 X173.984 Y22.452 E4.58589
G1 X174 Y23.468 E4.61969
G1 X173.999 Y196.769 E10.3837
G1 X173.99 Y197.391 E10.40439
G1 X173.963 Y198.023 E10.42543
G1 X173.939 Y198.356 E10.43654
G1 X173.831 Y199.287 E10.46771
G1 X173.621 Y200.302 E10.50218
G1 X173.547 Y200.59 E10.51207
G1 X173.275 Y201.488 E10.54328
G1 X172.865 Y202.495 E10.57945
G1 X172.757 Y202.727 E10.58796
G1 X172.326 Y203.56 E10.61915
G1 X171.899 Y204.244 E10.64597
G1 X171.751 Y204.463 E10.65476
G1 X171.193 Y205.217 E10.68596
G1 X170.514 Y205.982 E10.71998
G1 X170.321 Y206.18 E10.72918
G1 X169.638 Y206.823 E10.76038
G1 X168.852 Y207.443 E10.79367
G1 X168.612 Y207.615 E10.80349
G1 X167.827 Y208.128 E10.83468
G1 X166.925 Y208.609 E10.86868
G1 X166.683 Y208.724 E10.8776
G1 X165.82 Y209.09 E10.90877
G1 X164.941 Y209.378 E10.93954
G1 X164.678 Y209.452 E10.94863
G1 X163.766 Y209.667 E10.97979
G1 X162.812 Y209.807 E11.01186
G1 X162.576 Y209.831 E11.01975
G1 X161.633 Y209.886 E11.05117
G1 X160.623 Y209.9 E11.08476
G1 X59.134 Y209.899 E14.4603
G1 X58.505 Y209.89 E14.48122
G1 X57.847 Y209.861 E14.50313
G1 X57.524 Y209.837 E14.5139
G1 X56.592 Y209.727 E14.54512
G1 X55.645 Y209.532 E14.57728
G1 X55.352 Y209.458 E14.58733
G1 X54.454 Y209.19 E14.6185
G1 X53.387 Y208.758 E14.65678
G1 X53.156 Y208.65 E14.66526
G1 X52.324 Y208.217 E14.69646
G1 X51.656 Y207.799 E14.72267
G1 X51.437 Y207.651 E14.73146
G1 X50.683 Y207.093 E14.76266
G1 X49.918 Y206.414 E14.79668
G1 X49.72 Y206.221 E14.80588
G1 X49.077 Y205.538 E14.83708
G1 X48.444 Y204.734 E14.87111
G1 X48.272 Y204.493 E14.88096
G1 X47.761 Y203.707 E14.91214
G1 X47.306 Y202.856 E14.94424
G1 X47.191 Y202.616 E14.95309
G1 X46.822 Y201.754 E14.98427
G1 X46.515 Y200.817 E15.01707
G1 X46.44 Y200.548 E15.02636
G1 X46.227 Y199.635 E15.05754
G1 X46.086 Y198.637 E15.09106
G1 X46.064 Y198.406 E15.09878
G1 X46.015 Y197.536 E15.12776
G1 X46.001 Y196.648 E15.1573
G1 X46 Y23.394 E20.91975
G1 X46.01 Y22.591 E20.94646
G1 X46.039 Y21.925 E20.96863
G1 X46.061 Y21.63 E20.97847
G1 X46.171 Y20.698 E21.00969
G1 X46.364 Y19.763 E21.04144
G1 X46.44 Y19.461 E21.0518
G1 X46.707 Y18.563 E21.08296
G0 F6000 X47.091 Y18.677
G1 F1200 X47.489 Y17.691 E21.11832
G1 X47.596 Y17.46 E21.12679
G1 X48.019 Y16.642 E21.15742
G1 X48.45 Y15.952 E21.18448
G1 X48.599 Y15.733 E21.19329
G1 X49.15 Y14.995 E21.22392
G1 X49.772 Y14.297 E21.25502
G1 X49.965 Y14.099 E21.26421
G1 X50.636 Y13.468 E21.29485
G1 X51.381 Y12.882 E21.32638
G1 X51.621 Y12.71 E21.3362
G1 X52.392 Y12.207 E21.36681
G1 X53.231 Y11.759 E21.39845
G1 X53.472 Y11.644 E21.40733
G1 X54.319 Y11.284 E21.43794
G1 X55.176 Y11.004 E21.46793
G1 X55.44 Y10.93 E21.47705
G1 X56.336 Y10.721 E21.50765
G1 X57.229 Y10.591 E21.53766
G1 X57.465 Y10.567 E21.54555
G1 X58.373 Y10.514 E21.5758
G1 X59.377 Y10.5 E21.6092
G1 X160.709 Y10.5 E24.97952
G1 X161.49 Y10.51 E25.00549
G1 X162.123 Y10.538 E25.02657
G1 X162.446 Y10.562 E25.03734
G1 X163.361 Y10.67 E25.06799
G1 X164.257 Y10.856 E25.09842
G1 X164.55 Y10.93 E25.10847
G1 X165.432 Y11.194 E25.13909
G1 X166.443 Y11.605 E25.17539
G1 X166.674 Y11.713 E25.18387
G1 X167.491 Y12.138 E25.2145
G1 X168.12 Y12.532 E25.23919
G1 X168.339 Y12.68 E25.24798
G1 X169.079 Y13.229 E25.27863
G1 X169.803 Y13.872 E25.31083
G1 X170.001 Y14.065 E25.32003
G1 X170.632 Y14.736 E25.35067
G1 X171.218 Y15.481 E25.38219
G1 X171.39 Y15.721 E25.39201
G1 X171.893 Y16.492 E25.42263
G1 X172.341 Y17.331 E25.45427
G1 X172.456 Y17.572 E25.46315
G1 X172.816 Y18.419 E25.49376
G1 X173.1 Y19.29 E25.52423
G1 X173.175 Y19.559 E25.53352
G1 X173.383 Y20.456 E25.56414
G1 X173.516 Y21.401 E25.59588
G1 X173.538 Y21.632 E25.6036
G1 X173.584 Y22.458 E25.63112
G1 X173.6 Y23.468 E25.66471
G1 X173.599 Y196.763 E31.42853
G1 X173.59 Y197.385 E31.44922
G1 X173.564 Y197.994 E31.46949
G1 X173.54 Y198.327 E31.4806
G1 X173.434 Y199.242 E31.51123
G1 X173.234 Y200.203 E31.54388
G1 X173.16 Y200.491 E31.55377
G1 X172.892 Y201.372 E31.5844
G1 X172.503 Y202.327 E31.6187
G1 X172.395 Y202.559 E31.62721
G1 X171.97 Y203.375 E31.65781
G1 X171.568 Y204.02 E31.68309
G1 X171.42 Y204.239 E31.69188
G1 X170.871 Y204.979 E31.72252
G1 X170.228 Y205.703 E31.75473
G1 X170.035 Y205.901 E31.76393
G1 X169.364 Y206.532 E31.79456
G1 X168.619 Y207.118 E31.82609
G1 X168.379 Y207.29 E31.83591
G1 X167.608 Y207.793 E31.86653
G1 X166.754 Y208.248 E31.89871
G1 X166.512 Y208.363 E31.90762
G1 X165.664 Y208.722 E31.93825
G1 X164.833 Y208.993 E31.96732
G1 X164.57 Y209.067 E31.97641
G1 X163.674 Y209.277 E32.00702
G1 X162.771 Y209.409 E32.03737
G1 X162.535 Y209.433 E32.04526
G1 X161.627 Y209.486 E32.07551
G1 X160.623 Y209.5 E32.10891
G1 X59.139 Y209.499 E35.48428
G1 X58.51 Y209.49 E35.5052
G1 X57.877 Y209.462 E35.52628
G1 X57.554 Y209.438 E35.53705
G1 X56.639 Y209.33 E35.56769
G1 X55.743 Y209.144 E35.59813
G1 X55.45 Y209.07 E35.60818
G1 X54.568 Y208.806 E35.6388
G1 X53.557 Y208.395 E35.6751
G1 X53.326 Y208.287 E35.68358
G1 X52.509 Y207.862 E35.71421
G1 X51.88 Y207.468 E35.7389
G1 X51.661 Y207.32 E35.74769
G1 X50.921 Y206.771 E35.77834
G1 X50.197 Y206.128 E35.81054
G1 X49.999 Y205.935 E35.81974
G1 X49.368 Y205.264 E35.85037
G1 X48.77 Y204.502 E35.88259
G1 X48.598 Y204.261 E35.89244
G1 X48.096 Y203.489 E35.92307
G1 X47.667 Y202.683 E35.95344
G1 X47.552 Y202.443 E35.96229
G1 X47.19 Y201.597 E35.99289
G1 X46.9 Y200.71 E36.02393
G1 X46.825 Y200.441 E36.03322
G1 X46.617 Y199.544 E36.06385
G1 X46.484 Y198.599 E36.09559
G1 X46.462 Y198.368 E36.1033
G1 X46.415 Y197.53 E36.13122
G1 X46.4 Y196.475 E36.16631
G1 X46.401 Y23.247 E41.9279
G1 X46.41 Y22.596 E41.94955
G1 X46.438 Y21.955 E41.97089
G1 X46.46 Y21.66 E41.98073
G1 X46.569 Y20.745 E42.01138
G1 X46.752 Y19.861 E42.04141
G1 X46.828 Y19.559 E42.05176
G1 X47.091 Y18.677 E42.08238
G0 F6000 X47.474 Y18.792
G1 F1200 X47.852 Y17.859 E42.11586
G1 X47.959 Y17.628 E42.12433
G1 X48.374 Y16.826 E42.15436
G1 X48.781 Y16.177 E42.17984
G1 X48.93 Y15.958 E42.18865
G1 X49.47 Y15.235 E42.21866
G1 X50.059 Y14.576 E42.24806
G1 X50.252 Y14.378 E42.25726
G1 X50.91 Y13.76 E42.28728
G1 X51.614 Y13.207 E42.31706
G1 X51.854 Y13.035 E42.32688
G1 X52.611 Y12.542 E42.35692
G1 X53.403 Y12.12 E42.38677
G1 X53.644 Y12.005 E42.39565
G1 X54.476 Y11.653 E42.4257
G1 X55.284 Y11.39 E42.45396
G1 X55.548 Y11.316 E42.46308
G1 X56.428 Y11.111 E42.49313
G1 X57.269 Y10.989 E42.5214
G1 X57.505 Y10.965 E42.52929
G1 X58.379 Y10.914 E42.55841
G1 X59.377 Y10.9 E42.5916
G1 X160.709 Y10.9 E45.96192
G1 X161.484 Y10.91 E45.9877
G1 X162.094 Y10.937 E46.00801
G1 X162.417 Y10.961 E46.01878
G1 X163.314 Y11.068 E46.04883
G1 X164.159 Y11.244 E46.07753
G1 X164.452 Y11.318 E46.08759
G1 X165.317 Y11.577 E46.11762
G1 X166.274 Y11.967 E46.15199
G1 X166.505 Y12.075 E46.16047
G1 X167.305 Y12.493 E46.19049
G1 X167.896 Y12.864 E46.2137
G1 X168.115 Y13.012 E46.22249
G1 X168.84 Y13.55 E46.25252
G1 X169.524 Y14.159 E46.28298
G1 X169.722 Y14.352 E46.29218
G1 X170.34 Y15.01 E46.3222
G1 X170.893 Y15.714 E46.35198
G1 X171.065 Y15.954 E46.3618
G1 X171.558 Y16.711 E46.39184
G1 X171.98 Y17.503 E46.42169
G1 X172.095 Y17.744 E46.43057
G1 X172.447 Y18.576 E46.46062
G1 X172.714 Y19.398 E46.48937
G1 X172.789 Y19.667 E46.49865
G1 X172.993 Y20.546 E46.52867
G1 X173.118 Y21.439 E46.55866
G1 X173.14 Y21.67 E46.56638
G1 X173.185 Y22.465 E46.59286
G1 X173.199 Y23.296 E46.6205
G1 X173.2 Y196.61 E52.38495
G1 X173.19 Y197.38 E52.41056
G1 X173.165 Y197.965 E52.43004
G1 X173.141 Y198.298 E52.44114
G1 X173.036 Y199.195 E52.47118
G1 X172.846 Y200.103 E52.50203
G1 X172.772 Y200.391 E52.51192
G1 X172.509 Y201.255 E52.54196
G1 X172.14 Y202.158 E52.57441
G1 X172.032 Y202.39 E52.58292
G1 X171.615 Y203.191 E52.61295
G1 X171.236 Y203.796 E52.6367
G1 X171.088 Y204.015 E52.64549
G1 X170.55 Y204.74 E52.67552
G1 X169.941 Y205.424 E52.70598
G1 X169.748 Y205.622 E52.71517
G1 X169.09 Y206.24 E52.7452
G1 X168.386 Y206.793 E52.77497
G1 X168.146 Y206.965 E52.78479
G1 X167.389 Y207.458 E52.81484
G1 X166.582 Y207.887 E52.84524
G1 X166.34 Y208.002 E52.85415
G1 X165.508 Y208.353 E52.88418
G1 X164.725 Y208.608 E52.91157
G1 X164.462 Y208.682 E52.92066
G1 X163.582 Y208.888 E52.95072
G1 X162.731 Y209.011 E52.97932
G1 X162.495 Y209.035 E52.98721
G1 X161.621 Y209.086 E53.01633
G1 X160.623 Y209.1 E53.04953
G1 X59.145 Y209.099 E56.4247
G1 X58.516 Y209.09 E56.44562
G1 X57.906 Y209.063 E56.46593
G1 X57.583 Y209.039 E56.4767
G1 X56.686 Y208.932 E56.50675
G1 X55.841 Y208.756 E56.53545
G1 X55.548 Y208.682 E56.54551
G1 X54.683 Y208.423 E56.57554
G1 X53.726 Y208.033 E56.60991
G1 X53.495 Y207.925 E56.61839
G1 X52.695 Y207.507 E56.64841
G1 X52.104 Y207.136 E56.67162
G1 X51.885 Y206.988 E56.68041
G1 X51.16 Y206.45 E56.71044
G1 X50.476 Y205.841 E56.7409
G1 X50.278 Y205.648 E56.7501
G1 X49.66 Y204.99 E56.78012
G1 X49.096 Y204.269 E56.81057
G1 X48.924 Y204.028 E56.82042
G1 X48.432 Y203.271 E56.85044
G1 X48.027 Y202.511 E56.87909
G1 X47.912 Y202.271 E56.88794
G1 X47.559 Y201.44 E56.91797
G1 X47.286 Y200.602 E56.94728
G1 X47.211 Y200.333 E56.95657
G1 X47.007 Y199.454 E56.98658
G1 X46.882 Y198.561 E57.01657
G1 X46.86 Y198.33 E57.02429
G1 X46.815 Y197.524 E57.05114
G1 X46.8 Y196.475 E57.08603
G1 X46.801 Y23.253 E62.84742
G1 X46.81 Y22.602 E62.86908
G1 X46.837 Y21.984 E62.88965
G1 X46.859 Y21.689 E62.89949
G1 X46.966 Y20.793 E62.9295
G1 X47.139 Y19.959 E62.95783
G1 X47.215 Y19.657 E62.96819
G1 X47.474 Y18.792 E62.99822
G1 F1500 E56.49822
;MESH:properySideGateGasket.ipt
G0 F6000 X72.807 Y69.329
G0 X72.479 Y69.312
G0 X79.774 Y83.23
G0 X134.392 Y192.178
G0 X133.004 Y191.673
G0 X133.521 Y193.641
;TYPE:WALL-INNER
G1 F1500 E62.99822
G1 F1200 X134.035 Y194.072 E63.02053
G1 X134.666 Y194.301 E63.04286
G1 X135.334 Y194.301 E63.06508
G1 X135.965 Y194.072 E63.0874
G1 X136.479 Y193.641 E63.10971
G1 X136.814 Y193.06 E63.13202
G1 X136.93 Y192.4 E63.15431
G1 X136.814 Y191.74 E63.17659
G1 X136.479 Y191.159 E63.1989
G1 X135.965 Y190.728 E63.22121
G1 X135.334 Y190.499 E63.24354
G1 X134.666 Y190.499 E63.26576
G1 X134.035 Y190.728 E63.28808
G1 X133.521 Y191.159 E63.31039
G1 X133.186 Y191.74 E63.3327
G1 X133.07 Y192.4 E63.35499
G1 X133.186 Y193.06 E63.37728
G1 X133.521 Y193.641 E63.39958
G0 F6000 X133.832 Y193.38
;TYPE:WALL-OUTER
G1 F1200 X134.238 Y193.72 E63.4172
G1 X134.736 Y193.901 E63.43482
G1 X135.264 Y193.901 E63.45238
G1 X135.762 Y193.72 E63.47
G1 X136.168 Y193.38 E63.48762
G1 X136.432 Y192.921 E63.50523
G1 X136.524 Y192.4 E63.52283
G1 X136.432 Y191.879 E63.54042
G1 X136.168 Y191.42 E63.55803
G1 X135.762 Y191.08 E63.57565
G1 X135.264 Y190.899 E63.59327
G1 X134.736 Y190.899 E63.61083
G1 X134.238 Y191.08 E63.62846
G1 X133.832 Y191.42 E63.64607
G1 X133.568 Y191.879 E63.66368
G1 X133.476 Y192.4 E63.68128
G1 X133.568 Y192.921 E63.69887
G1 X133.832 Y193.38 E63.71648
G0 F6000 X133.495 Y193.662
G1 F1500 E57.21648
G0 F6000 X133.233 Y192.4
G0 X133.34 Y191.797
G0 X133.646 Y191.264
G0 X134.027 Y190.946
G0 X135.368 Y190.308
G0 X135.113 Y191.763
G0 X147.126 Y150.582
G0 X146.644 Y151.96
G0 X146.163 Y151.541
;TYPE:WALL-INNER
G1 F1500 E63.71648
G1 F1200 X146.708 Y151.779 E63.73626
G1 X147.282 Y151.933 E63.75603
G1 X147.874 Y151.999 E63.77584
G1 X148.469 Y151.977 E63.79565
G1 X149.053 Y151.867 E63.81541
G1 X149.613 Y151.671 E63.83515
G1 X150.14 Y151.393 E63.85496
G1 X150.619 Y151.039 E63.87477
G1 X151.039 Y150.619 E63.89453
G1 X151.393 Y150.14 E63.91434
G1 X151.671 Y149.613 E63.93416
G1 X151.867 Y149.053 E63.95389
G1 X151.977 Y148.469 E63.97366
G1 X151.999 Y147.874 E63.99346
G1 X151.933 Y147.282 E64.01327
G1 X151.779 Y146.708 E64.03304
G1 X151.541 Y146.163 E64.05282
G1 X151.224 Y145.659 E64.07262
G1 X150.851 Y145.226 E64.09163
G1 X142.12 Y136.496 E64.50228
G1 X141.693 Y136.127 E64.52105
G1 X141.189 Y135.811 E64.54084
G1 X140.644 Y135.573 E64.56062
G1 X140.07 Y135.419 E64.58039
G1 X139.478 Y135.353 E64.6002
G1 X138.885 Y135.375 E64.61994
G1 X138.299 Y135.484 E64.63976
G1 X137.739 Y135.681 E64.6595
G1 X137.212 Y135.959 E64.67932
G1 X136.733 Y136.313 E64.69913
G1 X136.313 Y136.733 E64.71889
G1 X135.959 Y137.212 E64.7387
G1 X135.681 Y137.739 E64.75852
G1 X135.484 Y138.299 E64.77826
G1 X135.375 Y138.885 E64.79808
G1 X135.353 Y139.478 E64.81782
G1 X135.419 Y140.07 E64.83763
G1 X135.573 Y140.644 E64.8574
G1 X135.811 Y141.189 E64.87718
G1 X136.127 Y141.693 E64.89697
G1 X136.501 Y142.126 E64.916
G1 X145.232 Y150.856 E65.32665
G1 X145.659 Y151.224 E65.3454
G1 X146.163 Y151.541 E65.3652
G0 F6000 X146.35 Y151.186
;TYPE:WALL-OUTER
G1 F1200 X146.841 Y151.4 E65.38302
G1 X147.357 Y151.539 E65.40079
G1 X147.889 Y151.598 E65.41859
G1 X148.424 Y151.578 E65.4364
G1 X148.949 Y151.479 E65.45417
G1 X149.453 Y151.303 E65.47193
G1 X149.927 Y151.053 E65.48975
G1 X150.357 Y150.735 E65.50754
G1 X150.735 Y150.357 E65.52532
G1 X151.053 Y149.927 E65.54311
G1 X151.303 Y149.453 E65.56093
G1 X151.479 Y148.949 E65.57868
G1 X151.578 Y148.424 E65.59645
G1 X151.598 Y147.889 E65.61426
G1 X151.539 Y147.357 E65.63206
G1 X151.4 Y146.841 E65.64984
G1 X151.186 Y146.35 E65.66765
G1 X150.901 Y145.897 E65.68545
G1 X150.558 Y145.498 E65.70295
G1 X141.848 Y136.789 E66.11262
G1 X141.455 Y136.45 E66.12988
G1 X141.002 Y136.166 E66.14767
G1 X140.511 Y135.952 E66.16548
G1 X139.995 Y135.813 E66.18326
G1 X139.463 Y135.754 E66.20106
G1 X138.929 Y135.774 E66.21883
G1 X138.403 Y135.872 E66.23663
G1 X137.899 Y136.049 E66.25439
G1 X137.425 Y136.299 E66.27222
G1 X136.995 Y136.617 E66.29001
G1 X136.617 Y136.995 E66.30779
G1 X136.299 Y137.425 E66.32557
G1 X136.049 Y137.899 E66.3434
G1 X135.872 Y138.403 E66.36116
G1 X135.774 Y138.929 E66.37896
G1 X135.754 Y139.463 E66.39673
G1 X135.813 Y139.995 E66.41454
G1 X135.952 Y140.511 E66.43231
G1 X136.166 Y141.002 E66.45012
G1 X136.45 Y141.455 E66.46791
G1 X136.794 Y141.854 E66.48543
G1 X145.504 Y150.563 E66.8951
G1 X145.897 Y150.901 E66.91234
G1 X146.35 Y151.186 E66.93014
G0 F6000 X146.145 Y151.575
G1 F1500 E60.43014
G0 F6000 X147.881 Y151.837
G0 X148.45 Y151.816
