;FLAVOR:Marlin
;TIME:865
;Filament used: 0.437791m
;Layer height: 0.2
;MINX:101.627
;MINY:101.629
;MINZ:0.2
;MAXX:118.373
;MAXY:118.371
;MAXZ:11.4
;Generated with Cura_SteamEngine 4.8.0
M140 S60
M105
M190 S60
M104 S215
M105
M109 S215
M82 ;absolute extrusion mode
; Ender 3 Custom Start G-code
G92 E0 ; Reset Extruder
G28 ; Home all axes
G1 Z2.0 F3000 ; Move Z Axis up little to prevent scratching of Heat Bed
G1 X0.1 Y20 Z0.3 F5000.0 ; Move to start position
G1 X0.1 Y200.0 Z0.3 F1500.0 E15 ; Draw the first line
G1 X0.4 Y200.0 Z0.3 F5000.0 ; Move to side a little
G1 X0.4 Y20 Z0.3 F1500.0 E30 ; Draw the second line
G92 E0 ; Reset Extruder
G1 Z2.0 F3000 ; Move Z Axis up little to prevent scratching of Heat Bed
G1 X5 Y20 Z0.3 F5000.0 ; Move over to prevent blob squish
G92 E0
G92 E0
G1 F1500 E-6.5
;LAYER_COUNT:57
;LAYER:0
M107
;MESH:buttonForCatButton.ipt
G0 F6000 X110.12 Y117.359 Z0.2
;TYPE:WALL-INNER
G1 F1500 E0
G1 F1200 X109.88 Y117.359 E0.00798
G1 X109.599 Y117.349 E0.01733
G1 X109.358 Y117.332 E0.02537
G1 X109.088 Y117.304 E0.0344
G1 X108.841 Y117.268 E0.0427
G1 X108.575 Y117.221 E0.05168
G1 X108.329 Y117.168 E0.06005
G1 X108.063 Y117.101 E0.06918
G1 X107.823 Y117.031 E0.07749
G1 X107.585 Y116.953 E0.08582
G1 X107.336 Y116.861 E0.09465
G1 X107.089 Y116.761 E0.10352
G1 X106.859 Y116.657 E0.11191
G1 X106.631 Y116.545 E0.12036
G1 X106.385 Y116.412 E0.12966
G1 X106.179 Y116.291 E0.13761
G1 X105.942 Y116.141 E0.14694
G1 X105.744 Y116.006 E0.15491
G1 X105.537 Y115.853 E0.16347
G1 X105.326 Y115.685 E0.17244
G1 X105.13 Y115.519 E0.18098
G1 X104.933 Y115.338 E0.18988
G1 X104.741 Y115.15 E0.19882
G1 X104.569 Y114.968 E0.20715
G1 X104.401 Y114.778 E0.21558
G1 X104.237 Y114.578 E0.22418
G1 X104.07 Y114.36 E0.23332
G1 X103.919 Y114.148 E0.24197
G1 X103.778 Y113.932 E0.25055
G1 X103.646 Y113.715 E0.259
G1 X103.516 Y113.483 E0.26785
G1 X103.396 Y113.25 E0.27656
G1 X103.292 Y113.029 E0.28469
G1 X103.183 Y112.777 E0.29382
G1 X103.088 Y112.534 E0.3025
G1 X103.009 Y112.303 E0.31062
G1 X102.927 Y112.039 E0.31981
G1 X102.862 Y111.799 E0.32808
G1 X102.803 Y111.54 E0.33692
G1 X102.756 Y111.303 E0.34495
G1 X102.711 Y111.026 E0.35429
G1 X102.681 Y110.784 E0.3624
G1 X102.658 Y110.518 E0.37128
G1 X102.645 Y110.262 E0.3798
G1 X102.64 Y110.011 E0.38815
G1 X102.645 Y109.737 E0.39727
G1 X102.659 Y109.482 E0.40576
G1 X102.681 Y109.216 E0.41464
G1 X102.712 Y108.973 E0.42279
G1 X102.756 Y108.696 E0.43212
G1 X102.803 Y108.46 E0.44012
G1 X102.86 Y108.211 E0.44862
G1 X102.898 Y108.072 E0.45341
G1 X102.975 Y107.807 E0.46259
G1 X103.092 Y107.456 E0.47489
G1 X103.184 Y107.223 E0.48322
G1 X103.291 Y106.971 E0.49233
G1 X103.396 Y106.75 E0.50047
G1 X103.516 Y106.517 E0.50918
G1 X103.646 Y106.285 E0.51803
G1 X103.778 Y106.068 E0.52648
G1 X103.919 Y105.852 E0.53506
G1 X104.07 Y105.64 E0.54371
G1 X104.237 Y105.422 E0.55285
G1 X104.393 Y105.232 E0.56102
G1 X104.567 Y105.033 E0.56982
G1 X104.741 Y104.85 E0.57822
G1 X104.933 Y104.662 E0.58715
G1 X105.13 Y104.481 E0.59605
G1 X105.327 Y104.314 E0.60464
G1 X105.537 Y104.147 E0.61356
G1 X105.746 Y103.992 E0.62222
G1 X105.942 Y103.859 E0.6301
G1 X106.179 Y103.709 E0.63943
G1 X106.385 Y103.588 E0.64737
G1 X106.633 Y103.454 E0.65675
G1 X106.859 Y103.343 E0.66512
G1 X107.089 Y103.239 E0.67352
G1 X107.336 Y103.139 E0.68238
G1 X107.574 Y103.051 E0.69082
G1 X107.835 Y102.965 E0.69996
G1 X108.063 Y102.899 E0.70785
G1 X108.329 Y102.832 E0.71698
G1 X108.575 Y102.779 E0.72535
G1 X108.841 Y102.732 E0.73433
G1 X109.088 Y102.696 E0.74263
G1 X109.358 Y102.668 E0.75166
G1 X109.599 Y102.651 E0.7597
G1 X109.88 Y102.641 E0.76905
G1 X110.12 Y102.641 E0.77703
G1 X110.401 Y102.651 E0.78638
G1 X110.642 Y102.668 E0.79442
G1 X110.912 Y102.696 E0.80345
G1 X111.159 Y102.732 E0.81175
G1 X111.425 Y102.779 E0.82074
G1 X111.671 Y102.832 E0.8291
G1 X111.937 Y102.899 E0.83823
G1 X112.165 Y102.965 E0.84612
G1 X112.426 Y103.051 E0.85526
G1 X112.664 Y103.139 E0.8637
G1 X112.911 Y103.239 E0.87257
G1 X113.141 Y103.343 E0.88096
G1 X113.367 Y103.454 E0.88934
G1 X113.615 Y103.588 E0.89871
G1 X113.821 Y103.709 E0.90666
G1 X114.041 Y103.848 E0.91531
G1 X114.267 Y104.002 E0.92441
G1 X114.463 Y104.147 E0.93252
G1 X114.673 Y104.314 E0.94144
G1 X114.87 Y104.481 E0.95003
G1 X115.067 Y104.662 E0.95893
G1 X115.259 Y104.85 E0.96787
G1 X115.423 Y105.023 E0.9758
G1 X115.594 Y105.216 E0.98437
G1 X115.768 Y105.428 E0.99349
G1 X115.923 Y105.629 E1.00194
G1 X116.068 Y105.833 E1.01026
G1 X116.218 Y106.062 E1.01937
G1 X116.347 Y106.273 E1.02759
G1 X116.481 Y106.512 E1.0367
G1 X116.595 Y106.732 E1.04495
G1 X116.705 Y106.964 E1.05349
G1 X116.817 Y107.223 E1.06287
G1 X116.903 Y107.442 E1.0707
G1 X116.989 Y107.693 E1.07952
G1 X117.073 Y107.961 E1.08886
G1 X117.134 Y108.187 E1.09665
G1 X117.196 Y108.455 E1.1058
G1 X117.244 Y108.697 E1.114
G1 X117.287 Y108.959 E1.12283
G1 X117.318 Y109.208 E1.13118
G1 X117.342 Y109.482 E1.14033
G1 X117.355 Y109.73 E1.14859
G1 X117.36 Y109.989 E1.1572
G1 X117.355 Y110.262 E1.16629
G1 X117.341 Y110.518 E1.17481
G1 X117.32 Y110.777 E1.18345
G1 X117.288 Y111.027 E1.19184
G1 X117.244 Y111.303 E1.20113
G1 X117.197 Y111.54 E1.20917
G1 X117.136 Y111.806 E1.21825
G1 X117.073 Y112.04 E1.22631
G1 X116.991 Y112.303 E1.23547
G1 X116.912 Y112.534 E1.24359
G1 X116.816 Y112.777 E1.25228
G1 X116.709 Y113.029 E1.26139
G1 X116.604 Y113.25 E1.26952
G1 X116.484 Y113.483 E1.27824
G1 X116.354 Y113.715 E1.28709
G1 X116.222 Y113.932 E1.29553
G1 X116.081 Y114.148 E1.30411
G1 X115.93 Y114.36 E1.31277
G1 X115.763 Y114.578 E1.3219
G1 X115.607 Y114.768 E1.33008
G1 X115.433 Y114.967 E1.33887
G1 X115.259 Y115.15 E1.34727
G1 X115.067 Y115.338 E1.35621
G1 X114.87 Y115.519 E1.36511
G1 X114.674 Y115.685 E1.37365
G1 X114.463 Y115.853 E1.38262
G1 X114.256 Y116.006 E1.39118
G1 X114.058 Y116.141 E1.39915
G1 X113.821 Y116.291 E1.40848
G1 X113.615 Y116.412 E1.41643
G1 X113.369 Y116.545 E1.42573
G1 X113.141 Y116.657 E1.43418
G1 X112.911 Y116.761 E1.44257
G1 X112.664 Y116.861 E1.45144
G1 X112.415 Y116.953 E1.46026
G1 X112.177 Y117.031 E1.46859
G1 X111.937 Y117.101 E1.47691
G1 X111.671 Y117.168 E1.48603
G1 X111.425 Y117.221 E1.4944
G1 X111.159 Y117.268 E1.50339
G1 X110.912 Y117.304 E1.51169
G1 X110.642 Y117.332 E1.52072
G1 X110.401 Y117.349 E1.52875
G1 X110.12 Y117.359 E1.5381
G0 F6000 X110.134 Y117.759
;TYPE:WALL-OUTER
G1 F1200 X109.866 Y117.759 E1.54702
G1 X109.585 Y117.749 E1.55637
G1 X109.319 Y117.73 E1.56524
G1 X109.04 Y117.701 E1.57457
G1 X108.775 Y117.663 E1.58347
G1 X108.505 Y117.615 E1.5926
G1 X108.231 Y117.556 E1.60192
G1 X107.965 Y117.489 E1.61104
G1 X107.711 Y117.415 E1.61984
G1 X107.448 Y117.329 E1.62904
G1 X107.186 Y117.232 E1.63834
G1 X106.939 Y117.132 E1.6472
G1 X106.683 Y117.016 E1.65655
G1 X106.443 Y116.898 E1.66544
G1 X106.195 Y116.764 E1.67482
G1 X105.965 Y116.629 E1.68369
G1 X105.728 Y116.479 E1.69302
G1 X105.508 Y116.329 E1.70187
G1 X105.288 Y116.166 E1.71098
G1 X105.068 Y115.991 E1.72033
G1 X104.859 Y115.814 E1.72944
G1 X104.662 Y115.633 E1.73834
G1 X104.461 Y115.436 E1.7477
G1 X104.278 Y115.242 E1.75657
G1 X104.092 Y115.032 E1.7659
G1 X103.919 Y114.821 E1.77497
G1 X103.752 Y114.603 E1.78411
G1 X103.593 Y114.38 E1.79322
G1 X103.443 Y114.151 E1.80232
G1 X103.304 Y113.923 E1.8112
G1 X103.167 Y113.678 E1.82054
G1 X103.041 Y113.434 E1.82967
G1 X102.924 Y113.187 E1.83876
G1 X102.816 Y112.935 E1.84788
G1 X102.716 Y112.68 E1.85699
G1 X102.627 Y112.422 E1.86607
G1 X102.545 Y112.158 E1.87526
G1 X102.474 Y111.896 E1.88429
G1 X102.413 Y111.629 E1.8934
G1 X102.361 Y111.367 E1.90229
G1 X102.316 Y111.09 E1.91162
G1 X102.282 Y110.817 E1.92077
G1 X102.26 Y110.551 E1.92965
G1 X102.245 Y110.27 E1.93901
G1 X102.24 Y110.004 E1.94785
G1 X102.245 Y109.73 E1.95697
G1 X102.26 Y109.449 E1.96633
G1 X102.282 Y109.183 E1.97521
G1 X102.317 Y108.91 E1.98436
G1 X102.361 Y108.633 E1.99369
G1 X102.413 Y108.371 E2.00257
G1 X102.474 Y108.105 E2.01165
G1 X102.514 Y107.959 E2.01669
G1 X102.592 Y107.694 E2.02587
G1 X102.72 Y107.31 E2.03934
G1 X102.816 Y107.065 E2.04809
G1 X102.924 Y106.813 E2.05721
G1 X103.041 Y106.566 E2.0663
G1 X103.167 Y106.322 E2.07543
G1 X103.304 Y106.077 E2.08477
G1 X103.443 Y105.849 E2.09365
G1 X103.593 Y105.62 E2.10275
G1 X103.752 Y105.397 E2.11186
G1 X103.919 Y105.179 E2.121
G1 X104.092 Y104.968 E2.13007
G1 X104.277 Y104.757 E2.1394
G1 X104.461 Y104.564 E2.14827
G1 X104.662 Y104.367 E2.15763
G1 X104.859 Y104.186 E2.16653
G1 X105.068 Y104.009 E2.17564
G1 X105.288 Y103.834 E2.18499
G1 X105.508 Y103.671 E2.1941
G1 X105.728 Y103.521 E2.20295
G1 X105.965 Y103.371 E2.21228
G1 X106.195 Y103.236 E2.22115
G1 X106.443 Y103.102 E2.23053
G1 X106.683 Y102.984 E2.23942
G1 X106.939 Y102.868 E2.24877
G1 X107.186 Y102.768 E2.25764
G1 X107.449 Y102.671 E2.26696
G1 X107.71 Y102.585 E2.2761
G1 X107.965 Y102.511 E2.28493
G1 X108.231 Y102.444 E2.29405
G1 X108.505 Y102.385 E2.30338
G1 X108.775 Y102.337 E2.3125
G1 X109.04 Y102.299 E2.3214
G1 X109.319 Y102.27 E2.33073
G1 X109.585 Y102.251 E2.3396
G1 X109.866 Y102.241 E2.34895
G1 X110.134 Y102.241 E2.35787
G1 X110.415 Y102.251 E2.36722
G1 X110.681 Y102.27 E2.37609
G1 X110.96 Y102.299 E2.38542
G1 X111.225 Y102.337 E2.39432
G1 X111.495 Y102.385 E2.40344
G1 X111.769 Y102.444 E2.41276
G1 X112.035 Y102.511 E2.42189
G1 X112.29 Y102.585 E2.43072
G1 X112.551 Y102.671 E2.43986
G1 X112.814 Y102.768 E2.44918
G1 X113.061 Y102.868 E2.45805
G1 X113.317 Y102.984 E2.46739
G1 X113.557 Y103.102 E2.47629
G1 X113.805 Y103.236 E2.48566
G1 X114.035 Y103.371 E2.49453
G1 X114.266 Y103.517 E2.50362
G1 X114.492 Y103.671 E2.51272
G1 X114.712 Y103.834 E2.52183
G1 X114.932 Y104.009 E2.53118
G1 X115.141 Y104.186 E2.54029
G1 X115.338 Y104.367 E2.54918
G1 X115.539 Y104.564 E2.55854
G1 X115.722 Y104.758 E2.56741
G1 X115.903 Y104.962 E2.57649
G1 X116.077 Y105.174 E2.58561
G1 X116.248 Y105.397 E2.59495
G1 X116.403 Y105.614 E2.60382
G1 X116.553 Y105.843 E2.61293
G1 X116.696 Y106.077 E2.62205
G1 X116.83 Y106.316 E2.63116
G1 X116.956 Y106.56 E2.6403
G1 X117.073 Y106.806 E2.64936
G1 X117.184 Y107.065 E2.65873
G1 X117.281 Y107.312 E2.66756
G1 X117.371 Y107.573 E2.67674
G1 X117.455 Y107.841 E2.68608
G1 X117.524 Y108.097 E2.6949
G1 X117.586 Y108.365 E2.70405
G1 X117.639 Y108.633 E2.71313
G1 X117.684 Y108.91 E2.72247
G1 X117.717 Y109.175 E2.73135
G1 X117.74 Y109.449 E2.74049
G1 X117.755 Y109.723 E2.74962
G1 X117.76 Y109.996 E2.7587
G1 X117.755 Y110.27 E2.76782
G1 X117.74 Y110.551 E2.77718
G1 X117.718 Y110.817 E2.78605
G1 X117.683 Y111.09 E2.79521
G1 X117.639 Y111.367 E2.80454
G1 X117.587 Y111.629 E2.81342
G1 X117.526 Y111.896 E2.82253
G1 X117.455 Y112.159 E2.83159
G1 X117.373 Y112.422 E2.84075
G1 X117.284 Y112.68 E2.84983
G1 X117.184 Y112.935 E2.85894
G1 X117.076 Y113.187 E2.86806
G1 X116.959 Y113.434 E2.87715
G1 X116.833 Y113.678 E2.88628
G1 X116.696 Y113.923 E2.89562
G1 X116.557 Y114.151 E2.9045
G1 X116.407 Y114.38 E2.91361
G1 X116.248 Y114.603 E2.92272
G1 X116.081 Y114.821 E2.93185
G1 X115.908 Y115.032 E2.94092
G1 X115.723 Y115.243 E2.95026
G1 X115.539 Y115.436 E2.95913
G1 X115.338 Y115.633 E2.96849
G1 X115.141 Y115.814 E2.97739
G1 X114.932 Y115.991 E2.9865
G1 X114.712 Y116.166 E2.99585
G1 X114.492 Y116.329 E3.00495
G1 X114.272 Y116.479 E3.01381
G1 X114.035 Y116.629 E3.02314
G1 X113.805 Y116.764 E3.03201
G1 X113.557 Y116.898 E3.04138
G1 X113.317 Y117.016 E3.05028
G1 X113.061 Y117.132 E3.05963
G1 X112.814 Y117.232 E3.06849
G1 X112.552 Y117.329 E3.07778
G1 X112.289 Y117.415 E3.08698
G1 X112.035 Y117.489 E3.09578
G1 X111.769 Y117.556 E3.10491
G1 X111.495 Y117.615 E3.11423
G1 X111.225 Y117.663 E3.12335
G1 X110.96 Y117.701 E3.13225
G1 X110.681 Y117.73 E3.14158
G1 X110.415 Y117.749 E3.15045
G1 X110.134 Y117.759 E3.15981
G0 F6000 X110.127 Y117.32
G0 X110.106 Y116.969
;TYPE:SKIN
G1 F1200 X109.894 Y116.969 E3.16686
G1 X109.626 Y116.959 E3.17578
G1 X109.385 Y116.942 E3.18381
G1 X109.133 Y116.916 E3.19224
G1 X108.657 Y116.839 E3.20828
G1 X108.411 Y116.786 E3.21665
G1 X108.158 Y116.723 E3.22532
G1 X107.72 Y116.587 E3.24057
G1 X107.471 Y116.495 E3.2494
G1 X107.235 Y116.4 E3.25786
G1 X107.056 Y116.319 E3.2644
G1 X106.803 Y116.195 E3.27377
G1 X106.576 Y116.072 E3.28236
G1 X106.388 Y115.961 E3.28962
G1 X106.151 Y115.811 E3.29895
G1 X105.976 Y115.692 E3.30598
G1 X105.769 Y115.539 E3.31455
G1 X105.569 Y115.38 E3.32304
G1 X105.388 Y115.226 E3.33095
G1 X105.202 Y115.055 E3.33935
G1 X105.014 Y114.871 E3.3481
G1 X104.699 Y114.525 E3.36366
G1 X104.539 Y114.331 E3.37203
G1 X104.38 Y114.123 E3.38074
G1 X104.122 Y113.747 E3.3959
G1 X103.983 Y113.518 E3.40481
G1 X103.86 Y113.298 E3.41319
G1 X103.743 Y113.071 E3.42169
G1 X103.645 Y112.863 E3.42934
G1 X103.542 Y112.625 E3.43796
G1 X103.451 Y112.392 E3.44628
G1 X103.378 Y112.177 E3.45383
G1 X103.299 Y111.924 E3.46265
G1 X103.183 Y111.454 E3.47875
G1 X103.14 Y111.233 E3.48624
G1 X103.096 Y110.963 E3.49534
G1 X103.048 Y110.497 E3.51092
G1 X103.035 Y110.242 E3.51941
G1 X103.03 Y110.019 E3.52683
G1 X103.035 Y109.758 E3.53551
G1 X103.052 Y109.45 E3.54577
G1 X103.091 Y109.075 E3.55831
G1 X103.141 Y108.757 E3.56902
G1 X103.236 Y108.314 E3.58409
G1 X103.272 Y108.181 E3.58867
G1 X103.345 Y107.93 E3.59736
G1 X103.459 Y107.589 E3.60932
G1 X103.545 Y107.371 E3.61712
G1 X103.644 Y107.138 E3.62554
G1 X103.743 Y106.929 E3.63323
G1 X103.86 Y106.702 E3.64172
G1 X103.983 Y106.482 E3.65011
G1 X104.122 Y106.253 E3.65902
G1 X104.38 Y105.877 E3.67418
G1 X104.539 Y105.67 E3.68286
G1 X104.691 Y105.485 E3.69083
G1 X104.856 Y105.296 E3.69917
G1 X105.014 Y105.129 E3.70682
G1 X105.202 Y104.945 E3.71557
G1 X105.388 Y104.774 E3.72397
G1 X105.569 Y104.62 E3.73188
G1 X105.769 Y104.461 E3.74037
G1 X105.978 Y104.306 E3.74903
G1 X106.151 Y104.189 E3.75598
G1 X106.388 Y104.039 E3.7653
G1 X106.576 Y103.928 E3.77257
G1 X106.805 Y103.805 E3.78121
G1 X107.056 Y103.681 E3.79052
G1 X107.235 Y103.6 E3.79706
G1 X107.471 Y103.505 E3.80552
G1 X107.709 Y103.417 E3.81396
G1 X107.951 Y103.337 E3.82244
G1 X108.158 Y103.277 E3.8296
G1 X108.411 Y103.214 E3.83828
G1 X108.657 Y103.161 E3.84665
G1 X109.133 Y103.084 E3.86268
G1 X109.385 Y103.058 E3.87111
G1 X109.626 Y103.041 E3.87915
G1 X109.894 Y103.031 E3.88807
G1 X110.106 Y103.031 E3.89512
G1 X110.374 Y103.041 E3.90404
G1 X110.615 Y103.058 E3.91207
G1 X110.867 Y103.084 E3.9205
G1 X111.343 Y103.161 E3.93654
G1 X111.589 Y103.214 E3.94491
G1 X111.842 Y103.277 E3.95358
G1 X112.049 Y103.337 E3.96075
G1 X112.291 Y103.417 E3.96922
G1 X112.751 Y103.594 E3.98562
G1 X112.944 Y103.681 E3.99266
G1 X113.195 Y103.804 E4.00195
G1 X113.424 Y103.928 E4.01062
G1 X113.821 Y104.17 E4.02608
G1 X114.035 Y104.316 E4.0347
G1 X114.221 Y104.453 E4.04238
G1 X114.421 Y104.612 E4.05088
G1 X114.612 Y104.774 E4.05921
G1 X114.794 Y104.941 E4.06742
G1 X114.976 Y105.119 E4.07589
G1 X115.292 Y105.464 E4.09145
G1 X115.475 Y105.687 E4.10105
G1 X115.742 Y106.047 E4.11595
G1 X115.885 Y106.265 E4.12462
G1 X116.01 Y106.47 E4.13261
G1 X116.137 Y106.697 E4.14126
G1 X116.349 Y107.125 E4.15715
G1 X116.457 Y107.372 E4.16611
G1 X116.617 Y107.81 E4.18162
G1 X116.699 Y108.071 E4.19072
G1 X116.754 Y108.275 E4.19775
G1 X116.814 Y108.531 E4.2065
G1 X116.86 Y108.76 E4.21426
G1 X116.9 Y109.007 E4.22259
G1 X116.931 Y109.248 E4.23067
G1 X116.952 Y109.502 E4.23914
G1 X116.97 Y109.981 E4.25509
G1 X116.965 Y110.241 E4.26374
G1 X116.948 Y110.558 E4.2743
G1 X116.909 Y110.923 E4.2865
G1 X116.859 Y111.242 E4.29724
G1 X116.817 Y111.453 E4.3044
G1 X116.758 Y111.712 E4.31323
G1 X116.701 Y111.924 E4.32054
G1 X116.622 Y112.177 E4.32935
G1 X116.549 Y112.391 E4.33687
G1 X116.457 Y112.625 E4.34523
G1 X116.356 Y112.862 E4.3538
G1 X116.257 Y113.071 E4.3615
G1 X116.14 Y113.298 E4.36999
G1 X116.017 Y113.518 E4.37837
G1 X115.878 Y113.747 E4.38728
G1 X115.62 Y114.123 E4.40245
G1 X115.461 Y114.33 E4.41113
G1 X115.309 Y114.515 E4.41909
G1 X115.144 Y114.704 E4.42744
G1 X114.986 Y114.871 E4.43509
G1 X114.798 Y115.055 E4.44383
G1 X114.612 Y115.226 E4.45224
G1 X114.431 Y115.38 E4.46014
G1 X114.231 Y115.539 E4.46864
G1 X114.024 Y115.692 E4.4772
G1 X113.849 Y115.811 E4.48424
G1 X113.612 Y115.961 E4.49357
G1 X113.424 Y116.072 E4.50083
G1 X113.197 Y116.194 E4.5094
G1 X112.944 Y116.319 E4.51879
G1 X112.765 Y116.4 E4.52532
