;FLAVOR:Marlin
;TIME:34120
;Filament used: 29.3339m
;Layer height: 0.2
;MINX:11.924
;MINY:11.789
;MINZ:0.24
;MAXX:208.204
;MAXY:208.198
;MAXZ:7.29
;Generated with Cura_SteamEngine 4.7.0
M140 S60
M105
M190 S60
M104 S210
M105
M109 S210
M82 ;absolute extrusion mode
; Ender 3 Custom Start G-code
G92 E0 ; Reset Extruder
G28 ; Home all axes
G1 Z2.0 F3000 ; Move Z Axis up little to prevent scratching of Heat Bed
G1 X0.1 Y20 Z0.3 F5000.0 ; Move to start position
G1 X0.1 Y200.0 Z0.3 F1500.0 E15 ; Draw the first line
G1 X0.4 Y200.0 Z0.3 F5000.0 ; Move to side a little
G1 X0.4 Y20 Z0.3 F1500.0 E30 ; Draw the second line
G92 E0 ; Reset Extruder
G1 Z2.0 F3000 ; Move Z Axis up little to prevent scratching of Heat Bed
G1 X5 Y20 Z0.3 F5000.0 ; Move over to prevent blob squish
G92 E0
G92 E0
G1 F1500 E-7
;LAYER_COUNT:31
;LAYER:-6
M107
G0 F9000 X41.455 Y41.15 Z0.24
;TYPE:SUPPORT-INTERFACE
G1 F1500 E0
G1 F1125 X41.763 Y40.846 E0.03454
G1 X43.76 Y38.93 E0.25546
G1 X44.124 Y38.592 E0.29511
G1 X46.158 Y36.77 E0.51309
G1 X46.538 Y36.44 E0.55326
G1 X48.685 Y34.642 E0.7768
G1 X49.022 Y34.369 E0.81142
G1 X49.338 Y34.119 E0.84359
G1 X51.23 Y32.64 E1.03529
G1 X51.231 Y32.641 E1.0354
G1 X51.253 Y32.623 E1.03767
G1 X51.646 Y32.327 E1.07694
G1 X53.714 Y30.819 E1.28125
G1 X53.921 Y30.676 E1.30133
G1 X54.174 Y30.49 E1.32639
G1 X54.297 Y30.402 E1.33847
G1 X56.384 Y28.987 E1.53974
G1 X56.631 Y28.822 E1.56345
G1 X56.996 Y28.582 E1.59832
G1 X59.328 Y27.11 E1.81846
G1 X59.757 Y26.85 E1.8585
G1 X62.182 Y25.433 E2.0827
G1 X62.618 Y25.188 E2.12262
G1 X65.058 Y23.869 E2.34403
G1 X65.49 Y23.647 E2.3828
G1 X67.932 Y22.431 E2.60056
G1 X68.392 Y22.211 E2.64126
G1 X70.858 Y21.083 E2.85773
G1 X71.357 Y20.866 E2.90116
G1 X73.67 Y19.903 E3.10116
G1 X73.97 Y19.78 E3.12704
G1 X74.391 Y19.613 E3.16319
G1 X76.999 Y18.627 E3.38576
G1 X77.431 Y18.472 E3.42239
G1 X80.07 Y17.576 E3.64486
G1 X80.521 Y17.43 E3.6827
G1 X83.048 Y16.664 E3.89348
G1 X83.205 Y16.618 E3.90654
G1 X83.642 Y16.494 E3.9428
G1 X86.359 Y15.77 E4.16725
G1 X86.805 Y15.659 E4.20394
G1 X89.515 Y15.034 E4.42594
G1 X89.986 Y14.936 E4.46434
G1 X92.708 Y14.403 E4.68575
G1 X93.162 Y14.32 E4.72259
G1 X95.929 Y13.875 E4.9463
G1 X96.413 Y13.806 E4.98533
G1 X99.17 Y13.457 E5.20716
G1 X99.655 Y13.403 E5.24612
G1 X102.428 Y13.147 E5.46841
G1 X102.907 Y13.111 E5.50675
G1 X105.663 Y12.949 E5.72713
G1 X106.186 Y12.927 E5.76891
G1 X108.806 Y12.861 E5.97812
G1 X108.983 Y12.858 E5.99225
G1 X109.43 Y12.854 E6.02793
G1 X112.214 Y12.878 E6.25017
G1 X112.681 Y12.889 E6.28746
G1 X115.418 Y13.003 E6.50613
G1 X115.959 Y13.036 E6.5494
G1 X118.72 Y13.245 E6.77042
G1 X119.168 Y13.286 E6.80633
G1 X121.946 Y13.59 E7.02941
G1 X122.426 Y13.651 E7.06803
G1 X125.191 Y14.048 E7.29101
G1 X125.668 Y14.125 E7.32958
G1 X128.374 Y14.607 E7.54898
G1 X128.848 Y14.699 E7.58753
G1 X131.629 Y15.292 E7.81451
G1 X132.083 Y15.396 E7.85169
G1 X134.74 Y16.056 E8.07022
G1 X135.21 Y16.181 E8.10905
G1 X137.908 Y16.948 E8.33295
G1 X138.394 Y17.095 E8.37348
G1 X141.014 Y17.937 E8.59315
G1 X141.518 Y18.108 E8.63564
G1 X144.121 Y19.044 E8.85644
G1 X144.561 Y19.211 E8.89401
G1 X147.155 Y20.241 E9.1168
G1 X147.645 Y20.446 E9.1592
G1 X150.173 Y21.551 E9.37943
G1 X150.602 Y21.747 E9.41708
G1 X153.068 Y22.923 E9.63517
G1 X153.558 Y23.169 E9.67893
G1 X155.977 Y24.424 E9.89647
G1 X156.416 Y24.661 E9.93629
G1 X158.826 Y26.017 E10.15703
G1 X159.284 Y26.286 E10.19943
G1 X161.625 Y27.708 E10.41807
G1 X162.065 Y27.987 E10.45966
G1 X164.38 Y29.502 E10.68051
G1 X164.723 Y29.734 E10.71356
G1 X167.025 Y31.354 E10.93826
G1 X167.422 Y31.643 E10.97745
G1 X169.583 Y33.274 E11.19357
G1 X170.016 Y33.611 E11.23737
G1 X170.025 Y33.62 E11.23839
G1 X170.069 Y33.654 E11.24282
G1 X172.179 Y35.363 E11.45957
G1 X172.561 Y35.683 E11.49935
G1 X174.652 Y37.494 E11.72016
G1 X175.06 Y37.861 E11.76397
G1 X177.045 Y39.701 E11.98002
G1 X177.407 Y40.048 E12.02005
G1 X179.387 Y42.012 E12.24267
G1 X179.704 Y42.336 E12.27885
G1 X179.703 Y42.337 E12.27896
G1 X181.619 Y44.366 E12.50173
G1 X181.618 Y44.367 E12.50184
G1 X181.961 Y44.743 E12.54247
G1 X181.962 Y44.742 E12.54258
G1 X183.782 Y46.809 E12.76242
G1 X184.102 Y47.185 E12.80183
G1 X185.892 Y49.36 E13.02669
G1 X186.143 Y49.675 E13.05884
G1 X187.863 Y51.913 E13.28415
G1 X188.16 Y52.312 E13.32386
G1 X189.77 Y54.56 E13.54457
G1 X190.047 Y54.962 E13.58354
G1 X191.579 Y57.258 E13.80387
G1 X191.851 Y57.681 E13.84402
G1 X193.313 Y60.041 E14.06562
G1 X193.567 Y60.467 E14.10521
G1 X194.943 Y62.867 E14.32605
G1 X195.203 Y63.341 E14.3692
G1 X196.477 Y65.745 E14.58638
G1 X196.699 Y66.183 E14.62558
G1 X197.939 Y68.725 E14.85135
G1 X198.103 Y69.076 E14.88227
G1 X198.127 Y69.132 E14.88714
G1 X198.132 Y69.14 E14.88789
G1 X199.253 Y71.648 E15.10718
G1 X199.454 Y72.121 E15.1482
G1 X200.521 Y74.748 E15.37454
G1 X200.722 Y75.273 E15.41941
G1 X201.626 Y77.732 E15.62854
G1 X201.791 Y78.204 E15.66846
G1 X202.612 Y80.689 E15.87736
G1 X202.66 Y80.852 E15.89093
G1 X202.784 Y81.232 E15.92284
G1 X202.826 Y81.369 E15.93427
G1 X203.602 Y84.012 E16.15416
G1 X203.718 Y84.438 E16.1894
G1 X204.409 Y87.118 E16.41032
G1 X204.532 Y87.633 E16.45259
G1 X205.124 Y90.307 E16.67121
G1 X205.222 Y90.785 E16.71016
G1 X205.731 Y93.504 E16.93097
G1 X205.815 Y93.994 E16.97066
G1 X206.232 Y96.73 E17.19158
G1 X206.299 Y97.225 E17.23145
G1 X206.624 Y99.979 E17.45281
G1 X206.673 Y100.469 E17.49212
G1 X206.886 Y102.981 E17.69336
G1 X206.911 Y103.29 E17.71811
G1 X206.94 Y103.718 E17.75235
G1 X207.079 Y106.481 E17.97318
G1 X207.094 Y106.947 E18.0104
G1 X207.1 Y107.188 E18.02964
G1 X207.139 Y109.617 E18.22356
G1 X207.136 Y109.745 E18.23378
G1 X207.142 Y110.214 E18.27122
G1 X207.102 Y112.768 E18.47512
G1 X207.081 Y113.485 E18.53238
G1 X206.939 Y116.28 E18.75577
G1 X206.906 Y116.766 E18.79466
G1 X206.68 Y119.472 E19.01142
G1 X206.63 Y119.97 E19.05137
G1 X206.304 Y122.729 E19.27313
G1 X206.284 Y122.889 E19.28601
G1 X206.24 Y123.209 E19.31179
G1 X206.2 Y123.483 E19.33389
G1 X205.824 Y125.954 E19.53341
G1 X205.743 Y126.434 E19.57227
G1 X205.217 Y129.25 E19.80094
G1 X205.124 Y129.707 E19.83817
G1 X204.524 Y132.4 E20.05841
G1 X204.407 Y132.885 E20.09823
G1 X203.721 Y135.552 E20.31805
G1 X203.572 Y136.091 E20.36269
G1 X202.807 Y138.694 E20.57926
G1 X202.68 Y139.102 E20.61337
G1 X201.81 Y141.741 E20.83518
G1 X201.644 Y142.217 E20.87542
G1 X201.643 Y142.223 E20.87591
G1 X200.673 Y144.859 E21.10012
G1 X200.491 Y145.328 E21.14028
G1 X199.451 Y147.885 E21.36062
G1 X199.246 Y148.363 E21.40214
G1 X198.104 Y150.919 E21.62561
G1 X197.918 Y151.317 E21.66068
G1 X196.706 Y153.804 E21.88152
G1 X196.48 Y154.25 E21.92143
G1 X195.181 Y156.7 E22.14279
G1 X194.944 Y157.129 E22.18191
G1 X193.6 Y159.474 E22.39767
G1 X193.314 Y159.956 E22.4424
G1 X191.859 Y162.306 E22.66304
G1 X191.588 Y162.729 E22.70314
G1 X190.053 Y165.031 E22.924
G1 X189.764 Y165.448 E22.9645
G1 X188.157 Y167.691 E23.18475
G1 X187.867 Y168.082 E23.22361
G1 X186.177 Y170.283 E23.44512
G1 X185.837 Y170.709 E23.48863
G1 X184.109 Y172.807 E23.70559
G1 X183.751 Y173.227 E23.74965
G1 X181.957 Y175.262 E23.9662
G1 X181.625 Y175.627 E24.00559
G1 X179.728 Y177.64 E24.22638
G1 X179.361 Y178.014 E24.26821
G1 X177.412 Y179.947 E24.48733
G1 X177.045 Y180.299 E24.52792
G1 X175.054 Y182.144 E24.7446
G1 X174.645 Y182.511 E24.78846
G1 X172.542 Y184.333 E25.01057
G1 X172.183 Y184.634 E25.04797
G1 X170.036 Y186.372 E25.26847
G1 X169.61 Y186.705 E25.31163
G1 X167.423 Y188.357 E25.53041
G1 X167.024 Y188.647 E25.56979
G1 X164.746 Y190.249 E25.79209
G1 X164.352 Y190.516 E25.83008
G1 X162.036 Y192.033 E26.05108
G1 X161.613 Y192.299 E26.09097
G1 X159.229 Y193.747 E26.31362
G1 X158.826 Y193.983 E26.3509
G1 X156.372 Y195.363 E26.57564
G1 X155.981 Y195.575 E26.61114
G1 X153.524 Y196.85 E26.83211
G1 X153.094 Y197.064 E26.87045
G1 X151.157 Y197.99 E27.04183
G1 X151.157 Y197.986 E27.04215
G1 X150.537 Y198.285 E27.09709
G1 X150.117 Y198.476 E27.13392
G1 X147.755 Y199.506 E27.33961
G1 X147.533 Y199.602 E27.35892
G1 X147.09 Y199.785 E27.39718
G1 X144.525 Y200.803 E27.61747
G1 X144.075 Y200.973 E27.65587
G1 X141.542 Y201.882 E27.87069
G1 X140.992 Y202.07 E27.91708
G1 X138.433 Y202.891 E28.13161
G1 X137.854 Y203.067 E28.17992
G1 X135.231 Y203.813 E28.3976
G1 X134.723 Y203.948 E28.43956
G1 X132.047 Y204.611 E28.65963
G1 X131.563 Y204.723 E28.69928
G1 X128.933 Y205.283 E28.91393
G1 X128.387 Y205.391 E28.95835
G1 X125.647 Y205.879 E29.18051
G1 X125.131 Y205.961 E29.22222
G1 X122.455 Y206.346 E29.43803
G1 X121.959 Y206.409 E29.47794
G1 X119.165 Y206.715 E29.7023
G1 X118.702 Y206.757 E29.73941
G1 X115.931 Y206.966 E29.96124
G1 X115.46 Y206.994 E29.9989
G1 X112.678 Y207.111 E30.22117
G1 X112.159 Y207.123 E30.26261
G1 X109.427 Y207.146 E30.48069
G1 X108.979 Y207.142 E30.51646
G1 X108.803 Y207.139 E30.53051
G1 X106.124 Y207.07 E30.74443
G1 X105.72 Y207.054 E30.7767
G1 X105.681 Y207.051 E30.77983
G1 X105.659 Y207.051 E30.78158
G1 X102.911 Y206.889 E31.00132
G1 X102.4 Y206.851 E31.04222
G1 X99.658 Y206.597 E31.26204
G1 X99.152 Y206.541 E31.30268
G1 X96.41 Y206.194 E31.5233
G1 X95.904 Y206.121 E31.56411
G1 X93.176 Y205.682 E31.78467
G1 X92.631 Y205.584 E31.82887
G1 X89.919 Y205.051 E32.0495
G1 X89.503 Y204.962 E32.08346
G1 X86.802 Y204.34 E32.30471
G1 X86.319 Y204.219 E32.34445
G1 X83.639 Y203.505 E32.56584
G1 X83.202 Y203.381 E32.6021
G1 X83.045 Y203.335 E32.61516
G1 X80.519 Y202.569 E32.82587
G1 X80 Y202.401 E32.86941
G1 X77.428 Y201.527 E33.08625
G1 X76.996 Y201.373 E33.12286
G1 X74.369 Y200.379 E33.34707
G1 X73.909 Y200.196 E33.38659
G1 X71.327 Y199.121 E33.60984
G1 X70.893 Y198.932 E33.64763
G1 X68.417 Y197.801 E33.86492
G1 X67.917 Y197.562 E33.90915
G1 X65.441 Y196.329 E34.12995
G1 X64.955 Y196.077 E34.17365
G1 X62.555 Y194.778 E34.39149
G1 X62.124 Y194.534 E34.43102
G1 X59.732 Y193.134 E34.65226
G1 X59.326 Y192.889 E34.69012
G1 X56.993 Y191.416 E34.91036
G1 X56.481 Y191.078 E34.95933
G1 X54.291 Y189.592 E35.17059
G1 X54.162 Y189.502 E35.18315
G1 X53.895 Y189.305 E35.20963
G1 X53.733 Y189.195 E35.22527
G1 X51.619 Y187.653 E35.43414
G1 X51.292 Y187.406 E35.46685
G1 X50.959 Y187.146 E35.50057
G1 X50.958 Y187.147 E35.50069
G1 X49.079 Y185.676 E35.69117
G1 X48.683 Y185.356 E35.73181
G1 X46.553 Y183.573 E35.95355
G1 X46.172 Y183.243 E35.99378
G1 X44.148 Y181.428 E36.21079
G1 X43.756 Y181.065 E36.25344
G1 X41.754 Y179.145 E36.47486
G1 X41.404 Y178.797 E36.51426
G1 X39.472 Y176.817 E36.73509
G1 X39.132 Y176.456 E36.77467
G1 X37.257 Y174.398 E36.99691
G1 X36.975 Y174.078 E37.03095
G1 X35.127 Y171.907 E37.25854
G1 X34.823 Y171.537 E37.29676
G1 X33.141 Y169.424 E37.51234
G1 X32.772 Y168.944 E37.56067
G1 X31.197 Y166.82 E37.77175
G1 X30.845 Y166.331 E37.81984
G1 X29.269 Y164.049 E38.04122
G1 X29.016 Y163.669 E38.07766
G1 X27.516 Y161.335 E38.29913
G1 X27.241 Y160.888 E38.34102
G1 X25.833 Y158.526 E38.56053
G1 X25.623 Y158.159 E38.59428
G1 X24.279 Y155.724 E38.81629
G1 X24.278 Y155.72 E38.81662
G1 X24.244 Y155.659 E38.8222
G1 X24.012 Y155.22 E38.86183
G1 X22.764 Y152.765 E39.08167
G1 X22.548 Y152.32 E39.12115
G1 X21.654 Y150.405 E39.28986
G1 X21.359 Y149.768 E39.34589
G1 X21.187 Y149.382 E39.37962
G1 X20.088 Y146.808 E39.60304
G1 X19.901 Y146.346 E39.64282
G1 X18.9 Y143.759 E39.86425
G1 X18.735 Y143.306 E39.90273
G1 X17.828 Y140.71 E40.12224
G1 X17.654 Y140.183 E40.16654
G1 X16.829 Y137.534 E40.38801
G1 X16.711 Y137.13 E40.42161
G1 X15.973 Y134.458 E40.64289
G1 X15.847 Y133.966 E40.68343
G1 X15.208 Y131.293 E40.90281
G1 X15.097 Y130.794 E40.94361
G1 X14.544 Y128.082 E41.16455
G1 X14.446 Y127.558 E41.20711
G1 X13.998 Y124.917 E41.42093
G1 X13.915 Y124.381 E41.46423
G1 X13.907 Y124.318 E41.4693
G1 X13.545 Y121.641 E41.68493
G1 X13.48 Y121.072 E41.73065
G1 X13.209 Y118.375 E41.94702
G1 X13.168 Y117.894 E41.98555
G1 X12.982 Y115.136 E42.20621
G1 X12.957 Y114.644 E42.24553
G1 X12.866 Y111.94 E42.4615
G1 X12.861 Y111.724 E42.47875
G1 X12.856 Y111.329 E42.51028
G1 X12.856 Y108.682 E42.72158
G1 X12.861 Y108.293 E42.75263
G1 X12.866 Y108.071 E42.77036
G1 X12.958 Y105.324 E42.98976
G1 X12.98 Y104.895 E43.02405
G1 X12.982 Y104.887 E43.0247
G1 X12.986 Y104.805 E43.03126
G1 X13.169 Y102.094 E43.24815
G1 X13.214 Y101.563 E43.29069
G1 X13.479 Y98.93 E43.50193
G1 X13.545 Y98.363 E43.5475
G1 X13.909 Y95.666 E43.76474
G1 X13.984 Y95.171 E43.8047
G1 X14.454 Y92.4 E44.02905
G1 X14.556 Y91.859 E44.073
G1 X15.1 Y89.195 E44.29004
G1 X15.222 Y88.646 E44.33493
G1 X15.851 Y86.022 E44.55032
G1 X15.989 Y85.494 E44.59389
G1 X16.697 Y82.92 E44.80699
G1 X16.837 Y82.442 E44.84674
G1 X17.688 Y79.716 E45.0747
G1 X17.828 Y79.292 E45.11034
G1 X18.742 Y76.67 E45.332
G1 X18.744 Y76.661 E45.33273
G1 X18.916 Y76.196 E45.37231
G1 X19.913 Y73.622 E45.59265
G1 X20.101 Y73.16 E45.63247
G1 X21.192 Y70.606 E45.85416
G1 X21.398 Y70.144 E45.89454
G1 X22.559 Y67.659 E46.11348
G1 X22.777 Y67.21 E46.15333
G1 X24.031 Y64.744 E46.37416
G1 X24.266 Y64.3 E46.41426
G1 X25.57 Y61.933 E46.62998
G1 X25.849 Y61.446 E46.67478
G1 X27.266 Y59.07 E46.89561
G1 X27.56 Y58.595 E46.94021
G1 X29.025 Y56.319 E47.15627
G1 X29.298 Y55.91 E47.19552
G1 X30.899 Y53.593 E47.42033
G1 X31.196 Y53.18 E47.46094
G1 X32.811 Y51.005 E47.67719
G1 X33.114 Y50.611 E47.71686
G1 X34.842 Y48.44 E47.93835
G1 X35.163 Y48.051 E47.97861
G1 X36.946 Y45.956 E48.19821
G1 X37.266 Y45.591 E48.23696
G1 X39.137 Y43.539 E48.45863
G1 X39.476 Y43.179 E48.4981
G1 X41.455 Y41.15 E48.72434
G0 F9000 X41.6 Y41.006
G1 F1125 X41.6 Y178.991 E59.7389
G0 F9000 X43.2 Y180.531
G1 F1125 X43.2 Y39.467 E70.99924
G0 F9000 X44.8 Y37.986
G1 F1125 X44.8 Y182.012 E82.49602
G0 F9000 X46.4 Y183.44
G1 F1125 X46.4 Y36.559 E94.2207
G0 F9000 X48 Y35.215
G1 F1125 X48 Y184.784 E106.15994
G0 F9000 X49.6 Y186.083
G1 F1125 X49.6 Y33.914 E118.30673
G0 F9000 X51.2 Y32.663
G1 F1125 X51.2 Y187.334 E130.65324
G0 F9000 X52.8 Y188.514
G1 F1125 X52.8 Y31.485 E143.18797
G0 F9000 X54.4 Y30.332
G1 F1125 X54.4 Y189.665 E155.90662
G0 F9000 X56 Y190.751
G1 F1125 X56 Y29.247 E168.79857
G0 F9000 X57.6 Y28.2
G1 F1125 X57.6 Y191.799 E181.85775
G0 F9000 X59.2 Y192.809
G1 F1125 X59.2 Y27.19 E195.07817
G0 F9000 X60.8 Y26.24
G1 F1125 X60.8 Y193.759 E208.45026
G0 F9000 X62.4 Y194.69
G1 F1125 X62.4 Y25.31 E221.97091
G0 F9000 X64 Y24.44
G1 F1125 X64 Y195.56 E235.63044
G0 F9000 X65.6 Y196.408
G1 F1125 X65.6 Y23.592 E249.42537
G0 F9000 X67.2 Y22.795
G1 F1125 X67.2 Y197.204 E263.34745
G0 F9000 X68.8 Y197.975
G1 F1125 X68.8 Y22.024 E277.39262
G0 F9000 X70.4 Y21.292
G1 F1125 X70.4 Y198.706 E291.55457
G0 F9000 X72 Y199.401
G1 F1125 X72 Y20.598 E305.8274
G0 F9000 X73.6 Y19.932
G1 F1125 X73.6 Y200.067 E320.20655
G0 F9000 X75.2 Y200.693
G1 F1125 X75.2 Y19.307 E334.68557
G0 F9000 X76.8 Y18.702
G1 F1125 X76.8 Y201.298 E349.26117
G0 F9000 X78.4 Y201.857
G1 F1125 X78.4 Y18.143 E363.92601
G0 F9000 X80 Y17.599
G1 F1125 X80 Y202.401 E378.67771
G0 F9000 X81.6 Y202.896
G1 F1125 X81.6 Y17.102 E393.50859
G0 F9000 X83.2 Y16.619
G1 F1125 X83.2 Y203.38 E408.41666
G0 F9000 X84.8 Y203.814
G1 F1125 X84.8 Y16.185 E423.39402
G0 F9000 X86.4 Y15.759
G1 F1125 X86.4 Y204.239 E438.43931
G0 F9000 X88 Y204.615
G1 F1125 X88 Y15.383 E453.54462
G0 F9000 X89.6 Y15.016
G1 F1125 X89.6 Y204.982 E468.70853
G0 F9000 X91.2 Y205.302
G1 F1125 X91.2 Y14.698 E483.92337
G0 F9000 X92.8 Y14.386
G1 F1125 X92.8 Y205.614 E499.18801
G0 F9000 X94.4 Y205.878
G1 F1125 X94.4 Y14.12 E514.49496
G0 F9000 X96 Y13.864
G1 F1125 X96 Y206.134 E529.84279
G0 F9000 X97.6 Y206.344
G1 F1125 X97.6 Y13.655 E545.22406
G0 F9000 X99.2 Y13.453
G1 F1125 X99.2 Y206.546 E560.63757
G0 F9000 X100.8 Y206.702
G1 F1125 X100.8 Y13.297 E576.076
G0 F9000 X102.4 Y13.149
G1 F1125 X102.4 Y206.851 E591.53813
G0 F9000 X104 Y206.953
G1 F1125 X104 Y13.046 E607.01662
G0 F9000 X105.6 Y12.952
G1 F1125 X105.6 Y207.047 E622.51013
G0 F9000 X107.2 Y207.097
G1 F1125 X107.2 Y12.901 E638.01169
G0 F9000 X108.8 Y12.861
G1 F1125 X108.8 Y207.138 E653.51972
G0 F9000 X110.4 Y207.138
G1 F1125 X110.4 Y12.863 E669.02759
G0 F9000 X112 Y12.877
G1 F1125 X112 Y207.125 E684.53331
G0 F9000 X113.6 Y207.073
G1 F1125 X113.6 Y12.928 E700.0308
G0 F9000 X115.2 Y12.994
G1 F1125 X115.2 Y207.005 E715.5176
G0 F9000 X116.8 Y206.901
G1 F1125 X116.8 Y13.1 E730.98763
