;FLAVOR:Marlin
;TIME:33726
;Filament used: 25.1307m
;Layer height: 0.2
;MINX:28.03
;MINY:34.762
;MINZ:0.2
;MAXX:191.97
;MAXY:186.099
;MAXZ:41.8
;Generated with Cura_SteamEngine 4.8.0
M140 S55
M105
M190 S55
M104 S210
M105
M109 S210
M82 ;absolute extrusion mode
; Ender 3 Custom Start G-code
G92 E0 ; Reset Extruder
G28 ; Home all axes
G1 Z2.0 F3000 ; Move Z Axis up little to prevent scratching of Heat Bed
G1 X0.1 Y20 Z0.3 F5000.0 ; Move to start position
G1 X0.1 Y200.0 Z0.3 F1500.0 E15 ; Draw the first line
G1 X0.4 Y200.0 Z0.3 F5000.0 ; Move to side a little
G1 X0.4 Y20 Z0.3 F1500.0 E30 ; Draw the second line
G92 E0 ; Reset Extruder
G1 Z2.0 F3000 ; Move Z Axis up little to prevent scratching of Heat Bed
G1 X5 Y20 Z0.3 F5000.0 ; Move over to prevent blob squish
G92 E0
G92 E0
G1 F1500 E-7
;LAYER_COUNT:209
;LAYER:0
M107
;MESH:forkV03.ipt
G0 F6000 X183.523 Y184.838 Z0.2
;TYPE:WALL-INNER
G1 F1500 E0
G1 F1200 X183.523 Y42.344 E4.73937
G1 X36.477 Y42.344 E9.63014
G1 X36.477 Y184.838 E14.36951
G1 X29.295 Y184.838 E14.60838
G1 X29.295 Y35.162 E19.58663
G1 X190.705 Y35.162 E24.95515
G1 X190.705 Y184.838 E29.93339
G1 X183.523 Y184.838 E30.17226
G0 F6000 X183.123 Y185.238
;TYPE:WALL-OUTER
G1 F1200 X183.123 Y42.744 E34.91163
G1 X36.877 Y42.744 E39.7758
G1 X36.877 Y185.238 E44.51517
G1 X28.895 Y185.238 E44.78065
G1 X28.895 Y34.762 E49.7855
G1 X191.105 Y34.762 E55.18063
G1 X191.105 Y185.238 E60.18548
G1 X183.123 Y185.238 E60.45096
G0 F6000 X183.393 Y184.968
G0 X183.633 Y184.448
G0 X183.913 Y184.448
;TYPE:SKIN
G1 F1200 X183.913 Y41.954 E65.19033
G1 X36.087 Y41.954 E70.10704
G1 X36.087 Y184.448 E74.84641
G1 X29.685 Y184.448 E75.05934
G1 X29.685 Y35.552 E80.01165
G1 X190.315 Y35.552 E85.35422
G1 X190.315 Y184.448 E90.30652
G1 X183.913 Y184.448 E90.51945
G1 F1500 E83.51945
G0 F6000 X183.633 Y184.448
G0 X190.523 Y184.656
G0 X190.595 Y36.288
G0 X190.154 Y36.288
G1 F1500 E90.51945
G1 F1200 X189.578 Y35.712 E90.54655
G0 F6000 X189.013 Y35.712
G1 F1200 X190.154 Y36.853 E90.60022
G0 F6000 X190.154 Y37.419
G1 F1200 X188.447 Y35.712 E90.68051
G0 F6000 X187.881 Y35.712
G1 F1200 X190.154 Y37.985 E90.78742
G0 F6000 X190.154 Y38.55
G1 F1200 X187.316 Y35.712 E90.92091
G0 F6000 X186.75 Y35.712
G1 F1200 X190.154 Y39.116 E91.08103
G0 F6000 X190.154 Y39.682
G1 F1200 X186.184 Y35.712 E91.26776
G0 F6000 X185.619 Y35.712
G1 F1200 X190.154 Y40.247 E91.48108
G0 F6000 X190.154 Y40.813
G1 F1200 X185.053 Y35.712 E91.72101
G0 F6000 X184.487 Y35.712
G1 F1200 X190.154 Y41.379 E91.98757
G0 F6000 X190.154 Y41.944
G1 F1200 X183.922 Y35.712 E92.2807
G0 F6000 X183.356 Y35.712
G1 F1200 X190.154 Y42.51 E92.60046
G0 F6000 X190.154 Y43.076
G1 F1200 X182.79 Y35.712 E92.94684
G0 F6000 X182.224 Y35.712
G1 F1200 X190.154 Y43.641 E93.31982
G0 F6000 X190.154 Y44.207
G1 F1200 X181.659 Y35.712 E93.7194
G0 F6000 X181.093 Y35.712
G1 F1200 X190.154 Y44.773 E94.1456
G0 F6000 X190.154 Y45.338
G1 F1200 X180.527 Y35.712 E94.5984
G0 F6000 X179.962 Y35.712
G1 F1200 X190.154 Y45.904 E95.0778
G0 F6000 X190.154 Y46.47
G1 F1200 X179.396 Y35.712 E95.58383
G0 F6000 X178.83 Y35.712
G1 F1200 X190.154 Y47.036 E96.11647
G0 F6000 X190.154 Y47.601
G1 F1200 X178.265 Y35.712 E96.67569
G0 F6000 X177.699 Y35.712
G1 F1200 X183.78 Y41.793 E96.96173
G0 F6000 X184.072 Y42.085
G1 F1200 X190.154 Y48.167 E97.2478
G0 F6000 X190.154 Y48.733
G1 F1200 X184.072 Y42.651 E97.53388
G0 F6000 X184.072 Y43.216
G1 F1200 X190.154 Y49.298 E97.81996
G0 F6000 X190.154 Y49.864
G1 F1200 X184.072 Y43.782 E98.10604
G0 F6000 X184.072 Y44.348
G1 F1200 X190.154 Y50.43 E98.39212
G0 F6000 X190.154 Y50.995
G1 F1200 X184.072 Y44.914 E98.67817
G0 F6000 X184.072 Y45.479
G1 F1200 X190.154 Y51.561 E98.96425
G0 F6000 X190.154 Y52.127
G1 F1200 X184.072 Y46.045 E99.25033
G0 F6000 X184.072 Y46.611
G1 F1200 X190.154 Y52.692 E99.53639
G0 F6000 X190.154 Y53.258
G1 F1200 X184.072 Y47.176 E99.82246
G0 F6000 X184.072 Y47.742
G1 F1200 X190.154 Y53.824 E100.10854
G0 F6000 X190.154 Y54.389
G1 F1200 X184.072 Y48.308 E100.3946
G0 F6000 X184.072 Y48.873
G1 F1200 X190.154 Y54.955 E100.68068
G0 F6000 X190.154 Y55.521
G1 F1200 X184.072 Y49.439 E100.96676
G0 F6000 X184.072 Y50.005
G1 F1200 X190.154 Y56.087 E101.25283
G0 F6000 X190.154 Y56.652
G1 F1200 X184.072 Y50.57 E101.53891
G0 F6000 X184.072 Y51.136
G1 F1200 X190.154 Y57.218 E101.82499
G0 F6000 X190.154 Y57.784
G1 F1200 X184.072 Y51.702 E102.11107
G0 F6000 X184.072 Y52.267
G1 F1200 X190.154 Y58.349 E102.39715
G0 F6000 X190.154 Y58.915
G1 F1200 X184.072 Y52.833 E102.68323
G0 F6000 X184.072 Y53.399
G1 F1200 X190.154 Y59.481 E102.96931
G0 F6000 X190.154 Y60.046
G1 F1200 X184.072 Y53.964 E103.25539
G0 F6000 X184.072 Y54.53
G1 F1200 X190.154 Y60.612 E103.54146
G0 F6000 X190.154 Y61.178
G1 F1200 X184.072 Y55.096 E103.82754
G0 F6000 X184.072 Y55.662
G1 F1200 X190.154 Y61.743 E104.1136
G0 F6000 X190.154 Y62.309
G1 F1200 X184.072 Y56.227 E104.39968
G0 F6000 X184.072 Y56.793
G1 F1200 X190.154 Y62.875 E104.68575
G0 F6000 X190.154 Y63.44
G1 F1200 X184.072 Y57.359 E104.97181
G0 F6000 X184.072 Y57.924
G1 F1200 X190.154 Y64.006 E105.25789
G0 F6000 X190.154 Y64.572
G1 F1200 X184.072 Y58.49 E105.54397
G0 F6000 X184.072 Y59.056
G1 F1200 X190.154 Y65.137 E105.83002
G0 F6000 X190.154 Y65.703
G1 F1200 X184.072 Y59.621 E106.1161
G0 F6000 X184.072 Y60.187
G1 F1200 X190.154 Y66.269 E106.40218
G0 F6000 X190.154 Y66.835
G1 F1200 X184.072 Y60.753 E106.68826
G0 F6000 X184.072 Y61.318
G1 F1200 X190.154 Y67.4 E106.97434
G0 F6000 X190.154 Y67.966
G1 F1200 X184.072 Y61.884 E107.26042
G0 F6000 X184.072 Y62.45
G1 F1200 X190.154 Y68.532 E107.54649
G0 F6000 X190.154 Y69.097
G1 F1200 X184.072 Y63.015 E107.83257
G0 F6000 X184.072 Y63.581
G1 F1200 X190.154 Y69.663 E108.11865
G0 F6000 X190.154 Y70.229
G1 F1200 X184.072 Y64.147 E108.40473
G0 F6000 X184.072 Y64.712
G1 F1200 X190.154 Y70.794 E108.69081
G0 F6000 X190.154 Y71.36
G1 F1200 X184.072 Y65.278 E108.97689
G0 F6000 X184.072 Y65.844
G1 F1200 X190.154 Y71.926 E109.26297
G0 F6000 X190.154 Y72.491
G1 F1200 X184.072 Y66.41 E109.54902
G0 F6000 X184.072 Y66.975
G1 F1200 X190.154 Y73.057 E109.8351
G0 F6000 X190.154 Y73.623
G1 F1200 X184.072 Y67.541 E110.12118
G0 F6000 X184.072 Y68.107
G1 F1200 X190.154 Y74.188 E110.40723
G0 F6000 X190.154 Y74.754
G1 F1200 X184.072 Y68.672 E110.69331
G0 F6000 X184.072 Y69.238
G1 F1200 X190.154 Y75.32 E110.97939
G0 F6000 X190.154 Y75.885
G1 F1200 X184.072 Y69.804 E111.26545
G0 F6000 X184.072 Y70.369
G1 F1200 X190.154 Y76.451 E111.55152
G0 F6000 X190.154 Y77.017
G1 F1200 X184.072 Y70.935 E111.8376
G0 F6000 X184.072 Y71.501
G1 F1200 X190.154 Y77.583 E112.12368
G0 F6000 X190.154 Y78.148
G1 F1200 X184.072 Y72.066 E112.40976
G0 F6000 X184.072 Y72.632
G1 F1200 X190.154 Y78.714 E112.69584
G0 F6000 X190.154 Y79.28
G1 F1200 X184.072 Y73.198 E112.98192
G0 F6000 X184.072 Y73.763
G1 F1200 X190.154 Y79.845 E113.268
G0 F6000 X190.154 Y80.411
G1 F1200 X184.072 Y74.329 E113.55407
G0 F6000 X184.072 Y74.895
G1 F1200 X190.154 Y80.977 E113.84015
G0 F6000 X190.154 Y81.542
G1 F1200 X184.072 Y75.461 E114.12621
G0 F6000 X184.072 Y76.026
G1 F1200 X190.154 Y82.108 E114.41229
G0 F6000 X190.154 Y82.674
G1 F1200 X184.072 Y76.592 E114.69837
G0 F6000 X184.072 Y77.158
G1 F1200 X190.154 Y83.239 E114.98442
G0 F6000 X190.154 Y83.805
G1 F1200 X184.072 Y77.723 E115.2705
G0 F6000 X184.072 Y78.289
G1 F1200 X190.154 Y84.371 E115.55658
G0 F6000 X190.154 Y84.936
G1 F1200 X184.072 Y78.855 E115.84263
G0 F6000 X184.072 Y79.42
G1 F1200 X190.154 Y85.502 E116.12871
G0 F6000 X190.154 Y86.068
G1 F1200 X184.072 Y79.986 E116.41479
G0 F6000 X184.072 Y80.552
G1 F1200 X190.154 Y86.634 E116.70087
G0 F6000 X190.154 Y87.199
G1 F1200 X184.072 Y81.117 E116.98695
G0 F6000 X184.072 Y81.683
G1 F1200 X190.154 Y87.765 E117.27303
G0 F6000 X190.154 Y88.331
G1 F1200 X184.072 Y82.249 E117.55911
G0 F6000 X184.072 Y82.814
G1 F1200 X190.154 Y88.896 E117.84518
G0 F6000 X190.154 Y89.462
G1 F1200 X184.072 Y83.38 E118.13126
G0 F6000 X184.072 Y83.946
G1 F1200 X190.154 Y90.028 E118.41734
G0 F6000 X190.154 Y90.593
G1 F1200 X184.072 Y84.511 E118.70342
G0 F6000 X184.072 Y85.077
G1 F1200 X190.154 Y91.159 E118.9895
G0 F6000 X190.154 Y91.725
G1 F1200 X184.072 Y85.643 E119.27558
G0 F6000 X184.072 Y86.209
G1 F1200 X190.154 Y92.29 E119.56163
G0 F6000 X190.154 Y92.856
G1 F1200 X184.072 Y86.774 E119.84771
G0 F6000 X184.072 Y87.34
G1 F1200 X190.154 Y93.422 E120.13379
G0 F6000 X190.154 Y93.987
G1 F1200 X184.072 Y87.906 E120.41984
G0 F6000 X184.072 Y88.471
G1 F1200 X190.154 Y94.553 E120.70592
G0 F6000 X190.154 Y95.119
G1 F1200 X184.072 Y89.037 E120.992
G0 F6000 X184.072 Y89.603
G1 F1200 X190.154 Y95.684 E121.27806
G0 F6000 X190.154 Y96.25
G1 F1200 X184.072 Y90.168 E121.56414
G0 F6000 X184.072 Y90.734
G1 F1200 X190.154 Y96.816 E121.85021
G0 F6000 X190.154 Y97.382
G1 F1200 X184.072 Y91.3 E122.13629
G0 F6000 X184.072 Y91.865
G1 F1200 X190.154 Y97.947 E122.42237
G0 F6000 X190.154 Y98.513
G1 F1200 X184.072 Y92.431 E122.70845
G0 F6000 X184.072 Y92.997
G1 F1200 X190.154 Y99.079 E122.99453
G0 F6000 X190.154 Y99.644
G1 F1200 X184.072 Y93.562 E123.28061
G0 F6000 X184.072 Y94.128
G1 F1200 X190.154 Y100.21 E123.56669
G0 F6000 X190.154 Y100.776
G1 F1200 X184.072 Y94.694 E123.85276
G0 F6000 X184.072 Y95.26
G1 F1200 X190.154 Y101.341 E124.13882
G0 F6000 X190.154 Y101.907
G1 F1200 X184.072 Y95.825 E124.4249
G0 F6000 X184.072 Y96.391
G1 F1200 X190.154 Y102.473 E124.71098
G0 F6000 X190.154 Y103.038
G1 F1200 X184.072 Y96.957 E124.99703
G0 F6000 X184.072 Y97.522
G1 F1200 X190.154 Y103.604 E125.28311
G0 F6000 X190.154 Y104.17
G1 F1200 X184.072 Y98.088 E125.56919
G0 F6000 X184.072 Y98.654
G1 F1200 X190.154 Y104.735 E125.85524
G0 F6000 X190.154 Y105.301
G1 F1200 X184.072 Y99.219 E126.14132
G0 F6000 X184.072 Y99.785
G1 F1200 X190.154 Y105.867 E126.4274
G0 F6000 X190.154 Y106.433
G1 F1200 X184.072 Y100.351 E126.71348
G0 F6000 X184.072 Y100.916
G1 F1200 X190.154 Y106.998 E126.99956
G0 F6000 X190.154 Y107.564
G1 F1200 X184.072 Y101.482 E127.28564
G0 F6000 X184.072 Y102.048
G1 F1200 X190.154 Y108.13 E127.57172
G0 F6000 X190.154 Y108.695
G1 F1200 X184.072 Y102.613 E127.85779
G0 F6000 X184.072 Y103.179
G1 F1200 X190.154 Y109.261 E128.14387
G0 F6000 X190.154 Y109.827
G1 F1200 X184.072 Y103.745 E128.42995
G0 F6000 X184.072 Y104.31
G1 F1200 X190.154 Y110.392 E128.71603
G0 F6000 X190.154 Y110.958
G1 F1200 X184.072 Y104.876 E129.00211
G0 F6000 X184.072 Y105.442
G1 F1200 X190.154 Y111.524 E129.28819
G0 F6000 X190.154 Y112.089
G1 F1200 X184.072 Y106.008 E129.57424
G0 F6000 X184.072 Y106.573
G1 F1200 X190.154 Y112.655 E129.86032
G0 F6000 X190.154 Y113.221
G1 F1200 X184.072 Y107.139 E130.1464
G0 F6000 X184.072 Y107.705
G1 F1200 X190.154 Y113.786 E130.43246
G0 F6000 X190.154 Y114.352
G1 F1200 X184.072 Y108.27 E130.71853
G0 F6000 X184.072 Y108.836
G1 F1200 X190.154 Y114.918 E131.00461
G0 F6000 X190.154 Y115.483
G1 F1200 X184.072 Y109.402 E131.29067
G0 F6000 X184.072 Y109.967
G1 F1200 X190.154 Y116.049 E131.57675
G0 F6000 X190.154 Y116.615
G1 F1200 X184.072 Y110.533 E131.86283
G0 F6000 X184.072 Y111.099
G1 F1200 X190.154 Y117.181 E132.1489
G0 F6000 X190.154 Y117.746
G1 F1200 X184.072 Y111.664 E132.43498
G0 F6000 X184.072 Y112.23
G1 F1200 X190.154 Y118.312 E132.72106
G0 F6000 X190.154 Y118.878
G1 F1200 X184.072 Y112.796 E133.00714
G0 F6000 X184.072 Y113.361
G1 F1200 X190.154 Y119.443 E133.29322
G0 F6000 X190.154 Y120.009
G1 F1200 X184.072 Y113.927 E133.5793
G0 F6000 X184.072 Y114.493
G1 F1200 X190.154 Y120.575 E133.86538
G0 F6000 X190.154 Y121.14
G1 F1200 X184.072 Y115.059 E134.15143
G0 F6000 X184.072 Y115.624
G1 F1200 X190.154 Y121.706 E134.43751
G0 F6000 X190.154 Y122.272
G1 F1200 X184.072 Y116.19 E134.72359
G0 F6000 X184.072 Y116.756
G1 F1200 X190.154 Y122.837 E135.00964
G0 F6000 X190.154 Y123.403
G1 F1200 X184.072 Y117.321 E135.29572
G0 F6000 X184.072 Y117.887
G1 F1200 X190.154 Y123.969 E135.5818
G0 F6000 X190.154 Y124.534
G1 F1200 X184.072 Y118.453 E135.86786
G0 F6000 X184.072 Y119.018
G1 F1200 X190.154 Y125.1 E136.15393
G0 F6000 X190.154 Y125.666
G1 F1200 X184.072 Y119.584 E136.44001
G0 F6000 X184.072 Y120.15
G1 F1200 X190.154 Y126.231 E136.72607
G0 F6000 X190.154 Y126.797
G1 F1200 X184.072 Y120.715 E137.01215
G0 F6000 X184.072 Y121.281
G1 F1200 X190.154 Y127.363 E137.29823
G0 F6000 X190.154 Y127.929
G1 F1200 X184.072 Y121.847 E137.5843
G0 F6000 X184.072 Y122.412
G1 F1200 X190.154 Y128.494 E137.87038
G0 F6000 X190.154 Y129.06
G1 F1200 X184.072 Y122.978 E138.15646
G0 F6000 X184.072 Y123.544
G1 F1200 X190.154 Y129.626 E138.44254
G0 F6000 X190.154 Y130.191
G1 F1200 X184.072 Y124.109 E138.72862
G0 F6000 X184.072 Y124.675
G1 F1200 X190.154 Y130.757 E139.0147
G0 F6000 X190.154 Y131.323
G1 F1200 X184.072 Y125.241 E139.30078
G0 F6000 X184.072 Y125.807
G1 F1200 X190.154 Y131.888 E139.58683
G0 F6000 X190.154 Y132.454
G1 F1200 X184.072 Y126.372 E139.87291
G0 F6000 X184.072 Y126.938
G1 F1200 X190.154 Y133.02 E140.15899
G0 F6000 X190.154 Y133.585
G1 F1200 X184.072 Y127.504 E140.44504
G0 F6000 X184.072 Y128.069
G1 F1200 X190.154 Y134.151 E140.73112
G0 F6000 X190.154 Y134.717
G1 F1200 X184.072 Y128.635 E141.0172
G0 F6000 X184.072 Y129.201
G1 F1200 X190.154 Y135.282 E141.30326
G0 F6000 X190.154 Y135.848
G1 F1200 X184.072 Y129.766 E141.58933
G0 F6000 X184.072 Y130.332
G1 F1200 X190.154 Y136.414 E141.87541
G0 F6000 X190.154 Y136.98
G1 F1200 X184.072 Y130.898 E142.16149
G0 F6000 X184.072 Y131.463
G1 F1200 X190.154 Y137.545 E142.44757
G0 F6000 X190.154 Y138.111
G1 F1200 X184.072 Y132.029 E142.73365
G0 F6000 X184.072 Y132.595
G1 F1200 X190.154 Y138.677 E143.01973
G0 F6000 X190.154 Y139.242
G1 F1200 X184.072 Y133.16 E143.30581
G0 F6000 X184.072 Y133.726
G1 F1200 X190.154 Y139.808 E143.59188
G0 F6000 X190.154 Y140.374
G1 F1200 X184.072 Y134.292 E143.87796
G0 F6000 X184.072 Y134.857
G1 F1200 X190.154 Y140.939 E144.16404
G0 F6000 X190.154 Y141.505
G1 F1200 X184.072 Y135.423 E144.45012
G0 F6000 X184.072 Y135.989
G1 F1200 X190.154 Y142.071 E144.7362
G0 F6000 X190.154 Y142.636
G1 F1200 X184.072 Y136.555 E145.02225
G0 F6000 X184.072 Y137.12
G1 F1200 X190.154 Y143.202 E145.30833
G0 F6000 X190.154 Y143.768
G1 F1200 X184.072 Y137.686 E145.59441
G0 F6000 X184.072 Y138.252
G1 F1200 X190.154 Y144.333 E145.88047
G0 F6000 X190.154 Y144.899
G1 F1200 X184.072 Y138.817 E146.16655
G0 F6000 X184.072 Y139.383
G1 F1200 X190.154 Y145.465 E146.45262
G0 F6000 X190.154 Y146.03
G1 F1200 X184.072 Y139.949 E146.73868
G0 F6000 X184.072 Y140.514
G1 F1200 X190.154 Y146.596 E147.02476
G0 F6000 X190.154 Y147.162
G1 F1200 X184.072 Y141.08 E147.31084
G0 F6000 X184.072 Y141.646
G1 F1200 X190.154 Y147.728 E147.59691
G0 F6000 X190.154 Y148.293
G1 F1200 X184.072 Y142.211 E147.88299
G0 F6000 X184.072 Y142.777
G1 F1200 X190.154 Y148.859 E148.16907
G0 F6000 X190.154 Y149.425
G1 F1200 X184.072 Y143.343 E148.45515
G0 F6000 X184.072 Y143.908
G1 F1200 X190.154 Y149.99 E148.74123
G0 F6000 X190.154 Y150.556
G1 F1200 X184.072 Y144.474 E149.02731
G0 F6000 X184.072 Y145.04
G1 F1200 X190.154 Y151.122 E149.31339
G0 F6000 X190.154 Y151.687
G1 F1200 X184.072 Y145.606 E149.59944
G0 F6000 X184.072 Y146.171
G1 F1200 X190.154 Y152.253 E149.88552
G0 F6000 X190.154 Y152.819
G1 F1200 X184.072 Y146.737 E150.1716
G0 F6000 X184.072 Y147.303
G1 F1200 X190.154 Y153.384 E150.45765
G0 F6000 X190.154 Y153.95
G1 F1200 X184.072 Y147.868 E150.74373
G0 F6000 X184.072 Y148.434
G1 F1200 X190.154 Y154.516 E151.02981
G0 F6000 X190.154 Y155.081
G1 F1200 X184.072 Y149 E151.31587
G0 F6000 X184.072 Y149.565
G1 F1200 X190.154 Y155.647 E151.60195
G0 F6000 X190.154 Y156.213
G1 F1200 X184.072 Y150.131 E151.88802
G0 F6000 X184.072 Y150.697
G1 F1200 X190.154 Y156.779 E152.1741
G0 F6000 X190.154 Y157.344
G1 F1200 X184.072 Y151.262 E152.46018
G0 F6000 X184.072 Y151.828
G1 F1200 X190.154 Y157.91 E152.74626
G0 F6000 X190.154 Y158.476
G1 F1200 X184.072 Y152.394 E153.03234
G0 F6000 X184.072 Y152.959
G1 F1200 X190.154 Y159.041 E153.31842
G0 F6000 X190.154 Y159.607
G1 F1200 X184.072 Y153.525 E153.6045
G0 F6000 X184.072 Y154.091
G1 F1200 X190.154 Y160.173 E153.89057
G0 F6000 X190.154 Y160.738
G1 F1200 X184.072 Y154.656 E154.17665
G0 F6000 X184.072 Y155.222
