;FLAVOR:Marlin
;TIME:6409
;Filament used: 5.30661m
;Layer height: 0.28
;MINX:96.006
;MINY:68.605
;MINZ:0.28
;MAXX:138.995
;MAXY:166.4
;MAXZ:22.68
;Generated with Cura_SteamEngine 4.6.1
M140 S60
M105
M190 S60
M104 S200
M105
M109 S200
M82 ;absolute extrusion mode
; Ender 3 Custom Start G-code
G92 E0 ; Reset Extruder
G28 ; Home all axes
G1 Z2.0 F3000 ; Move Z Axis up little to prevent scratching of Heat Bed
G1 X0.1 Y20 Z0.3 F5000.0 ; Move to start position
G1 X0.1 Y200.0 Z0.3 F1500.0 E15 ; Draw the first line
G1 X0.4 Y200.0 Z0.3 F5000.0 ; Move to side a little
G1 X0.4 Y20 Z0.3 F1500.0 E30 ; Draw the second line
G92 E0 ; Reset Extruder
G1 Z2.0 F3000 ; Move Z Axis up little to prevent scratching of Heat Bed
G1 X5 Y20 Z0.3 F5000.0 ; Move over to prevent blob squish
G92 E0
G92 E0
G1 F1500 E-6.5
;LAYER_COUNT:81
;LAYER:0
M107
G0 F6000 X124.669 Y69.499 Z0.28
;TYPE:SKIRT
G1 F1500 E0
G1 F1200 X125.034 Y69.536 E0.01708
G1 X125.927 Y69.667 E0.05911
G1 X126.806 Y69.876 E0.10118
G1 X127.793 Y70.214 E0.14976
G1 X128.073 Y70.326 E0.1638
G1 X128.542 Y70.527 E0.18756
G1 X129.095 Y70.781 E0.2159
G1 X129.899 Y71.194 E0.25799
G1 X130.662 Y71.676 E0.30001
G1 X131.38 Y72.224 E0.34207
G1 X132.047 Y72.834 E0.38416
G1 X132.763 Y73.628 E0.43394
G1 X132.904 Y73.802 E0.44437
G1 X133.441 Y74.528 E0.48642
G1 X133.996 Y75.455 E0.53673
G1 X134.17 Y75.784 E0.55406
G1 X134.556 Y76.601 E0.59613
G1 X134.869 Y77.448 E0.63818
G1 X135.186 Y78.716 E0.69904
G1 X135.249 Y79.06 E0.71532
G1 X135.372 Y79.954 E0.75735
G1 X135.414 Y80.683 E0.79135
G1 X135.44 Y82.042 E0.85464
G1 X135.44 Y89.96 E1.22333
G1 X135.477 Y92.566 E1.34469
G1 X135.586 Y95.134 E1.46438
G1 X135.763 Y97.637 E1.58122
G1 X136.015 Y100.179 E1.70017
G1 X136.336 Y102.687 E1.8179
G1 X136.73 Y105.192 E1.93598
G1 X137.196 Y107.7 E2.05476
G1 X137.767 Y110.343 E2.18067
G1 X137.916 Y110.991 E2.21163
G1 X138.08 Y111.88 E2.25372
G1 X138.174 Y113.021 E2.30703
G1 X138.195 Y114.009 E2.35305
G1 X138.186 Y117.753 E2.52739
G1 X138.192 Y121.081 E2.68235
G1 X138.184 Y121.794 E2.71555
G1 X138.134 Y122.696 E2.75762
G1 X137.975 Y123.74 E2.80679
G1 X137.871 Y124.234 E2.8303
G1 X137.409 Y126.266 E2.92733
G1 X136.922 Y128.721 E3.04388
G1 X136.489 Y131.284 E3.16491
G1 X136.142 Y133.761 E3.28138
G1 X135.861 Y136.286 E3.39968
G1 X135.653 Y138.804 E3.51732
G1 X135.515 Y141.329 E3.63507
G1 X135.441 Y145.059 E3.80879
G1 X135.44 Y153.44 E4.19905
G1 X135.43 Y154.146 E4.23193
G1 X135.4 Y154.799 E4.26236
G1 X135.383 Y155.016 E4.2725
G1 X135.273 Y155.912 E4.31453
G1 X135.083 Y156.795 E4.35659
G1 X134.782 Y157.754 E4.40339
G1 X134.605 Y158.233 E4.42717
G1 X134.254 Y159.066 E4.46926
G1 X133.832 Y159.864 E4.5113
G1 X133.477 Y160.425 E4.54221
G1 X133.363 Y160.593 E4.55166
G1 X132.824 Y161.317 E4.59369
G1 X132.304 Y161.906 E4.63028
G1 X131.658 Y162.537 E4.67233
G1 X130.959 Y163.108 E4.71436
G1 X130.211 Y163.615 E4.75643
G1 X129.097 Y164.21 E4.81524
G1 X128.251 Y164.596 E4.85854
G1 X127.414 Y164.934 E4.90057
G1 X126.55 Y165.197 E4.94263
G1 X125.666 Y165.382 E4.98468
G1 X125.036 Y165.465 E5.01427
G1 X124.528 Y165.516 E5.03804
G1 X124.173 Y165.545 E5.05463
G1 X123.652 Y165.579 E5.07894
G1 X122.5 Y165.589 E5.13258
G1 X122.12 Y165.571 E5.1503
G1 X119.476 Y165.479 E5.27349
G1 X116.913 Y165.464 E5.39284
G1 X114.41 Y165.52 E5.50941
G1 X113.866 Y165.546 E5.53477
G1 X112.475 Y165.6 E5.59959
G1 X111.324 Y165.58 E5.6532
G1 X110.472 Y165.513 E5.69299
G1 X109.949 Y165.46 E5.71747
G1 X109.055 Y165.329 E5.75954
G1 X108.176 Y165.12 E5.80161
G1 X107.127 Y164.758 E5.85329
G1 X106.916 Y164.672 E5.8639
G1 X106.513 Y164.497 E5.88435
G1 X105.894 Y164.213 E5.91607
G1 X105.09 Y163.8 E5.95816
G1 X104.326 Y163.318 E6.00022
G1 X103.608 Y162.771 E6.04225
G1 X102.942 Y162.161 E6.0843
G1 X102.331 Y161.496 E6.12635
G1 X101.975 Y161.046 E6.15307
G1 X101.795 Y160.805 E6.16708
G1 X101.287 Y160.058 E6.20914
G1 X100.793 Y159.159 E6.25691
G1 X100.689 Y158.945 E6.26799
G1 X100.331 Y158.116 E6.31003
G1 X100.025 Y157.18 E6.35589
G1 X99.947 Y156.895 E6.36965
G1 X99.747 Y156.014 E6.41171
G1 X99.626 Y155.119 E6.45377
G1 X99.588 Y154.435 E6.48567
G1 X99.56 Y153.11 E6.54738
G1 X99.56 Y145.014 E6.92436
G1 X99.523 Y142.408 E7.04572
G1 X99.414 Y139.842 E7.16531
G1 X99.236 Y137.335 E7.28234
G1 X98.985 Y134.794 E7.40124
G1 X98.664 Y132.287 E7.51893
G1 X98.27 Y129.782 E7.637
G1 X97.804 Y127.274 E7.75579
G1 X97.25 Y124.706 E7.87811
G1 X97.084 Y123.988 E7.91243
G1 X96.92 Y123.1 E7.95448
G1 X96.823 Y121.849 E8.0129
G1 X96.806 Y120.637 E8.06934
G1 X96.814 Y117.203 E8.22925
G1 X96.808 Y113.917 E8.38226
G1 X96.816 Y113.2 E8.41565
G1 X96.866 Y112.298 E8.45771
G1 X97.035 Y111.206 E8.50916
G1 X97.129 Y110.767 E8.53007
G1 X97.591 Y108.735 E8.6271
G1 X98.078 Y106.28 E8.74365
G1 X98.505 Y103.752 E8.86303
G1 X98.861 Y101.208 E8.98264
G1 X99.139 Y98.711 E9.09963
G1 X99.347 Y96.197 E9.21709
G1 X99.485 Y93.672 E9.33484
G1 X99.559 Y89.94 E9.50865
G1 X99.56 Y81.539 E9.89984
G1 X99.568 Y80.943 E9.92759
G1 X99.596 Y80.312 E9.95701
G1 X99.621 Y79.981 E9.97246
G1 X99.729 Y79.084 E10.01453
G1 X99.915 Y78.201 E10.05655
G1 X100.271 Y77.09 E10.11087
G1 X100.437 Y76.658 E10.13242
G1 X100.798 Y75.831 E10.17444
G1 X101.23 Y75.038 E10.21649
G1 X101.847 Y74.132 E10.26753
G1 X102.043 Y73.875 E10.28258
G1 X102.622 Y73.181 E10.32467
G1 X103.26 Y72.542 E10.36671
G1 X103.952 Y71.962 E10.40876
G1 X104.693 Y71.445 E10.45083
G1 X105.821 Y70.826 E10.51074
G1 X106.701 Y70.418 E10.55591
G1 X106.918 Y70.324 E10.56692
G1 X107.761 Y70.002 E10.60894
G1 X108.63 Y69.756 E10.65099
G1 X109.518 Y69.588 E10.69308
G1 X110.01 Y69.529 E10.71615
G1 X110.912 Y69.448 E10.75832
G1 X111.351 Y69.419 E10.77881
G1 X112.511 Y69.409 E10.83282
G1 X113.038 Y69.434 E10.85739
G1 X115.64 Y69.522 E10.97862
G1 X118.168 Y69.535 E11.09633
G1 X121.814 Y69.432 E11.26618
G1 X122.382 Y69.405 E11.29265
G1 X123.58 Y69.418 E11.34844
G1 X124.669 Y69.499 E11.39929
G0 F6000 X124.709 Y69.101
G1 F1200 X125.074 Y69.138 E11.41637
G1 X125.985 Y69.271 E11.45924
G1 X126.881 Y69.482 E11.50211
G1 X127.942 Y69.842 E11.55428
G1 X128.222 Y69.954 E11.56832
G1 X128.709 Y70.163 E11.593
G1 X129.262 Y70.417 E11.62133
G1 X130.081 Y70.838 E11.66421
G1 X130.861 Y71.327 E11.70708
G1 X131.595 Y71.883 E11.74996
G1 X132.278 Y72.5 E11.79281
G1 X133.073 Y73.376 E11.8479
G1 X133.214 Y73.55 E11.85833
G1 X133.763 Y74.29 E11.90123
G1 X134.349 Y75.268 E11.95432
G1 X134.523 Y75.597 E11.97165
G1 X134.918 Y76.429 E12.01454
G1 X135.239 Y77.292 E12.05741
G1 X135.484 Y78.179 E12.10026
G1 X135.58 Y78.643 E12.12232
G1 X135.643 Y78.987 E12.13861
G1 X135.769 Y79.899 E12.18148
G1 X135.814 Y80.675 E12.21767
G1 X135.84 Y82.042 E12.28134
G1 X135.84 Y89.954 E12.64975
G1 X135.877 Y92.579 E12.772
G1 X135.984 Y95.089 E12.88898
G1 X136.162 Y97.603 E13.00633
G1 X136.412 Y100.125 E13.12434
G1 X136.73 Y102.611 E13.24105
G1 X137.131 Y105.163 E13.36134
G1 X137.585 Y107.607 E13.47709
G1 X138.159 Y110.264 E13.60366
G1 X138.306 Y110.902 E13.63415
G1 X138.474 Y111.807 E13.67701
G1 X138.574 Y113.01 E13.73322
G1 X138.595 Y114.009 E13.77975
G1 X138.586 Y117.753 E13.95408
G1 X138.592 Y121.086 E14.10928
G1 X138.584 Y121.799 E14.14248
G1 X138.534 Y122.718 E14.18534
G1 X138.367 Y123.821 E14.23728
G1 X138.261 Y124.323 E14.26118
G1 X137.805 Y126.327 E14.35688
G1 X137.308 Y128.834 E14.47588
G1 X136.892 Y131.294 E14.59206
G1 X136.538 Y133.825 E14.71106
G1 X136.259 Y136.33 E14.82842
G1 X136.05 Y138.858 E14.94654
G1 X135.916 Y141.33 E15.06181
G1 X135.841 Y145.067 E15.23586
G1 X135.84 Y153.446 E15.62602
G1 X135.83 Y154.152 E15.6589
G1 X135.799 Y154.83 E15.6905
G1 X135.782 Y155.047 E15.70064
G1 X135.67 Y155.961 E15.74352
G1 X135.479 Y156.861 E15.78636
G1 X135.157 Y157.893 E15.8367
G1 X134.98 Y158.372 E15.86047
G1 X134.624 Y159.221 E15.90334
G1 X134.195 Y160.036 E15.94623
G1 X133.808 Y160.65 E15.98002
G1 X133.694 Y160.818 E15.98948
G1 X133.145 Y161.557 E16.03235
G1 X132.596 Y162.18 E16.07101
G1 X131.938 Y162.823 E16.11385
G1 X131.226 Y163.408 E16.15676
G1 X130.467 Y163.928 E16.1996
G1 X129.263 Y164.574 E16.26322
G1 X128.417 Y164.96 E16.30652
G1 X127.564 Y165.305 E16.34937
G1 X126.684 Y165.575 E16.39223
G1 X125.783 Y165.768 E16.43514
G1 X125.076 Y165.863 E16.46835
G1 X124.568 Y165.914 E16.49213
G1 X124.199 Y165.945 E16.50937
G1 X123.678 Y165.979 E16.53368
G1 X122.481 Y165.989 E16.58942
G1 X122.088 Y165.97 E16.60774
G1 X119.46 Y165.879 E16.73019
G1 X116.919 Y165.864 E16.84851
G1 X114.439 Y165.919 E16.96402
G1 X113.881 Y165.946 E16.99003
G1 X112.49 Y166 E17.05485
G1 X111.294 Y165.979 E17.11055
G1 X110.431 Y165.911 E17.15086
G1 X109.908 Y165.858 E17.17533
G1 X108.997 Y165.725 E17.2182
G1 X108.101 Y165.514 E17.26107
G1 X106.976 Y165.128 E17.31645
G1 X106.765 Y165.042 E17.32706
G1 X106.346 Y164.86 E17.34833
G1 X105.727 Y164.576 E17.38004
G1 X104.907 Y164.156 E17.42294
G1 X104.128 Y163.667 E17.46577
G1 X103.393 Y163.112 E17.50866
G1 X102.71 Y162.495 E17.55152
G1 X102.082 Y161.821 E17.59441
G1 X101.654 Y161.285 E17.62635
G1 X101.474 Y161.044 E17.64036
G1 X100.956 Y160.283 E17.68322
G1 X100.433 Y159.334 E17.73368
G1 X100.329 Y159.12 E17.74476
G1 X99.963 Y158.276 E17.78759
G1 X99.639 Y157.285 E17.83614
G1 X99.561 Y157 E17.8499
G1 X99.357 Y156.102 E17.89278
G1 X99.231 Y155.19 E17.93565
G1 X99.188 Y154.445 E17.9704
G1 X99.16 Y153.11 E18.03258
G1 X99.16 Y145.02 E18.40928
G1 X99.123 Y142.395 E18.53152
G1 X99.016 Y139.886 E18.64846
G1 X98.838 Y137.366 E18.76609
G1 X98.589 Y134.852 E18.88373
G1 X98.27 Y132.363 E19.00057
G1 X97.869 Y129.811 E19.12086
G1 X97.415 Y127.367 E19.23661
G1 X96.86 Y124.796 E19.35909
G1 X96.694 Y124.078 E19.3934
G1 X96.526 Y123.173 E19.43626
G1 X96.423 Y121.855 E19.49782
G1 X96.406 Y120.636 E19.55459
G1 X96.414 Y117.202 E19.71449
G1 X96.408 Y113.913 E19.86764
G1 X96.416 Y113.196 E19.90103
G1 X96.466 Y112.276 E19.94393
G1 X96.644 Y111.123 E19.99826
G1 X96.739 Y110.678 E20.01945
G1 X97.195 Y108.674 E20.11515
G1 X97.692 Y106.167 E20.23415
G1 X98.108 Y103.702 E20.35056
G1 X98.461 Y101.18 E20.46914
G1 X98.741 Y98.671 E20.58669
G1 X98.95 Y96.142 E20.70485
G1 X99.084 Y93.671 E20.82008
G1 X99.159 Y89.932 E20.99422
G1 X99.16 Y81.534 E21.38527
G1 X99.168 Y80.938 E21.41302
G1 X99.197 Y80.282 E21.4436
G1 X99.222 Y79.951 E21.45906
G1 X99.331 Y79.037 E21.50192
G1 X99.519 Y78.135 E21.54482
G1 X99.897 Y76.947 E21.60287
G1 X100.063 Y76.515 E21.62442
G1 X100.431 Y75.671 E21.66729
G1 X100.87 Y74.861 E21.71019
G1 X101.529 Y73.889 E21.76488
G1 X101.725 Y73.632 E21.77993
G1 X102.315 Y72.925 E21.8228
G1 X102.964 Y72.272 E21.86567
G1 X103.667 Y71.677 E21.90856
G1 X104.419 Y71.146 E21.95143
G1 X105.214 Y70.682 E21.99429
G1 X105.651 Y70.464 E22.01703
G1 X106.542 Y70.051 E22.06276
G1 X106.759 Y69.957 E22.07377
G1 X107.619 Y69.628 E22.11664
G1 X108.504 Y69.375 E22.1595
G1 X109.408 Y69.2 E22.20238
G1 X109.972 Y69.131 E22.22884
G1 X110.885 Y69.049 E22.27152
G1 X111.324 Y69.02 E22.29201
G1 X112.53 Y69.009 E22.34817
G1 X113.071 Y69.035 E22.37339
G1 X115.655 Y69.122 E22.49378
G1 X118.159 Y69.135 E22.61038
G1 X121.783 Y69.033 E22.77919
G1 X122.363 Y69.005 E22.80623
G1 X123.608 Y69.019 E22.86421
G1 X124.709 Y69.101 E22.91561
G0 F6000 X124.749 Y68.703
G1 F1200 X125.114 Y68.74 E22.9327
G1 X126.043 Y68.874 E22.9764
G1 X126.956 Y69.087 E23.02006
G1 X128.09 Y69.471 E23.07581
G1 X128.37 Y69.583 E23.08985
G1 X128.876 Y69.8 E23.11549
G1 X129.429 Y70.054 E23.14382
G1 X130.264 Y70.481 E23.18749
G1 X131.059 Y70.978 E23.23115
G1 X131.81 Y71.541 E23.27486
G1 X132.509 Y72.166 E23.31852
G1 X133.384 Y73.125 E23.37897
G1 X133.525 Y73.299 E23.38939
G1 X134.084 Y74.052 E23.43306
G1 X134.703 Y75.081 E23.48898
G1 X134.877 Y75.41 E23.50631
G1 X135.28 Y76.257 E23.54999
G1 X135.609 Y77.136 E23.59369
G1 X135.862 Y78.039 E23.63736
G1 X135.973 Y78.571 E23.66266
G1 X136.036 Y78.915 E23.67895
G1 X136.166 Y79.844 E23.72263
G1 X136.214 Y80.666 E23.76097
G1 X136.24 Y82.042 E23.82505
G1 X136.24 Y89.948 E24.19319
G1 X136.277 Y92.556 E24.31464
G1 X136.384 Y95.078 E24.43218
G1 X136.561 Y97.574 E24.54869
G1 X136.808 Y100.071 E24.66553
G1 X137.128 Y102.565 E24.78262
G1 X137.519 Y105.058 E24.90012
G1 X137.985 Y107.561 E25.01867
G1 X138.544 Y110.153 E25.14214
G1 X138.696 Y110.812 E25.17363
G1 X138.868 Y111.734 E25.21731
G1 X138.973 Y113 E25.27646
G1 X138.995 Y114.01 E25.3235
G1 X138.986 Y117.754 E25.49784
G1 X138.992 Y121.09 E25.65317
G1 X138.984 Y121.803 E25.68638
G1 X138.934 Y122.74 E25.73007
G1 X138.758 Y123.901 E25.78475
G1 X138.651 Y124.411 E25.80901
G1 X138.194 Y126.421 E25.905
G1 X137.702 Y128.901 E26.02273
G1 X137.288 Y131.35 E26.13838
G1 X136.933 Y133.887 E26.25766
G1 X136.661 Y136.336 E26.3724
G1 X136.451 Y138.877 E26.49112
G1 X136.315 Y141.36 E26.60692
G1 X136.241 Y145.075 E26.77994
G1 X136.24 Y153.452 E27.17
G1 X136.23 Y154.158 E27.20288
G1 X136.197 Y154.861 E27.23565
G1 X136.18 Y155.078 E27.24579
G1 X136.067 Y156.009 E27.28946
G1 X135.875 Y156.927 E27.33313
G1 X135.532 Y158.032 E27.387
G1 X135.355 Y158.511 E27.41078
G1 X134.993 Y159.376 E27.45444
G1 X134.558 Y160.207 E27.49812
G1 X134.139 Y160.875 E27.53484
G1 X134.025 Y161.043 E27.54429
G1 X133.466 Y161.795 E27.58792
G1 X132.888 Y162.453 E27.6287
G1 X132.218 Y163.11 E27.6724
G1 X131.494 Y163.706 E27.71607
G1 X130.723 Y164.239 E27.75971
G1 X129.908 Y164.705 E27.80342
G1 X129.429 Y164.938 E27.82823
G1 X128.583 Y165.324 E27.87153
G1 X127.714 Y165.676 E27.91519
G1 X126.818 Y165.953 E27.95886
G1 X125.902 Y166.153 E28.00251
G1 X125.116 Y166.261 E28.03946
G1 X124.608 Y166.312 E28.06323
G1 X124.225 Y166.344 E28.08113
G1 X123.704 Y166.378 E28.10544
G1 X122.462 Y166.388 E28.16327
G1 X122.055 Y166.369 E28.18224
G1 X119.478 Y166.279 E28.30231
G1 X116.926 Y166.264 E28.42115
G1 X114.432 Y166.319 E28.53731
G1 X113.897 Y166.346 E28.56225
G1 X112.506 Y166.4 E28.62707
G1 X111.264 Y166.378 E28.68491
G1 X110.391 Y166.309 E28.72569
G1 X109.868 Y166.256 E28.75017
G1 X108.94 Y166.122 E28.79383
G1 X108.026 Y165.909 E28.83753
G1 X106.825 Y165.498 E28.89663
G1 X106.614 Y165.412 E28.90724
G1 X106.179 Y165.224 E28.92931
G1 X105.56 Y164.94 E28.96102
G1 X104.725 Y164.513 E29.00469
G1 X103.929 Y164.016 E29.04839
G1 X103.179 Y163.454 E29.09203
G1 X102.479 Y162.829 E29.13573
G1 X101.835 Y162.147 E29.1794
G1 X101.334 Y161.524 E29.21663
G1 X101.154 Y161.283 E29.23064
G1 X100.625 Y160.509 E29.27429
G1 X100.073 Y159.509 E29.32748
G1 X99.969 Y159.295 E29.33856
G1 X99.596 Y158.435 E29.38221
G1 X99.253 Y157.391 E29.43338
G1 X99.175 Y157.106 E29.44713
G1 X98.966 Y156.191 E29.49084
G1 X98.836 Y155.263 E29.53447
G1 X98.788 Y154.454 E29.57221
G1 X98.76 Y153.11 E29.6348
G1 X98.76 Y145.026 E30.01123
G1 X98.723 Y142.417 E30.13273
G1 X98.616 Y139.895 E30.25027
G1 X98.439 Y137.401 E30.36669
G1 X98.192 Y134.906 E30.48344
G1 X97.872 Y132.405 E30.60084
G1 X97.481 Y129.916 E30.71816
G1 X97.015 Y127.413 E30.83672
G1 X96.454 Y124.814 E30.96052
G1 X96.305 Y124.168 E30.99139
G1 X96.133 Y123.246 E31.03507
G1 X96.023 Y121.861 E31.09976
G1 X96.006 Y120.635 E31.15685
G1 X96.014 Y117.201 E31.31676
G1 X96.008 Y113.908 E31.47009
G1 X96.016 Y113.191 E31.50348
G1 X96.066 Y112.255 E31.54713
G1 X96.253 Y111.04 E31.60437
G1 X96.349 Y110.59 E31.62579
G1 X96.806 Y108.58 E31.72178
G1 X97.298 Y106.1 E31.83951
G1 X97.712 Y103.651 E31.95516
G1 X98.067 Y101.113 E32.07449
G1 X98.339 Y98.665 E32.18918
G1 X98.549 Y96.123 E32.30795
G1 X98.685 Y93.641 E32.4237
G1 X98.759 Y89.924 E32.59681
G1 X98.76 Y81.528 E32.98776
G1 X98.768 Y80.932 E33.01552
G1 X98.798 Y80.252 E33.04721
G1 X98.823 Y79.921 E33.06267
G1 X98.934 Y78.989 E33.10637
G1 X99.123 Y78.071 E33.15001
G1 X99.524 Y76.803 E33.21194
G1 X99.69 Y76.371 E33.23349
G1 X100.063 Y75.511 E33.27714
G1 X100.509 Y74.686 E33.32081
G1 X101.211 Y73.646 E33.37924
G1 X101.407 Y73.389 E33.39429
G1 X102.007 Y72.669 E33.43793
G1 X102.667 Y72.002 E33.48162
G1 X103.38 Y71.393 E33.52528
G1 X104.143 Y70.847 E33.56897
G1 X104.95 Y70.369 E33.61265
G1 X105.481 Y70.102 E33.64032
G1 X106.383 Y69.684 E33.68661
G1 X106.6 Y69.59 E33.69762
G1 X107.475 Y69.255 E33.74125
G1 X108.376 Y68.995 E33.78492
G1 X109.296 Y68.812 E33.8286
G1 X109.934 Y68.733 E33.85853
G1 X110.859 Y68.65 E33.90178
G1 X111.298 Y68.621 E33.92226
G1 X112.549 Y68.61 E33.98052
G1 X113.032 Y68.633 E34.00303
