;FLAVOR:Marlin
;TIME:4753
;Filament used: 2.92575m
;Layer height: 0.2
;MINX:89.882
;MINY:89.199
;MINZ:0.2
;MAXX:130.901
;MAXY:130.962
;MAXZ:28.4
;Generated with Cura_SteamEngine 4.8.0
M140 S60
M105
M190 S60
M104 S200
M105
M109 S200
M82 ;absolute extrusion mode
; Ender 3 Custom Start G-code
G92 E0 ; Reset Extruder
G28 ; Home all axes
G1 Z2.0 F3000 ; Move Z Axis up little to prevent scratching of Heat Bed
G1 X0.1 Y20 Z0.3 F5000.0 ; Move to start position
G1 X0.1 Y200.0 Z0.3 F1500.0 E15 ; Draw the first line
G1 X0.4 Y200.0 Z0.3 F5000.0 ; Move to side a little
G1 X0.4 Y20 Z0.3 F1500.0 E30 ; Draw the second line
G92 E0 ; Reset Extruder
G1 Z2.0 F3000 ; Move Z Axis up little to prevent scratching of Heat Bed
G1 X5 Y20 Z0.3 F5000.0 ; Move over to prevent blob squish
G92 E0
G92 E0
G1 F1500 E-7
;LAYER_COUNT:142
;LAYER:0
M107
;MESH:InteriorDustCover.ipt
G0 F6000 X95.656 Y113.737 Z0.2
;TYPE:WALL-INNER
G1 F1500 E0
G1 F1200 X96.277 Y114.023 E0.02274
G1 X96.57 Y114.143 E0.03327
G1 X96.871 Y114.25 E0.0439
G1 X97.186 Y114.351 E0.0549
G1 X97.522 Y114.433 E0.0664
G1 X97.901 Y114.496 E0.07918
G1 X98.307 Y114.532 E0.09274
G1 X98.754 Y114.546 E0.10761
G1 X99.119 Y114.535 E0.11976
G1 X99.475 Y114.497 E0.13166
G1 X99.809 Y114.43 E0.14299
G1 X100.118 Y114.334 E0.15376
G1 X100.422 Y114.201 E0.16479
G1 X100.89 Y113.912 E0.18309
G1 X101.164 Y113.686 E0.1949
G1 X101.519 Y113.281 E0.21281
G1 X101.673 Y113.002 E0.22341
G1 X101.722 Y112.913 E0.22679
G1 X101.792 Y112.788 E0.23156
G1 X101.876 Y112.566 E0.23945
G1 X101.883 Y112.547 E0.24012
G1 X101.884 Y112.568
G1 X101.923 Y112.76 E0.24092
G1 X101.985 Y113.058 E0.24782
G1 X102.024 Y113.152 E0.25083
G1 X102.172 Y113.502 E0.26346
G1 X102.449 Y113.879 E0.27902
G1 X102.799 Y114.168 E0.29412
G1 X103.199 Y114.367 E0.30898
G1 X103.636 Y114.483 E0.32402
G1 X104.114 Y114.522 E0.33997
G1 X104.421 Y114.508 E0.35019
G1 X104.719 Y114.474 E0.36017
G1 X105.043 Y114.414 E0.37113
G1 X105.791 Y114.232 E0.39673
G1 X105.791 Y113.927 E0.40688
G1 X105.791 Y113.808 E0.41083
G1 X105.791 Y113.582 E0.41835
G1 X105.791 Y113.546 E0.41955
G1 X105.822 Y113.582
G1 X106.068 Y113.808 E0.42541
G1 X106.164 Y113.877 E0.4288
G1 X106.341 Y114.006 E0.43609
G1 X106.634 Y114.172 E0.44729
G1 X106.948 Y114.306 E0.45864
G1 X107.279 Y114.41 E0.47018
G1 X107.628 Y114.482 E0.48204
G1 X107.991 Y114.525 E0.49419
G1 X108.366 Y114.539 E0.50667
G1 X108.728 Y114.53 E0.51872
G1 X109.044 Y114.495 E0.52929
G1 X109.337 Y114.433 E0.53925
G1 X109.622 Y114.359 E0.54905
G1 X109.983 Y114.241 E0.56168
G1 X110.245 Y114.14 E0.57102
G1 X110.935 Y113.863 E0.59575
G1 X110.935 Y113.62 E0.60383
G1 X110.935 Y113.327 E0.61358
G1 X110.935 Y113.064 E0.62232
G1 X111.114 Y113.327 E0.62574
G1 X111.306 Y113.548 E0.63296
G1 X111.336 Y113.582 E0.63447
G1 X111.582 Y113.808 E0.64558
G1 X111.856 Y114.006 E0.65682
G1 X112.15 Y114.172 E0.66805
G1 X112.463 Y114.306 E0.67938
G1 X112.794 Y114.41 E0.69092
G1 X113.143 Y114.482 E0.70277
G1 X113.505 Y114.525 E0.71489
G1 X113.88 Y114.539 E0.72737
G1 X114.243 Y114.53 E0.73945
G1 X114.558 Y114.495 E0.74999
G1 X114.851 Y114.433 E0.75995
G1 X115.137 Y114.359 E0.76978
G1 X115.497 Y114.241 E0.78238
G1 X115.76 Y114.14 E0.79175
G1 X116.075 Y114.013 E0.80305
G1 X116.349 Y113.903 E0.81287
G1 X116.349 Y114.198 E0.81862
G1 X116.349 Y114.41 E0.82567
G1 X118.512 Y114.41 E0.89761
G1 X118.512 Y113.173 E0.93876
G1 X118.512 Y113.045 E0.94301
G1 X118.512 Y112.743 E0.95306
G1 X118.512 Y112.42 E0.9638
G1 X118.512 Y112.301 E0.96776
G1 X118.546 Y112.42 E0.96803
G1 X118.674 Y112.743 E0.97132
G1 X118.832 Y113.045 E0.97854
G1 X118.904 Y113.15 E0.98237
G1 X119.024 Y113.327 E0.98948
G1 X119.246 Y113.582 E1.00073
G1 X119.492 Y113.808 E1.01184
G1 X119.766 Y114.006 E1.02308
G1 X120.06 Y114.172 E1.03431
G1 X120.373 Y114.306 E1.04564
G1 X120.704 Y114.41 E1.05718
G1 X121.053 Y114.482 E1.06903
G1 X121.415 Y114.525 E1.08115
G1 X121.79 Y114.539 E1.09364
G1 X122.153 Y114.53 E1.10571
G1 X122.469 Y114.495 E1.11629
G1 X122.761 Y114.433 E1.12622
G1 X123.047 Y114.359 E1.13604
G1 X123.408 Y114.241 E1.14867
G1 X123.67 Y114.14 E1.15801
G1 X124.36 Y113.863 E1.18274
G1 X124.36 Y111.65 E1.25635
G1 X124.465 Y111.65 E1.25984
G1 X124.465 Y110.516 E1.29756
G1 X124.454 Y110.17 E1.30907
G1 X124.421 Y109.823 E1.32066
G1 X124.361 Y109.493 E1.33182
G1 X124.274 Y109.183 E1.34253
G1 X124.15 Y108.875 E1.35357
G1 X123.87 Y108.397 E1.372
G1 X123.479 Y107.972 E1.3912
G1 X123.012 Y107.649 E1.41009
G1 X122.494 Y107.448 E1.42857
G1 X122.162 Y107.375 E1.43988
G1 X121.608 Y107.333 E1.45836
G1 X121.248 Y107.344 E1.47033
G1 X120.911 Y107.389 E1.48164
G1 X120.589 Y107.469 E1.49268
G1 X120.279 Y107.581 E1.50364
G1 X119.987 Y107.727 E1.5145
G1 X119.711 Y107.904 E1.5254
G1 X119.456 Y108.113 E1.53637
G1 X119.221 Y108.351 E1.5475
G1 X119.01 Y108.615 E1.55874
G1 X118.903 Y108.779 E1.56525
G1 X118.826 Y108.899 E1.56999
G1 X118.673 Y109.205 E1.58137
G1 X118.549 Y109.528 E1.59288
G1 X118.512 Y109.659 E1.59741
G1 X118.512 Y109.528 E1.59758
G1 X118.512 Y109.205 E1.6001
G1 X118.512 Y108.899 E1.60604
G1 X118.512 Y108.756 E1.61031
G1 X118.512 Y105.25 E1.72692
G1 X116.349 Y105.25 E1.79886
G1 X116.349 Y108.384 E1.9031
G1 X116.349 Y108.612 E1.91068
G1 X116.349 Y108.918 E1.92086
G1 X116.349 Y109.166 E1.92911
G1 X116.259 Y108.918 E1.93042
G1 X116.101 Y108.612 E1.93581
G1 X115.965 Y108.429 E1.94204
G1 X115.774 Y108.172 E1.95269
G1 X115.345 Y107.796 E1.97166
G1 X114.841 Y107.533 E1.99057
G1 X114.3 Y107.385 E2.00922
G1 X113.971 Y107.343 E2.02026
G1 X113.662 Y107.331 E2.03054
G1 X113.335 Y107.345 E2.04143
G1 X113.002 Y107.389 E2.0526
G1 X112.679 Y107.469 E2.06367
G1 X112.369 Y107.581 E2.07463
G1 X112.077 Y107.727 E2.08549
G1 X111.801 Y107.904 E2.09639
G1 X111.546 Y108.113 E2.10736
G1 X111.311 Y108.351 E2.11848
G1 X111.1 Y108.615 E2.12972
G1 X111.008 Y108.758 E2.13538
G1 X110.917 Y108.899 E2.14096
G1 X110.888 Y108.957 E2.14312
G1 X110.815 Y109.1 E2.14846
G1 X110.76 Y108.962 E2.14946
G1 X110.726 Y108.876 E2.15026
G1 X110.641 Y108.732 E2.15582
G1 X110.445 Y108.397 E2.16873
G1 X110.055 Y107.972 E2.18791
G1 X109.587 Y107.649 E2.20683
G1 X109.07 Y107.448 E2.22528
G1 X108.737 Y107.375 E2.23661
G1 X108.183 Y107.333 E2.25509
G1 X107.823 Y107.344 E2.26707
G1 X107.486 Y107.389 E2.27838
G1 X107.164 Y107.469 E2.28942
G1 X106.855 Y107.581 E2.30035
G1 X106.563 Y107.727 E2.31121
G1 X106.287 Y107.904 E2.32211
G1 X106.16 Y108.008 E2.32757
G1 X106.032 Y108.113 E2.33308
G1 X105.791 Y108.358 E2.34451
G1 X105.791 Y108.113 E2.34632
G1 X105.791 Y107.947 E2.35086
G1 X105.791 Y107.492 E2.36599
G1 X104.019 Y107.492 E2.42493
G1 X104.019 Y105.849 E2.47957
G1 X101.856 Y105.849 E2.55151
G1 X101.856 Y106.161 E2.56189
G1 X101.856 Y107.492 E2.60616
G1 X101.74 Y107.492 E2.61002
G1 X101.74 Y106.161 E2.62289
G1 X101.719 Y106.152
G1 X101.122 Y105.881 E2.64469
G1 X100.831 Y105.769 E2.65507
G1 X100.527 Y105.673 E2.66567
G1 X100.214 Y105.595 E2.6764
G1 X99.892 Y105.532 E2.68731
G1 X99.56 Y105.489 E2.69845
G1 X99.222 Y105.462 E2.70972
G1 X98.871 Y105.454 E2.7214
G1 X98.557 Y105.465 E2.73185
G1 X98.249 Y105.499 E2.74216
G1 X97.937 Y105.561 E2.75274
G1 X97.416 Y105.736 E2.77102
G1 X97.11 Y105.892 E2.78244
G1 X96.669 Y106.203 E2.80039
G1 X96.419 Y106.437 E2.81178
G1 X96.091 Y106.861 E2.82961
G1 X95.849 Y107.368 E2.84829
G1 X95.727 Y107.919 E2.86706
G1 X95.719 Y108.474 E2.88552
G1 X95.796 Y108.978 E2.90248
G1 X95.964 Y109.431 E2.91855
G1 X96.204 Y109.827 E2.93395
G1 X96.514 Y110.168 E2.94928
G1 X96.875 Y110.439 E2.96429
G1 X97.263 Y110.639 E2.97881
G1 X97.672 Y110.793 E2.99335
G1 X98.108 Y110.913 E3.00839
G1 X98.803 Y111.082 E3.03218
G1 X99.108 Y111.16 E3.04265
G1 X99.544 Y111.319 E3.05808
G1 X99.716 Y111.488 E3.0661
G1 X99.774 Y111.77 E3.07568
G1 X99.719 Y112.051 E3.0852
G1 X99.559 Y112.258 E3.09391
G1 X99.264 Y112.399 E3.10478
G1 X99.019 Y112.448 E3.11309
G1 X98.699 Y112.466 E3.12375
G1 X98.216 Y112.417 E3.1399
G1 X97.962 Y112.352 E3.14862
G1 X97.701 Y112.259 E3.15783
G1 X97.448 Y112.142 E3.1671
G1 X97.197 Y111.999 E3.17671
G1 X96.968 Y111.838 E3.18602
G1 X96.593 Y111.516 E3.20246
G1 X95.878 Y111.432 E3.22641
G1 X95.656 Y111.407 E3.23384
G1 X95.656 Y111.63 E3.23849
G1 X95.656 Y111.631 E3.23853
G1 X95.656 Y113.737 E3.30857
G0 F6000 X96.056 Y113.481
;TYPE:WALL-OUTER
G1 F1200 X96.436 Y113.656 E3.32249
G1 X96.713 Y113.769 E3.33244
G1 X96.999 Y113.871 E3.34254
G1 X97.295 Y113.966 E3.35288
G1 X97.602 Y114.041 E3.36339
G1 X97.952 Y114.099 E3.37519
G1 X98.331 Y114.133 E3.38784
G1 X98.754 Y114.146 E3.40192
G1 X99.091 Y114.136 E3.41313
G1 X99.414 Y114.101 E3.42394
G1 X99.71 Y114.042 E3.43398
G1 X99.978 Y113.959 E3.44331
G1 X100.236 Y113.846 E3.45268
G1 X100.657 Y113.586 E3.46914
G1 X100.885 Y113.398 E3.47896
G1 X101.19 Y113.05 E3.49436
G1 X101.428 Y112.62 E3.5107
G1 X101.527 Y112.358 E3.52002
G1 X101.621 Y111.902 E3.5355
G1 X101.632 Y111.465 E3.55004
G1 X101.585 Y111.106 E3.56208
G1 X101.487 Y110.775 E3.57357
G1 X101.336 Y110.472 E3.58483
G1 X101.132 Y110.199 E3.59616
G1 X100.873 Y109.962 E3.60784
G1 X100.562 Y109.763 E3.62012
G1 X100.2 Y109.599 E3.63334
G1 X99.83 Y109.481 E3.64625
G1 X99.438 Y109.378 E3.65973
G1 X98.6 Y109.171 E3.68844
G1 X98.322 Y109.095 E3.69803
G1 X98.042 Y108.975 E3.70816
G1 X97.839 Y108.828 E3.7165
G1 X97.691 Y108.646 E3.7243
G1 X97.603 Y108.423 E3.73227
G1 X97.569 Y108.136 E3.74188
G1 X97.655 Y107.738 E3.75543
G1 X97.837 Y107.496 E3.7655
G1 X98.23 Y107.252 E3.78088
G1 X98.485 Y107.177 E3.78973
G1 X98.769 Y107.138 E3.79926
G1 X99.075 Y107.134 E3.80944
G1 X99.361 Y107.162 E3.819
G1 X99.635 Y107.217 E3.82829
G1 X99.913 Y107.304 E3.83798
G1 X100.169 Y107.413 E3.84723
G1 X100.428 Y107.547 E3.85693
G1 X100.638 Y107.677 E3.86515
G1 X100.844 Y107.83 E3.87368
G1 X100.992 Y107.958 E3.88019
G1 X101.34 Y107.958 E3.89177
G1 X101.34 Y106.419 E3.94295
G1 X100.968 Y106.25 E3.95654
G1 X100.699 Y106.147 E3.96612
G1 X100.418 Y106.058 E3.97593
G1 X100.127 Y105.986 E3.9859
G1 X99.828 Y105.927 E3.99603
G1 X99.519 Y105.887 E4.0064
G1 X99.201 Y105.862 E4.01701
G1 X98.873 Y105.854 E4.02792
G1 X98.586 Y105.864 E4.03747
G1 X98.31 Y105.895 E4.04671
G1 X98.04 Y105.948 E4.05586
G1 X97.571 Y106.106 E4.07232
G1 X97.317 Y106.235 E4.08179
G1 X96.922 Y106.514 E4.09788
G1 X96.716 Y106.707 E4.10727
G1 X96.434 Y107.072 E4.12261
G1 X96.23 Y107.499 E4.13835
G1 X96.126 Y107.966 E4.15426
G1 X96.119 Y108.446 E4.17023
G1 X96.185 Y108.877 E4.18473
G1 X96.326 Y109.256 E4.19818
G1 X96.526 Y109.587 E4.21104
G1 X96.784 Y109.871 E4.2238
G1 X97.088 Y110.099 E4.23644
G1 X97.425 Y110.273 E4.24906
G1 X97.796 Y110.412 E4.26224
G1 X98.208 Y110.526 E4.27645
G1 X98.897 Y110.693 E4.30003
G1 X99.22 Y110.776 E4.31112
G1 X99.483 Y110.853 E4.32024
G1 X99.75 Y110.973 E4.32998
G1 X99.944 Y111.122 E4.33811
G1 X100.073 Y111.299 E4.3454
G1 X100.149 Y111.514 E4.35298
G1 X100.179 Y111.787 E4.36212
G1 X100.094 Y112.222 E4.37686
G1 X99.834 Y112.556 E4.39094
G1 X99.63 Y112.688 E4.39902
G1 X99.377 Y112.784 E4.40802
G1 X99.07 Y112.845 E4.41843
G1 X98.697 Y112.867 E4.43086
G1 X98.421 Y112.856 E4.44004
G1 X98.138 Y112.81 E4.44958
G1 X97.84 Y112.733 E4.45982
G1 X97.556 Y112.632 E4.46984
G1 X97.26 Y112.496 E4.48068
G1 X96.984 Y112.338 E4.49125
G1 X96.72 Y112.152 E4.50199
G1 X96.425 Y111.899 E4.51492
G1 X96.056 Y111.856 E4.52728
G1 X96.056 Y113.481 E4.58132
G1 F1500 E-2.41868
G0 F6000 X95.971 Y113.661
G0 X97.568 Y114.177
G0 X98.754 Y114.286
G0 X99.743 Y114.177
G0 X100.304 Y113.968
G0 X100.987 Y113.493
G0 X101.198 Y113.233
G0 X102.303 Y113.143
G0 X102.641 Y113.699
G0 X102.942 Y113.948
G0 X103.289 Y114.12
G0 X104.114 Y114.26
G0 X104.99 Y114.161
G0 X106.487 Y113.789
G0 X107.345 Y114.156
G0 X108.369 Y114.279
G0 X109.274 Y114.18
G0 X111.524 Y113.401
G0 X112.266 Y113.938
G0 X113.188 Y114.225
G0 X114.226 Y114.27
G0 X118.24 Y114.138
G0 X118.91 Y112.632
G0 X119.434 Y113.401
G0 X120.176 Y113.938
G0 X121.098 Y114.225
G0 X122.136 Y114.27
G0 X122.974 Y114.109
G0 X124.093 Y113.682
G0 X124.08 Y111.877
G0 X120.583 Y111.65
;TYPE:WALL-INNER
G1 F1500 E4.58132
G1 F1200 X120.892 Y111.65 E4.5916
G1 X120.893 Y111.65 E4.59163
G1 X123.165 Y111.65 E4.6672
G1 X123.277 Y111.65 E4.67093
G1 X123.913 Y111.65 E4.69208
G1 X123.277 Y111.984 E4.70325
G1 X123.183 Y112.043 E4.70665
G1 X123.035 Y112.137 E4.71248
G1 X122.633 Y112.336 E4.7274
G1 X122.413 Y112.409 E4.73511
G1 X122.169 Y112.465 E4.74344
G1 X121.932 Y112.493 E4.75137
G1 X121.647 Y112.493 E4.76085
G1 X121.349 Y112.446 E4.77089
G1 X121.117 Y112.36 E4.77912
G1 X120.778 Y112.078 E4.79378
G1 X120.711 Y111.932 E4.79913
G1 X120.583 Y111.65 E4.80509
G0 F6000 X120.115 Y111.25
;TYPE:WALL-OUTER
G1 F1200 X124.065 Y111.25 E4.93647
G1 X124.065 Y110.522 E4.96068
G1 X124.055 Y110.196 E4.97153
G1 X124.024 Y109.878 E4.98216
G1 X123.971 Y109.583 E4.99213
G1 X123.895 Y109.312 E5.00149
G1 X123.79 Y109.052 E5.01081
G1 X123.547 Y108.636 E5.02684
G1 X123.215 Y108.276 E5.04313
G1 X122.823 Y108.005 E5.05898
G1 X122.378 Y107.832 E5.07486
G1 X122.104 Y107.772 E5.08419
G1 X121.599 Y107.733 E5.10103
G1 X121.281 Y107.743 E5.11161
G1 X120.986 Y107.783 E5.12152
G1 X120.705 Y107.852 E5.13114
G1 X120.437 Y107.949 E5.14062
G1 X120.185 Y108.075 E5.14999
G1 X119.947 Y108.228 E5.1594
G1 X119.726 Y108.409 E5.1689
G1 X119.52 Y108.617 E5.17864
G1 X119.335 Y108.849 E5.18851
G1 X119.174 Y109.098 E5.19837
G1 X119.039 Y109.367 E5.20838
G1 X118.929 Y109.654 E5.2186
G1 X118.843 Y109.957 E5.22908
G1 X118.781 Y110.277 E5.23992
G1 X118.744 Y110.614 E5.2512
G1 X118.732 Y110.967 E5.26294
G1 X118.741 Y111.326 E5.27489
G1 X118.778 Y111.667 E5.2863
G1 X118.839 Y111.989 E5.2972
G1 X118.925 Y112.291 E5.30764
G1 X119.038 Y112.576 E5.31784
G1 X119.176 Y112.839 E5.32772
G1 X119.341 Y113.082 E5.33748
G1 X119.533 Y113.302 E5.3472
G1 X119.746 Y113.498 E5.35682
G1 X119.982 Y113.669 E5.36652
G1 X120.237 Y113.813 E5.37626
G1 X120.512 Y113.93 E5.3862
G1 X120.805 Y114.022 E5.39641
G1 X121.117 Y114.087 E5.40701
G1 X121.446 Y114.126 E5.41803
G1 X121.793 Y114.139 E5.42958
G1 X122.126 Y114.131 E5.44066
G1 X122.405 Y114.1 E5.45
G1 X122.669 Y114.044 E5.45897
G1 X122.934 Y113.975 E5.46808
G1 X123.274 Y113.864 E5.47998
G1 X123.524 Y113.768 E5.48888
G1 X123.96 Y113.593 E5.50451
G1 X123.96 Y112.077 E5.55493
G1 X123.477 Y112.331 E5.57308
G1 X123.225 Y112.49 E5.58299
G1 X122.785 Y112.707 E5.59931
G1 X122.523 Y112.794 E5.60849
G1 X122.243 Y112.859 E5.61805
G1 X121.952 Y112.893 E5.6278
G1 X121.616 Y112.893 E5.63897
G1 X121.25 Y112.835 E5.6513
G1 X120.937 Y112.72 E5.66239
G1 X120.681 Y112.552 E5.67257
G1 X120.457 Y112.321 E5.68327
G1 X120.293 Y112.041 E5.69407
G1 X120.178 Y111.702 E5.70597
G1 X120.117 Y111.291 E5.71979
G1 X120.115 Y111.25 E5.72116
G0 F6000 X120.302 Y111.415
G0 X124.08 Y111.877
G0 X124.093 Y113.682
G0 X122.698 Y114.18
G0 X121.793 Y114.279
G0 X120.77 Y114.156
G0 X119.912 Y113.789
G0 X119.229 Y113.164
G0 X118.251 Y111.6
G0 X118.24 Y114.138
G0 X116.621 Y114.138
G0 X116.349 Y111.773
;TYPE:WALL-INNER
G1 F1200 X116.296 Y111.743 E5.72318
G1 X116.136 Y111.65 E5.72934
G1 X116.349 Y111.65 E5.73089
G1 X116.349 Y111.773 E5.73205
G1 F1500 E-1.26795
G0 F6000 X116.549 Y114.01
G0 X116.749 Y114.01
;TYPE:WALL-OUTER
G1 F1500 E5.73205
G1 F1200 X118.112 Y114.01 E5.77739
G1 X118.112 Y105.65 E6.05544
G1 X116.749 Y105.65 E6.10077
G1 X116.749 Y114.01 E6.37883
G0 F6000 X116.549 Y114.01
G0 X113.883 Y114.279
G0 X112.86 Y114.156
G0 X112.002 Y113.789
G0 X111.319 Y113.164
G0 X110.884 Y112.335
G0 X110.464 Y111.65
;TYPE:WALL-INNER
G1 F1200 X110.465 Y111.66 E6.37916
G1 X109.853 Y111.984 E6.4022
G1 X109.759 Y112.043 E6.40589
G1 X109.598 Y112.144 E6.41221
G1 X109.216 Y112.333 E6.42638
G1 X108.991 Y112.408 E6.43427
G1 X108.743 Y112.465 E6.44274
G1 X108.507 Y112.493 E6.45064
G1 X108.222 Y112.493 E6.46012
G1 X107.924 Y112.446 E6.47015
G1 X107.7 Y112.363 E6.4781
G1 X107.51 Y112.239 E6.48564
G1 X107.356 Y112.079 E6.49303
G1 X107.288 Y111.932 E6.49842
G1 X107.158 Y111.65 E6.50875
G1 X107.468 Y111.65 E6.51472
G1 X107.469 Y111.65 E6.51475
G1 X109.741 Y111.65 E6.59032
G1 X109.853 Y111.65 E6.59375
G1 X110.464 Y111.65 E6.60211
G0 F6000 X110.792 Y112.018
G0 X111.148 Y112.912
G0 X111.745 Y113.604
G0 X112.55 Y114.059
G0 X113.526 Y114.265
G0 X114.522 Y114.237
G0 X115.412 Y113.982
G0 X116.182 Y113.683
