;FLAVOR:Marlin
;TIME:35474
;Filament used: 36.034m
;Layer height: 0.2
;MINX:3.794
;MINY:3.649
;MINZ:0.24
;MAXX:216.212
;MAXY:216.363
;MAXZ:20.09
;Generated with Cura_SteamEngine 4.7.0
M140 S60
M105
M190 S60
M104 S210
M105
M109 S210
M82 ;absolute extrusion mode
; Ender 3 Custom Start G-code
G92 E0 ; Reset Extruder
G28 ; Home all axes
G1 Z2.0 F3000 ; Move Z Axis up little to prevent scratching of Heat Bed
G1 X0.1 Y20 Z0.3 F5000.0 ; Move to start position
G1 X0.1 Y200.0 Z0.3 F1500.0 E15 ; Draw the first line
G1 X0.4 Y200.0 Z0.3 F5000.0 ; Move to side a little
G1 X0.4 Y20 Z0.3 F1500.0 E30 ; Draw the second line
G92 E0 ; Reset Extruder
G1 Z2.0 F3000 ; Move Z Axis up little to prevent scratching of Heat Bed
G1 X5 Y20 Z0.3 F5000.0 ; Move over to prevent blob squish
G92 E0
G92 E0
G1 F1500 E-7
;LAYER_COUNT:95
;LAYER:-6
M107
G0 F9000 X20.228 Y12.155 Z0.24
;TYPE:SUPPORT-INTERFACE
G1 F1500 E0
G1 F1125 X20.713 Y11.368 E0.07379
G1 X20.805 Y11.231 E0.08697
G1 X21.314 Y10.524 E0.15651
G1 X21.432 Y10.372 E0.17187
G1 X22.018 Y9.673 E0.24468
G1 X22.105 Y9.576 E0.25508
G1 X22.661 Y8.995 E0.31927
G1 X22.817 Y8.844 E0.3366
G1 X23.499 Y8.221 E0.41034
G1 X23.636 Y8.104 E0.42472
G1 X24.341 Y7.55 E0.49629
G1 X24.468 Y7.458 E0.50881
G1 X25.207 Y6.957 E0.58008
G1 X25.371 Y6.855 E0.59549
G1 X26.144 Y6.412 E0.66661
G1 X26.3 Y6.33 E0.68068
G1 X27.077 Y5.956 E0.74952
G1 X27.264 Y5.874 E0.76581
G1 X28.088 Y5.55 E0.83649
G1 X28.233 Y5.499 E0.84876
G1 X29.098 Y5.229 E0.9211
G1 X29.267 Y5.184 E0.93506
G1 X30.141 Y4.98 E1.0067
G1 X30.316 Y4.946 E1.02093
G1 X31.189 Y4.808 E1.09148
G1 X31.34 Y4.79 E1.10362
G1 X32.279 Y4.712 E1.17883
G1 X32.399 Y4.706 E1.18842
G1 X33.121 Y4.691 E1.24607
G1 X58.188 Y4.8 E3.24704
G1 X58.278 Y4.802 E3.25423
G1 X59.232 Y4.841 E3.33045
G1 X59.395 Y4.853 E3.34349
G1 X60.296 Y4.956 E3.41588
G1 X60.432 Y4.977 E3.42687
G1 X61.325 Y5.146 E3.49942
G1 X61.508 Y5.188 E3.5144
G1 X62.35 Y5.412 E3.58395
G1 X62.55 Y5.473 E3.60064
G1 X63.368 Y5.755 E3.66971
G1 X63.514 Y5.812 E3.68222
G1 X64.373 Y6.181 E3.75685
G1 X64.504 Y6.243 E3.76842
G1 X65.313 Y6.664 E3.84122
G1 X65.439 Y6.735 E3.85276
G1 X66.223 Y7.218 E3.92627
G1 X66.363 Y7.311 E3.93968
G1 X67.063 Y7.816 E4.00859
G1 X67.234 Y7.949 E4.02588
G1 X67.909 Y8.516 E4.09625
G1 X68.032 Y8.626 E4.10942
G1 X68.26 Y8.841 E4.13443
G1 X68.537 Y9.107 E4.16509
G1 X68.64 Y9.211 E4.17677
G1 X69.286 Y9.907 E4.25257
G1 X69.405 Y10.046 E4.26718
G1 X69.959 Y10.737 E4.33788
G1 X70.063 Y10.876 E4.35174
G1 X70.555 Y11.591 E4.42102
G1 X70.672 Y11.775 E4.43842
G1 X71.115 Y12.531 E4.50837
G1 X71.192 Y12.673 E4.52126
G1 X71.595 Y13.492 E4.59412
G1 X71.651 Y13.618 E4.60513
G1 X71.993 Y14.463 E4.6779
G1 X72.052 Y14.628 E4.69188
G1 X72.324 Y15.475 E4.7629
G1 X72.37 Y15.637 E4.77634
G1 X72.582 Y16.511 E4.84813
G1 X72.615 Y16.669 E4.86101
G1 X72.763 Y17.561 E4.93319
G1 X72.787 Y17.747 E4.94816
G1 X72.868 Y18.628 E5.01878
G1 X72.878 Y18.798 E5.03238
G1 X72.897 Y19.381 E5.07894
G1 X72.929 Y22.876 E5.35794
G1 X72.932 Y23.018 E5.36927
G1 X73.053 Y26.347 E5.63518
G1 X73.276 Y29.87 E5.91697
G1 X73.286 Y30.009 E5.92809
G1 X73.584 Y33.286 E6.19076
G1 X73.985 Y36.688 E6.4642
G1 X74.003 Y36.829 E6.47554
G1 X74.492 Y40.186 E6.74634
G1 X74.515 Y40.326 E6.75767
G1 X75.082 Y43.596 E7.02259
G1 X75.108 Y43.734 E7.0338
G1 X75.759 Y46.964 E7.29682
G1 X75.788 Y47.101 E7.30799
G1 X76.546 Y50.396 E7.57788
G1 X76.579 Y50.533 E7.58913
G1 X77.413 Y53.761 E7.85527
G1 X77.451 Y53.898 E7.86662
G1 X78.37 Y57.091 E8.13184
G1 X78.411 Y57.225 E8.14303
G1 X79.408 Y60.366 E8.40608
G1 X80.616 Y63.846 E8.70013
G1 X81.789 Y66.952 E8.96516
G1 X81.842 Y67.085 E8.97659
G1 X83.094 Y70.142 E9.24028
G1 X83.148 Y70.27 E9.25137
G1 X84.5 Y73.335 E9.51878
G1 X84.56 Y73.464 E9.53014
G1 X85.979 Y76.457 E9.79454
G1 X86.04 Y76.583 E9.80572
G1 X87.546 Y79.55 E10.07132
G1 X87.61 Y79.672 E10.08232
G1 X89.219 Y82.644 E10.35209
G1 X89.291 Y82.771 E10.36374
G1 X90.988 Y85.704 E10.63423
G1 X92.754 Y88.576 E10.90336
G1 X92.829 Y88.694 E10.91452
G1 X94.679 Y91.531 E11.18488
G1 X94.758 Y91.65 E11.19628
G1 X96.629 Y94.353 E11.45869
G1 X96.71 Y94.467 E11.46986
G1 X98.682 Y97.159 E11.73623
G1 X98.767 Y97.273 E11.74758
G1 X100.804 Y99.901 E12.013
G1 X100.892 Y100.011 E12.02424
G1 X103.012 Y102.599 E12.29129
G1 X103.103 Y102.707 E12.30257
G1 X105.283 Y105.225 E12.56843
G1 X105.376 Y105.329 E12.57956
G1 X107.634 Y107.8 E12.84676
G1 X107.73 Y107.903 E12.858
G1 X110.035 Y110.292 E13.12299
G1 X110.135 Y110.392 E13.13428
G1 X112.507 Y112.721 E13.39964
G1 X112.608 Y112.818 E13.41081
G1 X115.049 Y115.087 E13.67684
G1 X117.668 Y117.394 E13.95545
G1 X117.773 Y117.484 E13.96649
G1 X120.353 Y119.635 E14.23462
G1 X120.463 Y119.724 E14.24591
G1 X123.046 Y121.762 E14.50855
G1 X123.159 Y121.848 E14.51989
G1 X125.833 Y123.841 E14.7861
G1 X125.947 Y123.923 E14.79731
G1 X128.706 Y125.866 E15.06668
G1 X128.82 Y125.945 E15.07775
G1 X131.524 Y127.743 E15.33696
G1 X131.644 Y127.82 E15.34834
G1 X134.536 Y129.631 E15.62072
G1 X137.51 Y131.384 E15.89629
G1 X137.632 Y131.454 E15.90752
G1 X140.568 Y133.077 E16.17531
G1 X140.69 Y133.143 E16.18638
G1 X143.597 Y134.65 E16.44775
G1 X143.724 Y134.714 E16.45911
G1 X146.746 Y136.178 E16.72715
G1 X146.873 Y136.237 E16.73833
G1 X149.931 Y137.619 E17.0062
G1 X150.062 Y137.676 E17.01761
G1 X153.115 Y138.955 E17.28183
G1 X153.244 Y139.007 E17.29294
G1 X156.367 Y140.218 E17.56031
G1 X156.499 Y140.267 E17.57155
G1 X159.637 Y141.387 E17.83752
G1 X159.772 Y141.433 E17.8489
G1 X162.915 Y142.458 E18.11279
G1 X163.048 Y142.5 E18.12393
G1 X166.264 Y143.454 E18.3917
G1 X166.4 Y143.493 E18.40299
G1 X169.642 Y144.36 E18.67088
G1 X169.779 Y144.395 E18.68217
G1 X173.119 Y145.191 E18.95625
G1 X176.392 Y145.88 E19.22324
G1 X176.531 Y145.907 E19.23454
G1 X179.831 Y146.509 E19.50231
G1 X179.97 Y146.532 E19.51355
G1 X183.255 Y147.04 E19.77889
G1 X183.396 Y147.06 E19.79026
G1 X186.804 Y147.49 E20.06446
G1 X190.176 Y147.824 E20.33494
G1 X190.315 Y147.836 E20.34608
G1 X193.606 Y148.073 E20.60946
G1 X193.75 Y148.081 E20.62098
G1 X197.082 Y148.23 E20.88722
G1 X197.22 Y148.234 E20.89824
G1 X200.64 Y148.295 E21.17128
G1 X200.725 Y148.298 E21.17807
G1 X201.68 Y148.35 E21.25441
G1 X201.812 Y148.362 E21.26499
G1 X202.736 Y148.481 E21.33936
G1 X202.9 Y148.508 E21.35263
G1 X203.774 Y148.685 E21.42381
G1 X203.94 Y148.725 E21.43744
G1 X204.791 Y148.963 E21.50798
G1 X204.977 Y149.023 E21.52358
G1 X205.785 Y149.314 E21.59213
G1 X205.987 Y149.396 E21.60954
G1 X206.782 Y149.75 E21.679
G1 X206.924 Y149.82 E21.69164
G1 X207.722 Y150.248 E21.76392
G1 X207.868 Y150.333 E21.77741
G1 X208.642 Y150.824 E21.85058
G1 X208.767 Y150.91 E21.86269
G1 X209.487 Y151.444 E21.93424
G1 X209.617 Y151.548 E21.94753
G1 X210.304 Y152.141 E22.01998
G1 X210.418 Y152.245 E22.03229
G1 X210.419 Y152.244 E22.03241
G1 X210.972 Y152.79 E22.09444
G1 X211.072 Y152.896 E22.10607
G1 X211.691 Y153.585 E22.18001
G1 X211.819 Y153.738 E22.19593
G1 X212.363 Y154.441 E22.26689
G1 X212.457 Y154.573 E22.27982
G1 X212.956 Y155.324 E22.3518
G1 X213.039 Y155.461 E22.36458
G1 X213.477 Y156.238 E22.43578
G1 X213.556 Y156.39 E22.44946
G1 X213.936 Y157.198 E22.52073
G1 X214.014 Y157.384 E22.53683
G1 X214.323 Y158.187 E22.60551
G1 X214.382 Y158.357 E22.61988
G1 X214.649 Y159.241 E22.69359
G1 X214.681 Y159.362 E22.70358
G1 X214.886 Y160.273 E22.77812
G1 X214.909 Y160.399 E22.78834
G1 X215.045 Y161.315 E22.86226
G1 X215.064 Y161.487 E22.87608
G1 X215.13 Y162.385 E22.94795
G1 X215.138 Y162.539 E22.96026
G1 X215.147 Y163.143 E23.00848
G1 X215.037 Y188.251 E25.01273
G1 X214.998 Y189.221 E25.09022
G1 X214.985 Y189.393 E25.10399
G1 X214.883 Y190.286 E25.17574
G1 X214.861 Y190.43 E25.18737
G1 X214.692 Y191.323 E25.25991
G1 X214.65 Y191.506 E25.2749
G1 X214.435 Y192.318 E25.34195
G1 X214.364 Y192.551 E25.3614
G1 X214.083 Y193.366 E25.43021
G1 X214.026 Y193.512 E25.44272
G1 X213.663 Y194.358 E25.51621
G1 X213.599 Y194.494 E25.52821
G1 X213.18 Y195.3 E25.60072
G1 X213.103 Y195.437 E25.61326
G1 X212.62 Y196.221 E25.68677
G1 X212.538 Y196.346 E25.6987
G1 X212.022 Y197.061 E25.76909
G1 X211.889 Y197.232 E25.78638
G1 X211.324 Y197.905 E25.85652
G1 X211.219 Y198.022 E25.86907
G1 X210.675 Y198.59 E25.93185
G1 X210.515 Y198.745 E25.94963
G1 X209.835 Y199.366 E26.02314
G1 X209.698 Y199.483 E26.03753
G1 X208.993 Y200.037 E26.1091
G1 X208.866 Y200.129 E26.12162
G1 X208.127 Y200.63 E26.19289
G1 X207.965 Y200.73 E26.20808
G1 X207.193 Y201.173 E26.27913
G1 X207.034 Y201.257 E26.29349
G1 X206.252 Y201.634 E26.36278
G1 X206.087 Y201.706 E26.37715
G1 X205.246 Y202.037 E26.4493
G1 X205.101 Y202.088 E26.46157
G1 X204.235 Y202.358 E26.53398
G1 X204.067 Y202.403 E26.54786
G1 X203.195 Y202.607 E26.61935
G1 X203.018 Y202.641 E26.63374
G1 X202.145 Y202.779 E26.70429
G1 X201.994 Y202.797 E26.71643
G1 X201.054 Y202.875 E26.79172
G1 X200.935 Y202.881 E26.80123
G1 X200.216 Y202.896 E26.85864
G1 X194.202 Y202.871 E27.3387
G1 X194.113 Y202.869 E27.34581
G1 X193.158 Y202.83 E27.42211
G1 X192.995 Y202.818 E27.43515
G1 X192.11 Y202.716 E27.50626
G1 X191.923 Y202.688 E27.52136
G1 X191.064 Y202.526 E27.59114
G1 X190.893 Y202.487 E27.60514
G1 X190.026 Y202.257 E27.67674
G1 X189.846 Y202.202 E27.69176
G1 X189.014 Y201.914 E27.76204
G1 X188.857 Y201.853 E27.77549
G1 X188.035 Y201.5 E27.8469
G1 X187.87 Y201.422 E27.86147
G1 X187.087 Y201.015 E27.93191
G1 X186.948 Y200.937 E27.94463
G1 X186.166 Y200.455 E28.01796
G1 X186.024 Y200.361 E28.03155
G1 X185.326 Y199.857 E28.10028
G1 X185.155 Y199.724 E28.11757
G1 X184.492 Y199.167 E28.18669
G1 X184.358 Y199.047 E28.20105
G1 X183.829 Y198.541 E28.25948
G1 X183.718 Y198.43 E28.27201
G1 X183.639 Y198.348 E28.2811
G1 X183.009 Y197.658 E28.35569
G1 X182.901 Y197.531 E28.36899
G1 X182.347 Y196.826 E28.44057
G1 X182.255 Y196.699 E28.45308
G1 X181.754 Y195.96 E28.52435
G1 X181.652 Y195.796 E28.53977
G1 X181.209 Y195.023 E28.61089
G1 X181.127 Y194.867 E28.62496
G1 X180.747 Y194.078 E28.69486
G1 X180.672 Y193.906 E28.70984
G1 X180.342 Y193.066 E28.78188
G1 X180.296 Y192.934 E28.79304
G1 X180.026 Y192.069 E28.86537
G1 X179.981 Y191.9 E28.87933
G1 X179.777 Y191.026 E28.95098
G1 X179.743 Y190.851 E28.96521
G1 X179.604 Y189.97 E29.0364
G1 X179.587 Y189.827 E29.0479
G1 X179.508 Y188.877 E29.12399
G1 X179.503 Y188.768 E29.1327
G1 X179.488 Y188.088 E29.187
G1 X179.492 Y187.066 E29.26858
G1 X179.453 Y186.397 E29.32207
G1 X179.326 Y185.726 E29.37658
G1 X179.116 Y185.076 E29.43111
G1 X178.826 Y184.458 E29.4856
G1 X178.46 Y183.881 E29.54014
G1 X178.025 Y183.355 E29.59463
G1 X177.527 Y182.889 E29.64907
G1 X176.973 Y182.489 E29.70362
G1 X176.373 Y182.162 E29.75816
G1 X175.736 Y181.913 E29.81276
G1 X174.998 Y181.734 E29.87338
G1 X172.129 Y181.253 E30.10559
G1 X171.741 Y181.182 E30.13708
G1 X167.891 Y180.432 E30.45018
G1 X167.5 Y180.351 E30.48205
G1 X165.124 Y179.821 E30.67637
G1 X164.461 Y179.717 E30.72994
G1 X163.78 Y179.696 E30.78433
G1 X163.099 Y179.762 E30.83895
G1 X162.432 Y179.914 E30.89355
G1 X161.702 Y180.189 E30.95582
G1 X89.965 Y213.47 E37.26842
G1 X89.624 Y213.629 E37.29845
G1 X88.594 Y214.063 E37.38767
G1 X88.455 Y214.118 E37.39961
G1 X88.154 Y214.232 E37.4253
G1 X88.079 Y214.259 E37.43166
G1 X87.179 Y214.56 E37.50741
G1 X87.008 Y214.61 E37.52164
G1 X85.943 Y214.875 E37.60924
G1 X85.853 Y214.896 E37.61662
G1 X85.404 Y214.987 E37.65319
G1 X84.465 Y215.146 E37.72921
G1 X84.365 Y215.159 E37.73726
G1 X83.262 Y215.261 E37.82568
G1 X83.156 Y215.268 E37.83416
G1 X82.792 Y215.286 E37.86325
G1 X82.685 Y215.29 E37.8718
G1 X81.766 Y215.303 E37.94517
G1 X81.574 Y215.299 E37.9605
G1 X80.557 Y215.237 E38.04183
G1 X80.026 Y215.184 E38.08442
G1 X79.066 Y215.051 E38.16179
G1 X78.908 Y215.023 E38.1746
G1 X77.915 Y214.809 E38.25568
G1 X77.445 Y214.69 E38.29438
G1 X76.459 Y214.399 E38.37645
G1 X76.349 Y214.359 E38.38579
G1 X75.312 Y213.963 E38.4744
G1 X75.157 Y213.9 E38.48775
G1 X74.881 Y213.781 E38.51175
G1 X74.743 Y213.717 E38.52389
G1 X73.723 Y213.223 E38.61436
G1 X73.671 Y213.196 E38.61903
G1 X72.793 Y212.685 E38.70012
G1 X72.425 Y212.452 E38.73489
G1 X72.338 Y212.394 E38.74324
G1 X71.552 Y211.854 E38.81936
G1 X71.453 Y211.781 E38.82918
G1 X70.675 Y211.16 E38.90864
G1 X70.349 Y210.881 E38.94289
G1 X69.492 Y210.085 E39.03626
G1 X69.418 Y210.014 E39.04445
G1 X10.503 Y150.584 E45.72441
G1 X10.039 Y150.115 E45.77707
G1 X9.958 Y150.03 E45.78645
G1 X9.26 Y149.268 E45.86894
G1 X9.191 Y149.19 E45.87725
G1 X8.994 Y148.958 E45.90154
G1 X8.882 Y148.821 E45.91567
G1 X8.324 Y148.113 E45.98763
G1 X8.218 Y147.967 E46.00203
G1 X7.669 Y147.152 E46.08047
G1 X7.61 Y147.061 E46.08913
G1 X7.407 Y146.732 E46.11999
G1 X7.355 Y146.645 E46.12808
G1 X6.967 Y145.972 E46.19009
G1 X6.922 Y145.883 E46.19805
G1 X6.362 Y144.712 E46.30166
G1 X6.316 Y144.61 E46.31059
G1 X6.183 Y144.293 E46.33803
G1 X6.131 Y144.162 E46.34928
G1 X5.76 Y143.17 E46.43383
G1 X5.443 Y142.078 E46.52459
G1 X5.335 Y141.644 E46.56029
G1 X5.121 Y140.629 E46.6431
G1 X5.097 Y140.483 E46.65491
G1 X4.971 Y139.529 E46.73172
G1 X4.956 Y139.396 E46.7424
G1 X4.924 Y139.043 E46.7707
G1 X4.916 Y138.956 E46.77767
G1 X4.862 Y138.013 E46.85307
G1 X4.859 Y137.848 E46.86624
G1 X4.875 Y136.906 E46.94145
G1 X4.881 Y136.717 E46.95654
G1 X4.906 Y136.296 E46.99021
G1 X4.992 Y135.348 E47.06619
G1 X5.003 Y135.267 E47.07272
G1 X5.208 Y134.069 E47.16974
G1 X5.224 Y133.984 E47.17664
G1 X5.308 Y133.598 E47.20817
G1 X5.55 Y132.646 E47.28658
G1 X5.607 Y132.452 E47.30272
G1 X5.921 Y131.524 E47.38093
G1 X5.984 Y131.349 E47.39577
G1 X6.1 Y131.048 E47.42152
G1 X6.145 Y130.936 E47.43116
G1 X6.555 Y129.978 E47.51434
G1 X6.596 Y129.886 E47.52238
G1 X40.665 Y58.095 E53.8656
G1 X40.914 Y57.472 E53.91915
G1 X41.085 Y56.812 E53.97358
G1 X41.171 Y56.133 E54.02821
G1 X41.171 Y55.449 E54.08281
G1 X41.065 Y54.679 E54.14486
G1 X40.545 Y52.241 E54.34384
G1 X40.467 Y51.848 E54.37583
G1 X39.746 Y47.956 E54.69179
G1 X39.677 Y47.551 E54.72458
G1 X39.238 Y44.786 E54.94806
G1 X39.092 Y44.132 E55.00155
G1 X38.859 Y43.49 E55.05607
G1 X38.547 Y42.882 E55.11062
G1 X38.162 Y42.319 E55.16507
G1 X37.708 Y41.808 E55.21963
G1 X37.194 Y41.36 E55.27406
G1 X36.627 Y40.979 E55.32859
G1 X36.016 Y40.673 E55.38313
G1 X35.372 Y40.447 E55.43761
G1 X34.703 Y40.303 E55.49224
G1 X33.943 Y40.245 E55.55308
G1 X32.98 Y40.241 E55.62995
G1 X32.89 Y40.239 E55.63714
G1 X31.936 Y40.2 E55.71336
G1 X31.773 Y40.188 E55.7264
G1 X30.878 Y40.086 E55.79831
G1 X30.717 Y40.061 E55.81131
G1 X29.849 Y39.896 E55.88184
G1 X29.655 Y39.852 E55.89772
G1 X28.795 Y39.624 E55.96874
G1 X28.659 Y39.583 E55.98008
G1 X27.79 Y39.282 E56.05349
G1 X27.641 Y39.224 E56.06625
G1 X26.794 Y38.86 E56.13984
G1 X26.663 Y38.798 E56.15141
G1 X25.86 Y38.38 E56.22368
G1 X25.701 Y38.29 E56.23826
G1 X24.955 Y37.83 E56.30822
G1 X24.809 Y37.732 E56.32226
G1 X24.093 Y37.216 E56.39271
G1 X23.934 Y37.092 E56.4088
G1 X23.261 Y36.527 E56.47895
G1 X23.154 Y36.431 E56.49042
G1 X22.555 Y35.857 E56.55665
G1 X22.421 Y35.718 E56.57206
G1 X21.791 Y35.028 E56.64664
G1 X21.683 Y34.901 E56.65995
G1 X21.129 Y34.196 E56.73152
G1 X21.037 Y34.069 E56.74404
G1 X20.536 Y33.33 E56.81531
G1 X20.434 Y33.166 E56.83072
G1 X19.991 Y32.393 E56.90184
G1 X19.909 Y32.237 E56.91591
G1 X19.529 Y31.448 E56.98582
G1 X19.454 Y31.276 E57.00079
G1 X19.124 Y30.436 E57.07284
G1 X19.078 Y30.304 E57.08399
G1 X18.808 Y29.439 E57.15633
G1 X18.763 Y29.27 E57.17029
G1 X18.559 Y28.396 E57.24193
G1 X18.525 Y28.221 E57.25616
G1 X18.386 Y27.34 E57.32736
G1 X18.369 Y27.197 E57.33885
G1 X18.29 Y26.247 E57.41495
G1 X18.285 Y26.138 E57.42366
G1 X18.27 Y25.461 E57.47771
G1 X18.296 Y19.387 E57.96257
G1 X18.336 Y18.367 E58.04405
G1 X18.349 Y18.195 E58.05782
G1 X18.45 Y17.309 E58.129
G1 X18.476 Y17.14 E58.14265
G1 X18.643 Y16.261 E58.21407
G1 X18.68 Y16.098 E58.22741
G1 X18.909 Y15.234 E58.29876
G1 X18.966 Y15.047 E58.31437
G1 X19.249 Y14.231 E58.38331
G1 X19.315 Y14.058 E58.39809
G1 X19.668 Y13.236 E58.4695
G1 X19.74 Y13.083 E58.483
G1 X20.162 Y12.271 E58.55605
G1 X20.228 Y12.155 E58.5667
G0 F9000 X20.8 Y11.238
G1 F1125 X20.8 Y33.719 E60.36123
G0 F9000 X22.4 Y35.695
G1 F1125 X22.4 Y9.267 E62.47083
G0 F9000 X24 Y7.817
G1 F1125 X24 Y37.143 E64.81176
G0 F9000 X25.6 Y38.227
