;FLAVOR:Marlin
;TIME:14545
;Filament used: 11.5041m
;Layer height: 0.2
;MINX:8.783
;MINY:7.825
;MINZ:0.24
;MAXX:207.831
;MAXY:208.085
;MAXZ:20.09
;Generated with Cura_SteamEngine 4.7.0
M140 S60
M105
M190 S60
M104 S210
M105
M109 S210
M82 ;absolute extrusion mode
; Ender 3 Custom Start G-code
G92 E0 ; Reset Extruder
G28 ; Home all axes
G1 Z2.0 F3000 ; Move Z Axis up little to prevent scratching of Heat Bed
G1 X0.1 Y20 Z0.3 F5000.0 ; Move to start position
G1 X0.1 Y200.0 Z0.3 F1500.0 E15 ; Draw the first line
G1 X0.4 Y200.0 Z0.3 F5000.0 ; Move to side a little
G1 X0.4 Y20 Z0.3 F1500.0 E30 ; Draw the second line
G92 E0 ; Reset Extruder
G1 Z2.0 F3000 ; Move Z Axis up little to prevent scratching of Heat Bed
G1 X5 Y20 Z0.3 F5000.0 ; Move over to prevent blob squish
G92 E0
G92 E0
G1 F1500 E-7
;LAYER_COUNT:95
;LAYER:-6
M107
G0 F9000 X14.277 Y13.21 Z0.24
;TYPE:SUPPORT-INTERFACE
G1 F1500 E0
G1 F1125 X14.387 Y13.098 E0.01253
G1 X14.388 Y13.099 E0.01264
G1 X14.472 Y13.018 E0.02196
G1 X15.152 Y12.397 E0.09547
G1 X15.289 Y12.28 E0.10985
G1 X15.994 Y11.726 E0.18142
G1 X16.121 Y11.634 E0.19394
G1 X16.86 Y11.133 E0.26521
G1 X17.024 Y11.031 E0.28063
G1 X17.797 Y10.588 E0.35174
G1 X17.953 Y10.506 E0.36581
G1 X18.735 Y10.129 E0.43511
G1 X18.9 Y10.057 E0.44948
G1 X19.741 Y9.726 E0.52163
G1 X19.886 Y9.675 E0.5339
G1 X20.751 Y9.405 E0.60623
G1 X20.92 Y9.36 E0.62019
G1 X21.794 Y9.156 E0.69183
G1 X21.969 Y9.122 E0.70606
G1 X22.842 Y8.984 E0.77661
G1 X22.993 Y8.966 E0.78875
G1 X23.933 Y8.888 E0.86404
G1 X24.052 Y8.882 E0.87356
G1 X24.766 Y8.867 E0.93056
G1 X30.777 Y8.89 E1.41039
G1 X30.878 Y8.892 E1.41845
G1 X31.835 Y8.931 E1.49491
G1 X31.98 Y8.942 E1.50652
G1 X32.872 Y9.044 E1.57818
G1 X33.059 Y9.072 E1.59328
G1 X33.918 Y9.234 E1.66306
G1 X34.089 Y9.273 E1.67706
G1 X34.97 Y9.507 E1.74982
G1 X35.12 Y9.552 E1.76232
G1 X35.958 Y9.841 E1.83308
G1 X36.123 Y9.905 E1.84721
G1 X36.95 Y10.259 E1.91902
G1 X37.101 Y10.331 E1.93237
G1 X37.89 Y10.74 E2.00331
G1 X38.037 Y10.823 E2.01679
G1 X38.807 Y11.296 E2.08892
G1 X38.963 Y11.4 E2.10389
G1 X39.653 Y11.899 E2.17186
G1 X39.833 Y12.039 E2.19006
G1 X40.519 Y12.612 E2.26141
G1 X40.602 Y12.687 E2.27034
G1 X41.193 Y13.253 E2.33566
G1 X41.348 Y13.413 E2.35344
G1 X41.969 Y14.093 E2.42695
G1 X42.086 Y14.23 E2.44134
G1 X42.64 Y14.935 E2.51291
G1 X42.732 Y15.062 E2.52543
G1 X43.233 Y15.801 E2.59669
G1 X43.328 Y15.953 E2.611
G1 X43.771 Y16.725 E2.68205
G1 X43.86 Y16.894 E2.6973
G1 X44.234 Y17.67 E2.76606
G1 X44.309 Y17.841 E2.78097
G1 X44.64 Y18.682 E2.85311
G1 X44.691 Y18.827 E2.86538
G1 X44.961 Y19.692 E2.93771
G1 X45.006 Y19.861 E2.95167
G1 X45.21 Y20.735 E3.02332
G1 X45.244 Y20.91 E3.03755
G1 X45.381 Y21.777 E3.10761
G1 X45.4 Y21.934 E3.12024
G1 X45.478 Y22.869 E3.19513
G1 X45.484 Y22.983 E3.20424
G1 X45.499 Y23.668 E3.25894
G1 X45.495 Y24.689 E3.34044
G1 X45.534 Y25.358 E3.39393
G1 X45.661 Y26.029 E3.44845
G1 X45.871 Y26.679 E3.50297
G1 X46.161 Y27.297 E3.55746
G1 X46.527 Y27.874 E3.61201
G1 X46.962 Y28.4 E3.66649
G1 X47.46 Y28.866 E3.72094
G1 X48.014 Y29.266 E3.77548
G1 X48.614 Y29.593 E3.83003
G1 X49.251 Y29.843 E3.88465
G1 X50.016 Y30.026 E3.94744
G1 X51.838 Y30.322 E4.09479
G1 X52.193 Y30.384 E4.12355
G1 X55.881 Y31.074 E4.42305
G1 X56.246 Y31.147 E4.45276
G1 X59.92 Y31.932 E4.75266
G1 X60.278 Y32.014 E4.78198
G1 X63.924 Y32.888 E5.08126
G1 X64.305 Y32.984 E5.11262
G1 X67.946 Y33.958 E5.41348
G1 X68.282 Y34.053 E5.44136
G1 X71.906 Y35.117 E5.74285
G1 X72.198 Y35.207 E5.76724
G1 X75.85 Y36.382 E6.07348
G1 X76.177 Y36.493 E6.10104
G1 X79.706 Y37.726 E6.39944
G1 X80.064 Y37.857 E6.42987
G1 X83.561 Y39.178 E6.72827
G1 X83.917 Y39.317 E6.75878
G1 X87.457 Y40.76 E7.06393
G1 X87.672 Y40.851 E7.08257
G1 X91.163 Y42.375 E7.38663
G1 X91.508 Y42.529 E7.41679
G1 X94.847 Y44.09 E7.71101
G1 X95.247 Y44.283 E7.74646
G1 X98.605 Y45.958 E8.04601
G1 X98.928 Y46.123 E8.07496
G1 X102.243 Y47.879 E8.37441
G1 X102.577 Y48.062 E8.40481
G1 X105.847 Y49.902 E8.70432
G1 X106.161 Y50.085 E8.73333
G1 X109.394 Y52.013 E9.03381
G1 X109.707 Y52.205 E9.06312
G1 X112.88 Y54.207 E9.36261
G1 X113.216 Y54.426 E9.39462
G1 X116.314 Y56.492 E9.69187
G1 X116.619 Y56.701 E9.72138
G1 X119.688 Y58.861 E10.02095
G1 X120.048 Y59.122 E10.05645
G1 X123.005 Y61.317 E10.35041
G1 X123.332 Y61.567 E10.38327
G1 X126.261 Y63.858 E10.6801
G1 X126.548 Y64.089 E10.70951
G1 X129.49 Y66.512 E11.01375
G1 X129.729 Y66.713 E11.03867
G1 X132.556 Y69.162 E11.33724
G1 X132.844 Y69.418 E11.368
G1 X135.515 Y71.854 E11.65656
G1 X135.735 Y72.061 E11.68068
G1 X135.797 Y72.114 E11.68719
G1 X135.879 Y72.189 E11.69606
G1 X138.598 Y74.798 E11.99686
G1 X138.874 Y75.071 E12.02785
G1 X141.523 Y77.742 E12.32813
G1 X141.764 Y77.99 E12.35574
G1 X144.341 Y80.724 E12.65564
G1 X144.591 Y80.997 E12.68519
G1 X147.093 Y83.788 E12.9844
G1 X147.342 Y84.072 E13.01455
G1 X147.343 Y84.071 E13.01466
G1 X149.772 Y86.923 E13.3137
G1 X150.012 Y87.213 E13.34374
G1 X152.378 Y90.137 E13.64399
G1 X152.623 Y90.448 E13.67559
G1 X154.889 Y93.395 E13.97234
G1 X155.112 Y93.693 E14.00205
G1 X157.323 Y96.724 E14.30153
G1 X157.543 Y97.033 E14.33181
G1 X159.677 Y100.119 E14.63131
G1 X159.887 Y100.432 E14.66139
G1 X161.945 Y103.576 E14.96135
G1 X162.137 Y103.878 E14.98991
G1 X164.113 Y107.068 E15.28945
G1 X164.307 Y107.388 E15.31932
G1 X166.2 Y110.622 E15.61845
G1 X166.393 Y110.96 E15.64952
G1 X168.205 Y114.247 E15.94912
G1 X168.378 Y114.57 E15.97837
G1 X170.088 Y117.861 E16.27442
G1 X170.272 Y118.229 E16.30726
G1 X171.917 Y121.602 E16.60682
G1 X172.075 Y121.936 E16.63632
G1 X173.642 Y125.364 E16.93719
G1 X173.787 Y125.692 E16.96582
G1 X175.26 Y129.144 E17.26541
G1 X175.4 Y129.483 E17.29469
G1 X176.787 Y132.969 E17.59417
G1 X177.028 Y133.606 E17.64854
G1 X178.203 Y136.797 E17.91998
G1 X178.368 Y137.261 E17.95929
G1 X179.557 Y140.755 E18.2539
G1 X179.67 Y141.103 E18.28311
G1 X180.791 Y144.694 E18.5834
G1 X180.894 Y145.042 E18.61237
G1 X181.936 Y148.698 E18.91583
G1 X182.021 Y149.009 E18.94156
G1 X182.957 Y152.642 E19.24103
G1 X183.045 Y152.999 E19.27038
G1 X183.891 Y156.658 E19.57017
G1 X183.971 Y157.023 E19.59999
G1 X184.718 Y160.667 E19.89692
G1 X184.793 Y161.061 E19.92894
G1 X185.456 Y164.759 E20.22884
G1 X185.528 Y165.191 E20.2638
G1 X185.788 Y166.895 E20.40139
G1 X185.931 Y167.55 E20.45491
G1 X186.16 Y168.193 E20.50939
G1 X186.468 Y168.803 E20.56394
G1 X186.851 Y169.368 E20.61843
G1 X187.301 Y169.881 E20.6729
G1 X187.813 Y170.333 E20.72742
G1 X188.378 Y170.716 E20.7819
G1 X188.986 Y171.026 E20.83638
G1 X189.63 Y171.256 E20.89097
G1 X190.299 Y171.404 E20.94566
G1 X191.087 Y171.466 E21.00876
G1 X192.048 Y171.47 E21.08547
G1 X192.149 Y171.472 E21.09353
G1 X193.082 Y171.51 E21.16807
G1 X193.28 Y171.525 E21.18392
G1 X194.137 Y171.624 E21.25278
G1 X194.329 Y171.653 E21.26829
G1 X195.191 Y171.815 E21.3383
G1 X195.365 Y171.855 E21.35255
G1 X196.213 Y172.081 E21.4226
G1 X196.413 Y172.142 E21.43929
G1 X197.23 Y172.424 E21.50829
G1 X197.397 Y172.489 E21.52259
G1 X198.219 Y172.842 E21.594
G1 X198.38 Y172.918 E21.60821
G1 X199.179 Y173.332 E21.68005
G1 X199.295 Y173.397 E21.69066
G1 X200.087 Y173.885 E21.76492
G1 X200.227 Y173.978 E21.77834
G1 X200.927 Y174.483 E21.84724
G1 X201.098 Y174.616 E21.86453
G1 X201.761 Y175.173 E21.93365
G1 X201.904 Y175.301 E21.94897
G1 X202.419 Y175.794 E22.00588
G1 X202.52 Y175.894 E22.01722
G1 X202.614 Y175.992 E22.02806
G1 X203.236 Y176.673 E22.10169
G1 X203.353 Y176.81 E22.11607
G1 X203.907 Y177.515 E22.18764
G1 X203.999 Y177.642 E22.20016
G1 X204.5 Y178.381 E22.27143
G1 X204.595 Y178.533 E22.28574
G1 X205.038 Y179.305 E22.35678
G1 X205.127 Y179.474 E22.37203
G1 X205.501 Y180.25 E22.44079
G1 X205.576 Y180.421 E22.4557
G1 X205.907 Y181.262 E22.52784
G1 X205.958 Y181.407 E22.54011
G1 X206.228 Y182.272 E22.61245
G1 X206.273 Y182.441 E22.62641
G1 X206.477 Y183.315 E22.69805
G1 X206.511 Y183.49 E22.71228
G1 X206.648 Y184.357 E22.78235
G1 X206.667 Y184.514 E22.79497
G1 X206.745 Y185.449 E22.86986
G1 X206.751 Y185.563 E22.87898
G1 X206.766 Y186.242 E22.93319
G1 X206.743 Y192.298 E23.41661
G1 X206.741 Y192.399 E23.42467
G1 X206.703 Y193.345 E23.50025
G1 X206.691 Y193.501 E23.51274
G1 X206.589 Y194.393 E23.58441
G1 X206.561 Y194.58 E23.5995
G1 X206.401 Y195.429 E23.66846
G1 X206.36 Y195.61 E23.68328
G1 X206.126 Y196.491 E23.75604
G1 X206.085 Y196.63 E23.76761
G1 X205.792 Y197.479 E23.8393
G1 X205.728 Y197.644 E23.85343
G1 X205.374 Y198.471 E23.92524
G1 X205.302 Y198.622 E23.93859
G1 X204.893 Y199.411 E24.00953
G1 X204.81 Y199.558 E24.02301
G1 X204.337 Y200.328 E24.09514
G1 X204.243 Y200.469 E24.10867
G1 X203.734 Y201.174 E24.17808
G1 X203.603 Y201.343 E24.19515
G1 X203.021 Y202.04 E24.26763
G1 X202.946 Y202.123 E24.27656
G1 X202.375 Y202.719 E24.34245
G1 X202.22 Y202.869 E24.35967
G1 X201.54 Y203.49 E24.43318
G1 X201.403 Y203.607 E24.44756
G1 X200.698 Y204.161 E24.51913
G1 X200.571 Y204.253 E24.53165
G1 X199.832 Y204.754 E24.60292
G1 X199.67 Y204.854 E24.61811
G1 X198.898 Y205.297 E24.68916
G1 X198.739 Y205.381 E24.70352
G1 X197.957 Y205.758 E24.77281
G1 X197.792 Y205.83 E24.78719
G1 X196.951 Y206.161 E24.85933
G1 X196.806 Y206.212 E24.8716
G1 X195.94 Y206.482 E24.94401
G1 X195.772 Y206.527 E24.95789
G1 X194.9 Y206.731 E25.02938
G1 X194.723 Y206.765 E25.04377
G1 X193.85 Y206.903 E25.11432
G1 X193.699 Y206.921 E25.12646
G1 X192.759 Y206.999 E25.20175
G1 X192.64 Y207.005 E25.21126
G1 X191.922 Y207.02 E25.26859
G1 X166.859 Y206.919 E27.26924
G1 X166.758 Y206.917 E27.2773
G1 X165.824 Y206.879 E27.35192
G1 X165.626 Y206.864 E27.36777
G1 X164.749 Y206.763 E27.43824
G1 X164.603 Y206.741 E27.45003
G1 X163.718 Y206.574 E27.52192
G1 X163.547 Y206.535 E27.53592
G1 X162.68 Y206.305 E27.60752
G1 X162.5 Y206.25 E27.62254
G1 X161.684 Y205.967 E27.69149
G1 X161.496 Y205.895 E27.70756
G1 X160.69 Y205.549 E27.77757
G1 X160.535 Y205.476 E27.79125
G1 X159.732 Y205.06 E27.86344
G1 X159.595 Y204.981 E27.87606
G1 X158.821 Y204.504 E27.94864
G1 X158.684 Y204.412 E27.96181
G1 X157.962 Y203.892 E28.03284
G1 X157.83 Y203.79 E28.04615
G1 X157.126 Y203.2 E28.11947
G1 X157.012 Y203.098 E28.13168
G1 X156.533 Y202.643 E28.18442
G1 X156.395 Y202.504 E28.20006
G1 X155.751 Y201.81 E28.27563
G1 X155.634 Y201.673 E28.29001
G1 X155.08 Y200.982 E28.36071
G1 X154.976 Y200.843 E28.37457
G1 X154.484 Y200.128 E28.44385
G1 X154.367 Y199.944 E28.46125
G1 X153.924 Y199.188 E28.5312
G1 X153.847 Y199.046 E28.54409
G1 X153.438 Y198.214 E28.6181
G1 X153.388 Y198.101 E28.62796
G1 X153.04 Y197.24 E28.70209
G1 X152.983 Y197.079 E28.71573
G1 X152.711 Y196.231 E28.78681
G1 X152.665 Y196.067 E28.80041
G1 X152.454 Y195.195 E28.87203
G1 X152.42 Y195.028 E28.88563
G1 X152.274 Y194.144 E28.95715
G1 X152.252 Y193.97 E28.97115
G1 X152.17 Y193.079 E29.04257
G1 X152.161 Y192.921 E29.05521
G1 X152.142 Y192.323 E29.10297
G1 X152.112 Y189.008 E29.36759
G1 X152.109 Y188.872 E29.37845
G1 X151.998 Y185.692 E29.63245
G1 X151.8 Y182.387 E29.89674
G1 X151.79 Y182.251 E29.90763
G1 X151.51 Y179.033 E30.16547
G1 X151.15 Y175.836 E30.42228
G1 X151.134 Y175.706 E30.43274
G1 X150.696 Y172.536 E30.68819
G1 X150.675 Y172.4 E30.69917
G1 X150.162 Y169.296 E30.95031
G1 X150.139 Y169.165 E30.96092
G1 X149.547 Y166.074 E31.21214
G1 X149.52 Y165.944 E31.22274
G1 X148.844 Y162.846 E31.47586
G1 X148.814 Y162.714 E31.48666
G1 X148.045 Y159.581 E31.74418
G1 X147.153 Y156.317 E32.01428
G1 X146.24 Y153.283 E32.26719
G1 X146.201 Y153.159 E32.27757
G1 X145.166 Y150.012 E32.54201
G1 X144.101 Y147.038 E32.79417
G1 X142.905 Y143.946 E33.05881
G1 X142.856 Y143.823 E33.06938
G1 X141.625 Y140.873 E33.32454
G1 X141.572 Y140.75 E33.33523
G1 X140.29 Y137.885 E33.58578
G1 X140.233 Y137.762 E33.5966
G1 X138.858 Y134.894 E33.85049
G1 X138.798 Y134.774 E33.8612
G1 X137.298 Y131.842 E34.12409
G1 X135.78 Y129.053 E34.37756
G1 X134.137 Y126.205 E34.64002
G1 X132.409 Y123.382 E34.90423
G1 X132.337 Y123.268 E34.91499
G1 X130.544 Y120.507 E35.17778
G1 X128.729 Y117.859 E35.43405
G1 X128.648 Y117.745 E35.44521
G1 X126.741 Y115.118 E35.70433
G1 X124.804 Y112.582 E35.95906
G1 X124.719 Y112.474 E35.97003
G1 X122.711 Y109.984 E36.22537
G1 X122.625 Y109.881 E36.23608
G1 X120.603 Y107.501 E36.48537
G1 X120.516 Y107.401 E36.49595
G1 X118.376 Y105.01 E36.75209
G1 X118.285 Y104.911 E36.76283
G1 X116.135 Y102.629 E37.0131
G1 X116.043 Y102.533 E37.02371
G1 X113.798 Y100.27 E37.27817
G1 X111.448 Y98.02 E37.53787
G1 X111.353 Y97.932 E37.54821
G1 X108.841 Y95.648 E37.81922
G1 X106.385 Y93.531 E38.07805
G1 X103.924 Y91.515 E38.332
G1 X103.818 Y91.43 E38.34284
G1 X101.315 Y89.486 E38.59583
G1 X101.208 Y89.405 E38.60654
G1 X98.647 Y87.518 E38.86047
G1 X95.975 Y85.652 E39.12062
G1 X95.861 Y85.574 E39.13165
G1 X93.167 Y83.798 E39.38922
G1 X93.059 Y83.729 E39.39945
G1 X90.399 Y82.069 E39.64974
G1 X90.279 Y81.996 E39.66095
G1 X87.525 Y80.378 E39.91592
G1 X87.412 Y80.313 E39.92632
G1 X84.698 Y78.808 E40.17405
G1 X84.581 Y78.745 E40.18466
G1 X81.726 Y77.256 E40.44169
G1 X81.604 Y77.195 E40.45257
G1 X78.725 Y75.788 E40.70837
G1 X78.603 Y75.731 E40.71911
G1 X75.771 Y74.437 E40.96766
G1 X72.715 Y73.132 E41.23291
G1 X72.592 Y73.081 E41.24354
G1 X69.622 Y71.903 E41.49859
G1 X69.495 Y71.855 E41.50942
G1 X66.548 Y70.774 E41.75999
G1 X63.435 Y69.721 E42.02232
G1 X63.306 Y69.68 E42.03312
G1 X60.257 Y68.737 E42.28788
G1 X57.074 Y67.84 E42.55186
G1 X53.882 Y67.029 E42.81475
G1 X53.754 Y66.998 E42.82527
G1 X50.663 Y66.296 E43.07829
G1 X50.532 Y66.268 E43.08898
G1 X47.465 Y65.655 E43.33864
G1 X47.332 Y65.63 E43.34945
G1 X44.123 Y65.075 E43.6094
G1 X43.988 Y65.054 E43.62031
G1 X40.953 Y64.611 E43.86514
G1 X40.827 Y64.594 E43.87529
G1 X37.594 Y64.203 E44.13525
G1 X37.454 Y64.188 E44.14649
G1 X34.338 Y63.895 E44.39631
G1 X34.208 Y63.885 E44.40672
G1 X31.006 Y63.666 E44.66292
G1 X30.871 Y63.658 E44.67371
G1 X27.772 Y63.526 E44.92131
G1 X27.638 Y63.522 E44.93201
G1 X24.298 Y63.466 E45.19866
G1 X23.325 Y63.412 E45.27645
G1 X23.181 Y63.399 E45.28799
G1 X22.27 Y63.284 E45.36129
G1 X22.121 Y63.259 E45.37335
G1 X21.236 Y63.081 E45.44541
G1 X21.058 Y63.038 E45.46003
G1 X20.229 Y62.806 E45.52875
G1 X20.022 Y62.74 E45.54609
G1 X19.197 Y62.443 E45.61608
G1 X19.062 Y62.389 E45.62769
G1 X18.205 Y62.008 E45.70255
G1 X18.081 Y61.947 E45.71358
G1 X17.267 Y61.511 E45.78729
G1 X17.153 Y61.444 E45.79785
G1 X16.368 Y60.948 E45.87197
G1 X16.241 Y60.86 E45.88431
G1 X15.518 Y60.325 E45.9561
G1 X15.375 Y60.21 E45.97075
G1 X14.68 Y59.612 E46.04394
G1 X14.597 Y59.536 E46.05292
G1 X14.146 Y59.095 E46.10327
G1 X13.987 Y58.934 E46.12133
G1 X13.324 Y58.202 E46.20017
G1 X13.233 Y58.094 E46.21144
G1 X12.667 Y57.369 E46.28486
G1 X12.564 Y57.226 E46.29893
G1 X12.091 Y56.518 E46.3669
G1 X11.977 Y56.335 E46.38411
G1 X11.544 Y55.572 E46.45414
G1 X11.459 Y55.409 E46.46881
G1 X11.084 Y54.62 E46.53855
G1 X11.007 Y54.443 E46.55395
G1 X10.685 Y53.614 E46.62495
G1 X10.627 Y53.449 E46.63891
G1 X10.374 Y52.622 E46.70794
G1 X10.323 Y52.431 E46.72372
G1 X10.122 Y51.55 E46.79585
G1 X10.092 Y51.392 E46.80869
G1 X9.958 Y50.516 E46.87943
G1 X9.939 Y50.349 E46.89285
G1 X9.866 Y49.431 E46.96636
G1 X9.859 Y49.273 E46.97898
G1 X9.848 Y48.628 E47.03048
G1 X9.949 Y23.571 E49.03065
G1 X9.951 Y23.484 E49.0376
G1 X9.988 Y22.561 E49.11134
G1 X10.004 Y22.352 E49.12807
G1 X10.106 Y21.465 E49.19934
G1 X10.127 Y21.329 E49.21032
G1 X10.292 Y20.454 E49.2814
G1 X10.333 Y20.273 E49.29621
G1 X10.561 Y19.413 E49.36723
G1 X10.618 Y19.226 E49.38284
G1 X10.901 Y18.41 E49.45178
G1 X10.973 Y18.222 E49.46785
G1 X11.319 Y17.416 E49.53787
G1 X11.385 Y17.275 E49.5503
G1 X11.808 Y16.458 E49.62374
G1 X11.887 Y16.321 E49.63636
G1 X12.364 Y15.547 E49.70893
G1 X12.456 Y15.41 E49.72211
G1 X12.976 Y14.688 E49.79313
G1 X13.078 Y14.556 E49.80645
G1 X13.669 Y13.851 E49.87988
G1 X13.766 Y13.743 E49.89147
G1 X14.277 Y13.21 E49.95041
G0 F9000 X14.4 Y13.087
G1 F1125 X14.4 Y59.343 E53.64276
G0 F9000 X16 Y60.681
G1 F1125 X16 Y11.721 E57.55096
G0 F9000 X17.6 Y10.7
G1 F1125 X17.6 Y61.689 E61.62113
G0 F9000 X19.2 Y62.444
G1 F1125 X19.2 Y9.938 E65.81238
G0 F9000 X20.8 Y9.391
G1 F1125 X20.8 Y62.965 E70.08889
G0 F9000 X22.4 Y63.3
G1 F1125 X22.4 Y9.053 E74.41912
G0 F9000 X24 Y8.884
G1 F1125 X24 Y63.449 E78.77473
