;FLAVOR:Marlin
;TIME:2561
;Filament used: 1.13461m
;Layer height: 0.2
;MINX:91.422
;MINY:87.612
;MINZ:0.2
;MAXX:128.565
;MAXY:132.377
;MAXZ:35.4
;Generated with Cura_SteamEngine 4.9.1
M140 S60
M105
M190 S60
M104 S210
M105
M109 S210
M82 ;absolute extrusion mode
; Ender 3 Custom Start G-code
G92 E0 ; Reset Extruder
G28 ; Home all axes
G1 Z2.0 F3000 ; Move Z Axis up little to prevent scratching of Heat Bed
G1 X0.1 Y20 Z0.3 F5000.0 ; Move to start position
G1 X0.1 Y200.0 Z0.3 F1500.0 E15 ; Draw the first line
G1 X0.4 Y200.0 Z0.3 F5000.0 ; Move to side a little
G1 X0.4 Y20 Z0.3 F1500.0 E30 ; Draw the second line
G92 E0 ; Reset Extruder
G1 Z2.0 F3000 ; Move Z Axis up little to prevent scratching of Heat Bed
G1 X5 Y20 Z0.3 F5000.0 ; Move over to prevent blob squish
G92 E0
G92 E0
G1 F1500 E-6.5
;LAYER_COUNT:177
;LAYER:0
M107
G0 F6000 X94.632 Y90.864 Z0.2
;TYPE:SKIRT
G1 F1500 E0
G1 F1200 X95.321 Y90.228 E0.03119
G1 X96.062 Y89.653 E0.06238
G1 X96.849 Y89.143 E0.09357
G1 X97.677 Y88.702 E0.12478
G1 X98.539 Y88.333 E0.15596
G1 X99.43 Y88.039 E0.18717
G1 X100.342 Y87.821 E0.21836
G1 X101.27 Y87.683 E0.24956
G1 X102.122 Y87.625 E0.27796
G1 X102.441 Y87.616 E0.28858
G1 X102.753 Y87.612 E0.29896
G1 X109.5 Y87.614 E0.52336
G1 X110.195 Y87.624 E0.54648
G1 X111.132 Y87.678 E0.5777
G1 X112.06 Y87.811 E0.60888
G1 X112.974 Y88.022 E0.64008
G1 X113.866 Y88.311 E0.67126
G1 X114.731 Y88.675 E0.70248
G1 X115.561 Y89.111 E0.73366
G1 X116.351 Y89.616 E0.76485
G1 X117.095 Y90.186 E0.79602
G1 X117.788 Y90.818 E0.82721
G1 X118.425 Y91.507 E0.85842
G1 X119.001 Y92.247 E0.88961
G1 X119.511 Y93.034 E0.9208
G1 X119.783 Y93.523 E0.93942
G1 X120.08 Y94.093 E0.96079
G1 X120.832 Y95.581 E1.01625
G1 X122.031 Y97.798 E1.10008
G1 X123.297 Y99.985 E1.18412
G1 X124.644 Y102.169 E1.26947
G1 X125.384 Y103.313 E1.31478
G1 X125.674 Y103.754 E1.33234
G1 X125.954 Y104.202 E1.34991
G1 X126.14 Y104.516 E1.36205
G1 X126.366 Y104.916 E1.37733
G1 X126.539 Y105.238 E1.38949
G1 X126.798 Y105.751 E1.4086
G1 X126.948 Y106.069 E1.4203
G1 X127.147 Y106.518 E1.43663
G1 X127.216 Y106.683 E1.44258
G1 X127.455 Y107.307 E1.4648
G1 X127.753 Y108.162 E1.49492
G1 X128.017 Y109.034 E1.52522
G1 X128.106 Y109.379 E1.53707
G1 X128.222 Y109.874 E1.55398
G1 X128.299 Y110.242 E1.56649
G1 X128.406 Y110.833 E1.58646
G1 X128.441 Y111.062 E1.59417
G1 X128.543 Y111.994 E1.62535
G1 X128.565 Y112.932 E1.65656
G1 X128.507 Y113.868 E1.68775
G1 X128.37 Y114.796 E1.71895
G1 X128.154 Y115.709 E1.75015
G1 X127.862 Y116.6 E1.78134
G1 X127.494 Y117.462 E1.81251
G1 X127.054 Y118.291 E1.84373
G1 X126.546 Y119.079 E1.87491
G1 X125.972 Y119.821 E1.90611
G1 X125.658 Y120.176 E1.92188
G1 X125.553 Y120.29 E1.92703
G1 X125.313 Y120.543 E1.93863
G1 X124.988 Y120.874 E1.95406
G1 X124.675 Y121.188 E1.96881
G1 X124.05 Y121.795 E1.99778
G1 X121.886 Y123.839 E2.09679
G1 X120.099 Y125.625 E2.18082
G1 X118.738 Y127.057 E2.24653
G1 X118.057 Y127.788 E2.27976
G1 X117.882 Y127.972 E2.2882
G1 X117.602 Y128.259 E2.30154
G1 X117.071 Y128.789 E2.32649
G1 X116.572 Y129.273 E2.34961
G1 X115.871 Y129.897 E2.38083
G1 X115.12 Y130.458 E2.41201
G1 X114.324 Y130.954 E2.4432
G1 X113.489 Y131.38 E2.47438
G1 X112.62 Y131.734 E2.50559
G1 X111.724 Y132.012 E2.53679
G1 X110.808 Y132.213 E2.56798
G1 X109.878 Y132.335 E2.59918
G1 X108.941 Y132.377 E2.63037
G1 X108.004 Y132.339 E2.66157
G1 X107.44 Y132.278 E2.68043
G1 X107.329 Y132.263 E2.68416
G1 X106.817 Y132.181 E2.70141
G1 X106.49 Y132.121 E2.71246
G1 X105.883 Y131.992 E2.7331
G1 X105.487 Y131.896 E2.74666
G1 X105.039 Y131.778 E2.76206
G1 X104.726 Y131.688 E2.7729
G1 X104.192 Y131.519 E2.79153
G1 X103.834 Y131.396 E2.80412
G1 X103.376 Y131.227 E2.82035
G1 X103.046 Y131.097 E2.83215
G1 X102.551 Y130.888 E2.85002
G1 X102.221 Y130.739 E2.86206
G1 X101.78 Y130.528 E2.87832
G1 X101.458 Y130.365 E2.89033
G1 X100.938 Y130.084 E2.90999
G1 X100.634 Y129.909 E2.92165
G1 X100.23 Y129.665 E2.93735
G1 X99.91 Y129.462 E2.94995
G1 X99.467 Y129.166 E2.96768
G1 X99.176 Y128.961 E2.97951
G1 X98.775 Y128.664 E2.99611
G1 X98.5 Y128.451 E3.00768
G1 X98.072 Y128.103 E3.02603
G1 X97.79 Y127.861 E3.03839
G1 X97.431 Y127.538 E3.05445
G1 X97.175 Y127.298 E3.06612
G1 X96.76 Y126.888 E3.08552
G1 X96.501 Y126.618 E3.09797
G1 X96.178 Y126.266 E3.11386
G1 X95.938 Y125.993 E3.12595
G1 X95.597 Y125.586 E3.14361
G1 X95.377 Y125.31 E3.15535
G1 X95.058 Y124.89 E3.17289
G1 X94.843 Y124.592 E3.18511
G1 X94.543 Y124.154 E3.20277
G1 X94.355 Y123.865 E3.21423
G1 X94.088 Y123.433 E3.23113
G1 X93.895 Y123.104 E3.24381
G1 X93.651 Y122.665 E3.26052
G1 X93.494 Y122.367 E3.27172
G1 X93.254 Y121.884 E3.28966
G1 X93.098 Y121.549 E3.30195
G1 X92.886 Y121.062 E3.31962
G1 X92.737 Y120.697 E3.33273
G1 X92.554 Y120.217 E3.34981
G1 X92.443 Y119.904 E3.36086
G1 X92.275 Y119.391 E3.37881
G1 X92.172 Y119.048 E3.39073
G1 X92.037 Y118.559 E3.4076
G1 X91.946 Y118.196 E3.42005
G1 X91.845 Y117.752 E3.43519
G1 X91.81 Y117.583 E3.44093
G1 X91.688 Y116.884 E3.46453
G1 X91.56 Y115.974 E3.4951
G1 X91.472 Y115.086 E3.52477
G1 X91.455 Y114.796 E3.53444
G1 X91.441 Y114.471 E3.54526
G1 X91.428 Y113.949 E3.56262
G1 X91.422 Y113.327 E3.58331
G1 X91.423 Y99.119 E4.05587
G1 X91.433 Y98.455 E4.07796
G1 X91.487 Y97.519 E4.10914
G1 X91.621 Y96.591 E4.14033
G1 X91.833 Y95.677 E4.17154
G1 X92.123 Y94.785 E4.20273
G1 X92.487 Y93.921 E4.23391
G1 X92.923 Y93.091 E4.2651
G1 X93.429 Y92.301 E4.2963
G1 X94 Y91.557 E4.32749
G1 X94.632 Y90.864 E4.35869
G0 F6000 X95.024 Y91.039
G1 F1200 X95.71 Y90.425 E4.38931
G1 X96.446 Y89.873 E4.41991
G1 X97.228 Y89.386 E4.45055
G1 X98.049 Y88.97 E4.48116
G1 X98.903 Y88.626 E4.51178
G1 X99.784 Y88.357 E4.54242
G1 X100.684 Y88.166 E4.57302
G1 X101.598 Y88.054 E4.60365
G1 X102.133 Y88.025 E4.62147
G1 X102.452 Y88.016 E4.63208
G1 X102.753 Y88.012 E4.6421
G1 X109.495 Y88.014 E4.86634
G1 X110.19 Y88.024 E4.88945
G1 X111.109 Y88.077 E4.92007
G1 X112.02 Y88.21 E4.95069
G1 X112.916 Y88.421 E4.98131
G1 X113.79 Y88.71 E5.01193
G1 X114.636 Y89.073 E5.04254
G1 X115.447 Y89.508 E5.07315
G1 X116.218 Y90.012 E5.10379
G1 X116.942 Y90.58 E5.1344
G1 X117.614 Y91.21 E5.16503
G1 X118.228 Y91.895 E5.19563
G1 X118.781 Y92.632 E5.22628
G1 X119.429 Y93.709 E5.26808
G1 X119.723 Y94.273 E5.28924
G1 X120.488 Y95.787 E5.34565
G1 X121.676 Y97.983 E5.4287
G1 X122.959 Y100.201 E5.51392
G1 X124.293 Y102.363 E5.59842
G1 X125.046 Y103.529 E5.64458
G1 X125.34 Y103.974 E5.66232
G1 X125.61 Y104.406 E5.67926
G1 X125.796 Y104.72 E5.6914
G1 X126.014 Y105.105 E5.70612
G1 X126.187 Y105.427 E5.71828
G1 X126.436 Y105.922 E5.73671
G1 X126.586 Y106.24 E5.7484
G1 X126.778 Y106.672 E5.76412
G1 X126.847 Y106.837 E5.77007
G1 X127.077 Y107.438 E5.79147
G1 X127.375 Y108.293 E5.82159
G1 X127.63 Y109.134 E5.85082
G1 X127.719 Y109.479 E5.86267
G1 X127.83 Y109.956 E5.87896
G1 X127.907 Y110.324 E5.89146
G1 X128.01 Y110.894 E5.91073
G1 X128.045 Y111.123 E5.91843
G1 X128.145 Y112.038 E5.94905
G1 X128.164 Y112.958 E5.97965
G1 X128.104 Y113.877 E6.01028
G1 X127.964 Y114.787 E6.04091
G1 X127.746 Y115.681 E6.07151
G1 X127.451 Y116.553 E6.10213
G1 X127.082 Y117.397 E6.13277
G1 X126.64 Y118.205 E6.1634
G1 X126.13 Y118.971 E6.19401
G1 X125.364 Y119.905 E6.23418
G1 X125.259 Y120.019 E6.23934
G1 X125.027 Y120.263 E6.25054
G1 X124.704 Y120.591 E6.26585
G1 X124.262 Y121.033 E6.28664
G1 X123.772 Y121.508 E6.30934
G1 X121.594 Y123.565 E6.40898
G1 X119.809 Y125.349 E6.49292
G1 X118.445 Y126.784 E6.55876
G1 X117.764 Y127.515 E6.59199
G1 X117.595 Y127.692 E6.60013
G1 X117.223 Y128.072 E6.61782
G1 X116.792 Y128.502 E6.63807
G1 X116.293 Y128.986 E6.66119
G1 X115.605 Y129.598 E6.69182
G1 X114.866 Y130.147 E6.72244
G1 X114.083 Y130.631 E6.75305
G1 X113.261 Y131.044 E6.78365
G1 X112.405 Y131.385 E6.8143
G1 X111.524 Y131.65 E6.8449
G1 X110.622 Y131.838 E6.87554
G1 X109.708 Y131.947 E6.90616
G1 X108.788 Y131.976 E6.93677
G1 X107.493 Y131.882 E6.97996
G1 X107.382 Y131.867 E6.98368
G1 X106.889 Y131.788 E7.00029
G1 X106.562 Y131.728 E7.01135
G1 X105.978 Y131.604 E7.0312
G1 X105.582 Y131.508 E7.04475
G1 X105.15 Y131.393 E7.05962
G1 X104.837 Y131.303 E7.07046
G1 X104.322 Y131.141 E7.08841
G1 X103.964 Y131.018 E7.101
G1 X103.523 Y130.855 E7.11664
G1 X103.193 Y130.725 E7.12844
G1 X102.716 Y130.524 E7.14565
G1 X102.386 Y130.375 E7.1577
G1 X101.961 Y130.171 E7.17338
G1 X101.639 Y130.008 E7.18538
G1 X101.138 Y129.738 E7.20431
G1 X100.834 Y129.563 E7.21598
G1 X100.444 Y129.327 E7.23114
G1 X100.124 Y129.124 E7.24374
G1 X99.697 Y128.839 E7.26082
G1 X99.406 Y128.634 E7.27265
G1 X99.02 Y128.348 E7.28863
G1 X98.745 Y128.135 E7.3002
G1 X98.333 Y127.799 E7.31789
G1 X98.051 Y127.557 E7.33024
G1 X97.704 Y127.246 E7.34574
G1 X97.448 Y127.006 E7.35741
G1 X97.048 Y126.611 E7.37611
G1 X96.789 Y126.341 E7.38856
G1 X96.478 Y126.002 E7.40386
G1 X96.238 Y125.729 E7.41595
G1 X95.91 Y125.337 E7.43295
G1 X95.69 Y125.061 E7.44469
G1 X95.383 Y124.656 E7.46159
G1 X95.168 Y124.358 E7.47381
G1 X94.879 Y123.936 E7.49082
G1 X94.691 Y123.647 E7.50229
G1 X94.433 Y123.23 E7.5186
G1 X94.24 Y122.901 E7.53129
G1 X94.005 Y122.479 E7.54735
G1 X93.848 Y122.181 E7.55855
G1 X93.617 Y121.715 E7.57585
G1 X93.461 Y121.38 E7.58814
G1 X93.256 Y120.911 E7.60517
G1 X93.107 Y120.546 E7.61828
G1 X92.931 Y120.083 E7.63475
G1 X92.82 Y119.77 E7.6458
G1 X92.658 Y119.276 E7.66309
G1 X92.555 Y118.933 E7.675
G1 X92.425 Y118.462 E7.69125
G1 X92.334 Y118.099 E7.7037
G1 X92.236 Y117.671 E7.71831
G1 X92.201 Y117.502 E7.72405
G1 X92.084 Y116.828 E7.7468
G1 X91.956 Y115.918 E7.77736
G1 X91.871 Y115.062 E7.80597
G1 X91.854 Y114.772 E7.81564
G1 X91.84 Y114.46 E7.82602
G1 X91.827 Y113.945 E7.84316
G1 X91.822 Y113.43 E7.86029
G1 X91.823 Y99.125 E8.33607
G1 X91.833 Y98.461 E8.35816
G1 X91.887 Y97.542 E8.38878
G1 X92.02 Y96.631 E8.4194
G1 X92.232 Y95.735 E8.45002
G1 X92.521 Y94.861 E8.48064
G1 X92.885 Y94.015 E8.51127
G1 X93.32 Y93.204 E8.54188
G1 X93.825 Y92.434 E8.57251
G1 X94.394 Y91.711 E8.60311
G1 X95.024 Y91.039 E8.63375
G0 F6000 X95.415 Y91.218
G1 F1200 X96.098 Y90.626 E8.66381
G1 X96.83 Y90.097 E8.69385
G1 X97.605 Y89.635 E8.72386
G1 X98.419 Y89.244 E8.75389
G1 X99.264 Y88.925 E8.78393
G1 X100.134 Y88.683 E8.81397
G1 X101.022 Y88.519 E8.844
G1 X102.144 Y88.425 E8.88145
G1 X102.463 Y88.416 E8.89207
G1 X102.753 Y88.412 E8.90171
G1 X109.489 Y88.414 E9.12575
G1 X110.184 Y88.424 E9.14887
G1 X111.085 Y88.477 E9.17889
G1 X111.979 Y88.61 E9.20895
G1 X112.857 Y88.82 E9.23898
G1 X113.713 Y89.108 E9.26902
G1 X114.54 Y89.471 E9.29906
G1 X115.332 Y89.905 E9.32909
G1 X116.082 Y90.407 E9.35911
G1 X116.785 Y90.974 E9.38915
G1 X117.435 Y91.601 E9.41919
G1 X118.027 Y92.283 E9.44923
G1 X118.557 Y93.015 E9.47928
G1 X119.075 Y93.894 E9.51322
G1 X119.366 Y94.454 E9.53421
G1 X120.129 Y95.965 E9.59051
G1 X121.336 Y98.194 E9.67482
G1 X122.6 Y100.379 E9.75877
G1 X123.964 Y102.591 E9.84521
G1 X124.683 Y103.704 E9.88928
G1 X125.006 Y104.194 E9.9088
G1 X125.266 Y104.61 E9.92512
G1 X125.452 Y104.924 E9.93725
G1 X125.661 Y105.295 E9.95142
G1 X125.834 Y105.617 E9.96358
G1 X126.074 Y106.092 E9.98128
G1 X126.224 Y106.41 E9.99297
G1 X126.409 Y106.827 E10.00814
G1 X126.478 Y106.992 E10.01409
G1 X126.7 Y107.57 E10.03469
G1 X126.998 Y108.425 E10.0648
G1 X127.243 Y109.234 E10.09291
G1 X127.332 Y109.579 E10.10477
G1 X127.439 Y110.038 E10.12044
G1 X127.516 Y110.406 E10.13295
G1 X127.615 Y110.954 E10.15147
G1 X127.65 Y111.183 E10.15917
G1 X127.747 Y112.081 E10.18921
G1 X127.764 Y112.984 E10.21925
G1 X127.701 Y113.885 E10.24929
G1 X127.558 Y114.777 E10.27934
G1 X127.338 Y115.652 E10.30935
G1 X127.04 Y116.505 E10.3394
G1 X126.669 Y117.328 E10.36943
G1 X126.226 Y118.115 E10.39946
G1 X125.715 Y118.86 E10.42951
G1 X125.07 Y119.634 E10.46302
G1 X124.965 Y119.748 E10.46818
G1 X124.742 Y119.983 E10.47895
G1 X124.421 Y120.309 E10.49417
G1 X123.984 Y120.746 E10.51472
G1 X123.494 Y121.221 E10.53742
G1 X123.23 Y121.468 E10.54945
G1 X121.337 Y123.257 E10.63608
G1 X119.519 Y125.074 E10.72157
G1 X118.152 Y126.512 E10.78756
G1 X117.471 Y127.243 E10.82079
G1 X117.309 Y127.413 E10.8286
G1 X117.029 Y127.7 E10.84193
G1 X116.514 Y128.215 E10.86616
G1 X116.015 Y128.699 E10.88928
G1 X115.339 Y129.298 E10.91932
G1 X114.613 Y129.836 E10.94937
G1 X113.843 Y130.307 E10.97939
G1 X113.034 Y130.708 E11.00943
G1 X112.192 Y131.036 E11.03948
G1 X111.325 Y131.288 E11.06951
G1 X110.439 Y131.462 E11.09954
G1 X109.541 Y131.558 E11.12958
G1 X108.638 Y131.573 E11.15962
G1 X107.547 Y131.485 E11.19602
G1 X107.436 Y131.47 E11.19975
G1 X106.961 Y131.395 E11.21574
G1 X106.634 Y131.335 E11.2268
G1 X106.072 Y131.215 E11.24591
G1 X105.676 Y131.119 E11.25947
G1 X105.26 Y131.009 E11.27378
G1 X104.947 Y130.919 E11.28461
G1 X104.452 Y130.763 E11.30187
G1 X104.094 Y130.64 E11.31446
G1 X103.669 Y130.483 E11.32953
G1 X103.339 Y130.353 E11.34133
G1 X102.881 Y130.159 E11.35787
G1 X102.551 Y130.01 E11.36991
G1 X102.141 Y129.814 E11.38503
G1 X101.819 Y129.651 E11.39703
G1 X101.337 Y129.391 E11.41525
G1 X101.033 Y129.216 E11.42691
G1 X100.658 Y128.989 E11.44149
G1 X100.338 Y128.786 E11.4541
G1 X99.928 Y128.512 E11.4705
G1 X99.637 Y128.307 E11.48234
G1 X99.265 Y128.032 E11.49773
G1 X98.99 Y127.819 E11.50929
G1 X98.593 Y127.496 E11.52632
G1 X98.311 Y127.254 E11.53868
G1 X97.978 Y126.954 E11.55358
G1 X97.722 Y126.714 E11.56526
G1 X97.337 Y126.334 E11.58325
G1 X97.078 Y126.064 E11.59569
G1 X96.778 Y125.738 E11.61043
G1 X96.538 Y125.465 E11.62252
G1 X96.223 Y125.088 E11.63886
G1 X96.003 Y124.812 E11.6506
G1 X95.707 Y124.422 E11.66688
G1 X95.492 Y124.124 E11.6791
G1 X95.214 Y123.718 E11.69547
G1 X95.026 Y123.429 E11.70693
G1 X94.778 Y123.028 E11.72262
G1 X94.585 Y122.699 E11.7353
G1 X94.359 Y122.292 E11.75079
G1 X94.202 Y121.994 E11.76199
G1 X93.979 Y121.546 E11.77863
G1 X93.823 Y121.211 E11.79093
G1 X93.627 Y120.76 E11.80728
G1 X93.478 Y120.395 E11.82039
G1 X93.308 Y119.949 E11.83627
G1 X93.197 Y119.636 E11.84731
G1 X93.041 Y119.161 E11.86394
G1 X92.938 Y118.818 E11.87585
G1 X92.813 Y118.364 E11.89152
G1 X92.722 Y118.001 E11.90396
G1 X92.628 Y117.59 E11.91799
G1 X92.593 Y117.421 E11.92373
G1 X92.48 Y116.773 E11.9456
G1 X92.352 Y115.863 E11.97617
G1 X92.27 Y115.039 E12.00371
G1 X92.253 Y114.749 E12.01337
G1 X92.24 Y114.448 E12.02339
G1 X92.227 Y113.941 E12.04026
G1 X92.222 Y113.426 E12.05739
G1 X92.223 Y99.131 E12.53285
G1 X92.233 Y98.467 E12.55493
G1 X92.287 Y97.566 E12.58495
G1 X92.42 Y96.673 E12.61498
G1 X92.631 Y95.795 E12.64502
G1 X92.92 Y94.939 E12.67507
G1 X93.283 Y94.112 E12.70511
G1 X93.717 Y93.32 E12.73514
G1 X94.221 Y92.57 E12.7652
G1 X94.788 Y91.868 E12.79521
G1 X95.415 Y91.218 E12.82525
G1 F1500 E6.32525
;MESH:shadeHolderKetchenWindowV2.ipt
G0 F6000 X102.01 Y98.201
G0 X102.836 Y99.026
G0 X103.292 Y114.59
G0 X103.596 Y115.983
G0 X104.183 Y117.282
G0 X105.027 Y118.431
G0 X106.095 Y119.376
G0 X107.099 Y119.943
G0 X108.773 Y120.683
;TYPE:WALL-INNER
G1 F1500 E12.82525
G1 F1200 X108.7 Y120.724 E12.82803
G1 X108.676 Y120.738 E12.82896
G1 X108.65 Y120.733 E12.82984
G1 X108.358 Y120.667 E12.8398
G1 X108.289 Y120.649 E12.84217
G1 X108.018 Y120.574 E12.85152
G1 X107.934 Y120.547 E12.85445
G1 X107.714 Y120.475 E12.86215
G1 X107.585 Y120.426 E12.86674
G1 X107.406 Y120.358 E12.87311
G1 X107.245 Y120.288 E12.87895
G1 X107.091 Y120.221 E12.88454
G1 X106.911 Y120.134 E12.89119
G1 X106.798 Y120.078 E12.89538
G1 X106.584 Y119.959 E12.90352
G1 X106.494 Y119.909 E12.90695
G1 X106.268 Y119.77 E12.91577
G1 X106.232 Y119.747 E12.91719
G1 X105.963 Y119.564 E12.92802
G1 X105.934 Y119.544 E12.92919
G1 X105.692 Y119.361 E12.93928
G1 X105.666 Y119.34 E12.94039
G1 X105.414 Y119.13 E12.9513
G1 X105.383 Y119.102 E12.95269
G1 X105.188 Y118.923 E12.96149
G1 X105.116 Y118.851 E12.96488
G1 X104.935 Y118.668 E12.97344
G1 X104.86 Y118.584 E12.97719
G1 X104.719 Y118.428 E12.98418
G1 X104.618 Y118.305 E12.98947
G1 X104.51 Y118.173 E12.99515
G1 X104.392 Y118.015 E13.00171
G1 X104.309 Y117.904 E13.00632
G1 X104.181 Y117.712 E13.01399
G1 X104.134 Y117.642 E13.01679
G1 X103.987 Y117.4 E13.02621
G1 X103.953 Y117.345 E13.02836
G1 X103.808 Y117.076 E13.03853
G1 X103.789 Y117.042 E13.03982
G1 X103.643 Y116.741 E13.05095
G1 X103.518 Y116.444 E13.06167
G1 X103.503 Y116.401 E13.06318
