;FLAVOR:Marlin
;TIME:4649
;Filament used: 3.75836m
;Layer height: 0.2
;MINX:75.408
;MINY:75.415
;MINZ:0.24
;MAXX:144.584
;MAXY:144.585
;MAXZ:20.09
;Generated with Cura_SteamEngine 4.7.0
M140 S60
M105
M190 S60
M104 S200
M105
M109 S200
M82 ;absolute extrusion mode
; Ender 3 Custom Start G-code
G92 E0 ; Reset Extruder
G28 ; Home all axes
G1 Z2.0 F3000 ; Move Z Axis up little to prevent scratching of Heat Bed
G1 X0.1 Y20 Z0.3 F5000.0 ; Move to start position
G1 X0.1 Y200.0 Z0.3 F1500.0 E15 ; Draw the first line
G1 X0.4 Y200.0 Z0.3 F5000.0 ; Move to side a little
G1 X0.4 Y20 Z0.3 F1500.0 E30 ; Draw the second line
G92 E0 ; Reset Extruder
G1 Z2.0 F3000 ; Move Z Axis up little to prevent scratching of Heat Bed
G1 X5 Y20 Z0.3 F5000.0 ; Move over to prevent blob squish
G92 E0
G92 E0
G1 F1500 E-6.5
;LAYER_COUNT:95
;LAYER:-6
M107
G0 F9000 X86.352 Y86.242 Z0.24
;TYPE:SUPPORT-INTERFACE
G1 F1500 E0
G1 F1125 X86.697 Y85.902 E0.03867
G1 X86.992 Y85.622 E0.07113
G1 X87.199 Y85.428 E0.09378
G1 X87.577 Y85.082 E0.13468
G1 X88.053 Y84.661 E0.18541
G1 X88.409 Y84.357 E0.22278
G1 X88.907 Y83.946 E0.27432
G1 X89.327 Y83.611 E0.3172
G1 X89.843 Y83.216 E0.36908
G1 X90.229 Y82.93 E0.40743
G1 X90.755 Y82.554 E0.45904
G1 X91.168 Y82.268 E0.49914
G1 X91.726 Y81.897 E0.55263
G1 X92.151 Y81.626 E0.59286
G1 X92.707 Y81.284 E0.64497
G1 X93.129 Y81.033 E0.68416
G1 X93.696 Y80.71 E0.73625
G1 X94.142 Y80.466 E0.77683
G1 X94.667 Y80.19 E0.82418
G1 X95.117 Y79.964 E0.86438
G1 X95.355 Y79.848 E0.88551
G1 X95.825 Y79.622 E0.92714
G1 X96.259 Y79.423 E0.96525
G1 X96.825 Y79.175 E1.01458
G1 X97.354 Y78.956 E1.06028
G1 X97.908 Y78.736 E1.10786
G1 X98.375 Y78.559 E1.14773
G1 X98.975 Y78.344 E1.19861
G1 X99.442 Y78.185 E1.23799
G1 X100.047 Y77.989 E1.28875
G1 X100.487 Y77.858 E1.3254
G1 X100.854 Y77.752 E1.35589
G1 X101.207 Y77.653 E1.38515
G1 X101.718 Y77.517 E1.42736
G1 X102.328 Y77.368 E1.47749
G1 X102.841 Y77.252 E1.51947
G1 X103.443 Y77.127 E1.56855
G1 X103.981 Y77.023 E1.61229
G1 X104.581 Y76.919 E1.6609
G1 X105.114 Y76.836 E1.70396
G1 X105.73 Y76.751 E1.7536
G1 X106.228 Y76.691 E1.79364
G1 X106.894 Y76.623 E1.84708
G1 X107.401 Y76.58 E1.88769
G1 X108.04 Y76.536 E1.93882
G1 X108.248 Y76.525 E1.95545
G1 X108.602 Y76.509 E1.98374
G1 X109.189 Y76.489 E2.03062
G1 X109.74 Y76.48 E2.07461
G1 X110.359 Y76.481 E2.12402
G1 X110.824 Y76.489 E2.16114
G1 X111.494 Y76.511 E2.21465
G1 X112.015 Y76.538 E2.2563
G1 X112.666 Y76.584 E2.30839
G1 X113.175 Y76.629 E2.34918
G1 X113.813 Y76.696 E2.40039
G1 X114.241 Y76.748 E2.43481
G1 X114.892 Y76.838 E2.48727
G1 X115.088 Y76.867 E2.50308
G1 X115.088 Y76.869 E2.50324
G1 X115.477 Y76.929 E2.53466
G1 X116.021 Y77.024 E2.57874
G1 X116.628 Y77.14 E2.62807
G1 X117.178 Y77.256 E2.67294
G1 X117.76 Y77.39 E2.72062
G1 X118.398 Y77.549 E2.7731
G1 X118.871 Y77.675 E2.81218
G1 X119.448 Y77.838 E2.86004
G1 X119.901 Y77.975 E2.89781
G1 X120.089 Y78.034 E2.91354
G1 X120.618 Y78.204 E2.9579
G1 X121.095 Y78.369 E2.99819
G1 X121.689 Y78.584 E3.04861
G1 X122.122 Y78.749 E3.0856
G1 X122.774 Y79.01 E3.14166
G1 X123.203 Y79.188 E3.17874
G1 X123.815 Y79.458 E3.23213
G1 X124.254 Y79.661 E3.27074
G1 X124.837 Y79.942 E3.3224
G1 X125.354 Y80.202 E3.3686
G1 X125.913 Y80.497 E3.41905
G1 X126.326 Y80.723 E3.45663
G1 X126.902 Y81.052 E3.50958
G1 X127.342 Y81.313 E3.55042
G1 X127.341 Y81.314 E3.55053
G1 X127.852 Y81.628 E3.59841
G1 X128.319 Y81.928 E3.64271
G1 X128.852 Y82.283 E3.69383
G1 X129.258 Y82.562 E3.73316
G1 X129.787 Y82.941 E3.7851
G1 X130.176 Y83.23 E3.82379
G1 X130.693 Y83.627 E3.87582
G1 X131.151 Y83.994 E3.92267
G1 X131.637 Y84.397 E3.97307
G1 X131.999 Y84.707 E4.01111
G1 X132.474 Y85.129 E4.06183
G1 X132.842 Y85.467 E4.10171
G1 X132.843 Y85.466 E4.10183
G1 X133.316 Y85.915 E4.15389
G1 X133.706 Y86.3 E4.19763
G1 X134.125 Y86.726 E4.24533
G1 X134.124 Y86.727 E4.24544
G1 X134.515 Y87.139 E4.29078
G1 X134.957 Y87.623 E4.3431
G1 X135.283 Y87.991 E4.38235
G1 X135.673 Y88.447 E4.43024
G1 X136.036 Y88.887 E4.47578
G1 X136.434 Y89.388 E4.52685
G1 X136.71 Y89.747 E4.563
G1 X137.114 Y90.291 E4.61709
G1 X137.433 Y90.737 E4.66086
G1 X137.775 Y91.232 E4.70889
G1 X138.09 Y91.708 E4.75445
G1 X138.403 Y92.199 E4.80093
G1 X138.673 Y92.637 E4.842
G1 X139.006 Y93.198 E4.89408
G1 X139.239 Y93.607 E4.93165
G1 X139.558 Y94.189 E4.98463
G1 X139.809 Y94.667 E5.02773
G1 X140.106 Y95.258 E5.08053
G1 X140.316 Y95.695 E5.11923
G1 X140.569 Y96.245 E5.16755
G1 X140.791 Y96.752 E5.21173
G1 X141.036 Y97.333 E5.26207
G1 X141.23 Y97.82 E5.30391
G1 X141.463 Y98.435 E5.35641
G1 X141.636 Y98.917 E5.39729
G1 X141.843 Y99.526 E5.44863
G1 X142.002 Y100.023 E5.49029
G1 X142.182 Y100.623 E5.54029
G1 X142.312 Y101.083 E5.57845
G1 X142.48 Y101.712 E5.63042
G1 X142.595 Y102.18 E5.66888
G1 X142.749 Y102.844 E5.7233
G1 X142.864 Y103.394 E5.76815
G1 X142.987 Y104.043 E5.82088
G1 X143.061 Y104.47 E5.85547
G1 X143.166 Y105.137 E5.90937
G1 X143.237 Y105.644 E5.95023
G1 X143.31 Y106.24 E5.99816
G1 X143.349 Y106.655 E6.03144
G1 X143.352 Y106.655 E6.03168
G1 X143.374 Y106.873 E6.04917
G1 X143.404 Y107.238 E6.0784
G1 X143.461 Y107.973 E6.13725
G1 X143.492 Y108.607 E6.18792
G1 X143.507 Y109.061 E6.22418
G1 X143.512 Y109.257 E6.23983
G1 X143.52 Y109.808 E6.28382
G1 X143.52 Y110.189 E6.31423
G1 X143.513 Y110.678 E6.35327
G1 X143.507 Y110.949 E6.3749
G1 X143.492 Y111.425 E6.41292
G1 X143.458 Y112.065 E6.46408
G1 X143.418 Y112.609 E6.50762
G1 X143.367 Y113.209 E6.55569
G1 X143.314 Y113.724 E6.59702
G1 X143.237 Y114.358 E6.648
G1 X143.163 Y114.889 E6.69079
G1 X143.072 Y115.474 E6.73805
G1 X143.003 Y115.835 E6.76739
G1 X142.969 Y116.053 E6.785
G1 X142.857 Y116.641 E6.83278
G1 X142.766 Y117.041 E6.86553
G1 X142.733 Y117.224 E6.88037
G1 X142.628 Y117.689 E6.91842
G1 X142.529 Y118.068 E6.94969
G1 X142.463 Y118.35 E6.97281
G1 X142.32 Y118.891 E7.01748
G1 X142.169 Y119.422 E7.06155
G1 X141.993 Y120.005 E7.11016
G1 X141.839 Y120.483 E7.15025
G1 X141.621 Y121.123 E7.20422
G1 X141.453 Y121.593 E7.24406
G1 X141.221 Y122.204 E7.29623
G1 X141.028 Y122.684 E7.33752
G1 X140.778 Y123.28 E7.38912
G1 X140.698 Y123.463 E7.40506
G1 X140.694 Y123.463 E7.40538
G1 X140.581 Y123.726 E7.42823
G1 X140.333 Y124.269 E7.47588
G1 X140.093 Y124.767 E7.52001
G1 X139.79 Y125.368 E7.57373
G1 X139.556 Y125.814 E7.61394
G1 X139.245 Y126.382 E7.66563
G1 X139.004 Y126.806 E7.70456
G1 X139.003 Y126.805 E7.70467
G1 X138.675 Y127.361 E7.7562
G1 X138.407 Y127.796 E7.79699
G1 X138.064 Y128.333 E7.84785
G1 X137.768 Y128.778 E7.89051
G1 X137.402 Y129.309 E7.94199
G1 X137.05 Y129.799 E7.99015
G1 X136.699 Y130.268 E8.03692
G1 X136.408 Y130.646 E8.07499
G1 X135.985 Y131.175 E8.12906
G1 X135.659 Y131.57 E8.16994
G1 X135.22 Y132.082 E8.22378
G1 X134.93 Y132.409 E8.25867
G1 X134.491 Y132.889 E8.31059
G1 X134.13 Y133.268 E8.35237
G1 X133.643 Y133.762 E8.40775
G1 X133.292 Y134.107 E8.44703
G1 X132.813 Y134.561 E8.49972
G1 X132.812 Y134.56 E8.49983
G1 X132.461 Y134.884 E8.53796
G1 X131.976 Y135.313 E8.58965
G1 X131.586 Y135.646 E8.63058
G1 X131.073 Y136.069 E8.68366
G1 X130.653 Y136.402 E8.72644
G1 X130.654 Y136.403 E8.72656
G1 X130.153 Y136.786 E8.77689
G1 X129.764 Y137.075 E8.81558
G1 X129.247 Y137.445 E8.86633
G1 X128.825 Y137.736 E8.90725
G1 X128.269 Y138.105 E8.96051
G1 X127.848 Y138.374 E9.00039
G1 X127.281 Y138.722 E9.0535
G1 X126.86 Y138.972 E9.09258
G1 X126.298 Y139.292 E9.14421
G1 X125.863 Y139.53 E9.18379
G1 X125.264 Y139.844 E9.23777
G1 X124.792 Y140.081 E9.27993
G1 X124.236 Y140.348 E9.32917
G1 X123.764 Y140.566 E9.37067
G1 X123.178 Y140.823 E9.42175
G1 X122.659 Y141.038 E9.46659
G1 X122.09 Y141.265 E9.51549
G1 X121.682 Y141.419 E9.5503
G1 X121.058 Y141.645 E9.60328
G1 X120.567 Y141.811 E9.64465
G1 X120.52 Y141.828 E9.64864
G1 X119.894 Y142.028 E9.7011
G1 X119.437 Y142.165 E9.73918
G1 X118.818 Y142.34 E9.79053
G1 X118.322 Y142.473 E9.83152
G1 X117.667 Y142.633 E9.88535
G1 X117.172 Y142.746 E9.92588
G1 X116.568 Y142.872 E9.97513
G1 X116.059 Y142.969 E10.01649
G1 X115.463 Y143.073 E10.06478
G1 X115.074 Y143.133 E10.0962
G1 X115.074 Y143.135 E10.09636
G1 X114.884 Y143.163 E10.11169
G1 X114.268 Y143.249 E10.16134
G1 X113.77 Y143.309 E10.20138
G1 X113.127 Y143.375 E10.25298
G1 X112.64 Y143.418 E10.292
G1 X111.961 Y143.464 E10.34633
G1 X111.485 Y143.489 E10.38438
G1 X110.81 Y143.511 E10.43829
G1 X110.259 Y143.52 E10.48228
G1 X109.64 Y143.519 E10.53169
G1 X109.175 Y143.511 E10.56881
G1 X108.515 Y143.489 E10.62152
G1 X107.965 Y143.461 E10.66548
G1 X107.33 Y143.415 E10.71631
G1 X106.785 Y143.367 E10.75998
G1 X106.185 Y143.304 E10.80814
G1 X105.76 Y143.253 E10.84231
G1 X105.228 Y143.179 E10.88518
G1 X105.019 Y143.15 E10.90202
G1 X104.523 Y143.072 E10.9421
G1 X103.882 Y142.959 E10.99406
G1 X103.39 Y142.863 E11.03407
G1 X102.736 Y142.725 E11.08743
G1 X102.224 Y142.607 E11.12937
G1 X101.591 Y142.449 E11.18145
G1 X101.219 Y142.35 E11.21218
G1 X100.508 Y142.149 E11.27116
G1 X100.028 Y142.004 E11.31118
G1 X99.395 Y141.799 E11.36429
G1 X98.934 Y141.642 E11.40317
G1 X98.353 Y141.433 E11.45246
G1 X97.833 Y141.234 E11.4969
G1 X97.224 Y140.991 E11.54924
G1 X96.822 Y140.823 E11.58402
G1 X96.165 Y140.534 E11.64131
G1 X95.81 Y140.37 E11.67253
G1 X95.167 Y140.058 E11.72958
G1 X95.167 Y140.06 E11.72974
G1 X94.655 Y139.804 E11.77543
G1 X94.119 Y139.522 E11.82378
G1 X93.643 Y139.26 E11.86715
G1 X93.1 Y138.951 E11.91702
G1 X92.671 Y138.695 E11.9569
G1 X92.081 Y138.33 E12.01228
G1 X91.68 Y138.072 E12.05034
G1 X91.124 Y137.702 E12.10366
G1 X90.748 Y137.44 E12.14024
G1 X90.726 Y137.426 E12.14232
G1 X90.188 Y137.039 E12.19522
G1 X89.802 Y136.753 E12.23357
G1 X89.3 Y136.367 E12.28412
G1 X88.882 Y136.032 E12.32688
G1 X88.869 Y136.024 E12.3281
G1 X88.366 Y135.607 E12.38025
G1 X87.959 Y135.257 E12.4231
G1 X87.512 Y134.86 E12.47082
G1 X87.151 Y134.528 E12.50997
G1 X86.665 Y134.066 E12.5635
G1 X86.285 Y133.691 E12.60612
G1 X85.859 Y133.258 E12.6546
G1 X85.483 Y132.861 E12.69825
G1 X85.06 Y132.399 E12.74825
G1 X84.735 Y132.032 E12.78738
G1 X84.301 Y131.524 E12.84072
G1 X83.945 Y131.091 E12.88546
G1 X83.55 Y130.594 E12.93614
G1 X83.549 Y130.595 E12.93625
G1 X83.272 Y130.233 E12.97264
G1 X82.875 Y129.696 E13.02595
G1 X82.62 Y129.34 E13.0609
G1 X82.497 Y129.164 E13.07804
G1 X82.204 Y128.738 E13.11931
G1 X81.938 Y128.338 E13.15766
G1 X81.567 Y127.755 E13.21282
G1 X81.315 Y127.347 E13.2511
G1 X81.01 Y126.832 E13.29888
G1 X80.702 Y126.29 E13.34864
G1 X80.4 Y125.734 E13.39915
G1 X80.195 Y125.342 E13.43446
G1 X79.887 Y124.729 E13.48922
G1 X79.661 Y124.258 E13.53092
G1 X79.408 Y123.707 E13.57932
G1 X79.185 Y123.2 E13.62353
G1 X78.957 Y122.653 E13.67084
G1 X78.745 Y122.119 E13.7167
G1 X78.533 Y121.557 E13.76465
G1 X78.353 Y121.054 E13.80729
G1 X78.159 Y120.482 E13.85551
G1 X77.999 Y119.985 E13.89719
G1 X77.806 Y119.344 E13.95062
G1 X77.668 Y118.855 E13.99118
G1 X77.506 Y118.243 E14.04172
G1 X77.379 Y117.723 E14.08444
G1 X77.238 Y117.098 E14.13559
G1 X77.121 Y116.534 E14.18157
G1 X77.012 Y115.962 E14.22805
G1 X76.927 Y115.469 E14.26798
G1 X76.832 Y114.866 E14.31671
G1 X76.831 Y114.851 E14.31791
G1 X76.765 Y114.383 E14.35564
G1 X76.679 Y113.668 E14.41312
G1 X76.632 Y113.209 E14.44996
G1 X76.578 Y112.589 E14.49963
G1 X76.538 Y112.02 E14.54517
G1 X76.507 Y111.411 E14.59384
G1 X76.491 Y110.942 E14.6313
G1 X76.482 Y110.477 E14.66843
G1 X76.478 Y110.186 E14.69166
G1 X76.478 Y109.805 E14.72207
G1 X76.481 Y109.534 E14.7437
G1 X76.491 Y109.04 E14.78315
G1 X76.51 Y108.496 E14.8266
G1 X76.54 Y107.948 E14.87041
G1 X76.581 Y107.373 E14.91642
G1 X76.634 Y106.768 E14.9649
G1 X76.683 Y106.295 E15.00286
G1 X76.767 Y105.603 E15.0585
G1 X76.835 Y105.114 E15.09791
G1 X76.933 Y104.491 E15.14825
G1 X77.027 Y103.952 E15.19193
G1 X77.152 Y103.31 E15.24414
G1 X77.247 Y102.861 E15.28077
G1 X77.389 Y102.24 E15.33162
G1 X77.393 Y102.217 E15.33349
G1 X77.514 Y101.729 E15.37362
G1 X77.673 Y101.129 E15.42317
G1 X77.714 Y100.98 E15.4355
G1 X77.836 Y100.556 E15.47072
G1 X78.009 Y99.983 E15.5185
G1 X78.165 Y99.498 E15.55917
G1 X78.35 Y98.954 E15.60504
G1 X78.531 Y98.449 E15.64786
G1 X78.775 Y97.803 E15.70298
G1 X78.968 Y97.322 E15.74435
G1 X79.237 Y96.683 E15.7997
G1 X79.42 Y96.266 E15.83605
G1 X79.689 Y95.684 E15.88723
G1 X79.912 Y95.219 E15.92839
G1 X80.207 Y94.634 E15.98069
G1 X80.445 Y94.181 E16.02154
G1 X80.745 Y93.63 E16.07162
G1 X80.996 Y93.192 E16.11192
G1 X81.22 Y92.812 E16.14713
G1 X81.377 Y92.55 E16.17151
G1 X81.607 Y92.179 E16.20635
G1 X81.928 Y91.678 E16.25385
G1 X82.234 Y91.219 E16.29788
G1 X82.628 Y90.648 E16.35326
G1 X82.937 Y90.218 E16.39553
G1 X83.296 Y89.735 E16.44357
G1 X83.587 Y89.358 E16.48158
G1 X84.034 Y88.799 E16.53872
G1 X84.338 Y88.431 E16.57682
G1 X84.765 Y87.935 E16.62906
G1 X85.08 Y87.579 E16.66701
G1 X85.524 Y87.095 E16.71944
G1 X85.869 Y86.732 E16.75941
G1 X86.352 Y86.242 E16.81433
G0 F9000 X86.4 Y86.194
G1 F1125 X86.4 Y133.804 E20.61477
G0 F9000 X88 Y135.292
G1 F1125 X88 Y84.707 E24.65268
G0 F9000 X89.6 Y83.402
G1 F1125 X89.6 Y136.597 E28.89894
G0 F9000 X91.2 Y137.752
G1 F1125 X91.2 Y82.246 E33.32967
G0 F9000 X92.8 Y81.228
G1 F1125 X92.8 Y138.771 E37.923
G0 F9000 X94.4 Y139.669
G1 F1125 X94.4 Y80.33 E42.65969
G0 F9000 X96 Y79.541
G1 F1125 X96 Y140.457 E47.52227
G0 F9000 X97.6 Y141.141
G1 F1125 X97.6 Y78.858 E52.49397
G0 F9000 X99.2 Y78.267
G1 F1125 X99.2 Y141.732 E57.56002
G0 F9000 X100.8 Y142.231
G1 F1125 X100.8 Y77.767 E62.70582
G0 F9000 X102.4 Y77.351
G1 F1125 X102.4 Y142.647 E67.91803
G0 F9000 X104 Y142.979
G1 F1125 X104 Y77.019 E73.18324
G0 F9000 X105.6 Y76.768
G1 F1125 X105.6 Y143.23 E78.48852
G0 F9000 X107.2 Y143.403
G1 F1125 X107.2 Y76.597 E83.82127
G0 F9000 X108.8 Y76.502
G1 F1125 X108.8 Y143.498 E89.16918
G0 F9000 X110.4 Y143.518
G1 F1125 X110.4 Y76.482 E94.52028
G0 F9000 X112 Y76.538
G1 F1125 X112 Y143.462 E99.86244
G0 F9000 X113.6 Y143.327
G1 F1125 X113.6 Y76.674 E105.18297
G0 F9000 X115.2 Y76.887
G1 F1125 X115.2 Y143.114 E110.4695
G0 F9000 X116.8 Y142.824
G1 F1125 X116.8 Y77.177 E115.70973
G0 F9000 X118.4 Y77.55
G1 F1125 X118.4 Y142.453 E120.89057
G0 F9000 X120 Y141.995
G1 F1125 X120 Y78.007 E125.99836
G0 F9000 X121.6 Y78.552
G1 F1125 X121.6 Y141.449 E131.01907
G0 F9000 X123.2 Y140.814
G1 F1125 X123.2 Y79.187 E135.93841
G0 F9000 X124.8 Y79.925
G1 F1125 X124.8 Y140.077 E140.74
G0 F9000 X126.4 Y139.234
G1 F1125 X126.4 Y80.766 E145.40717
G0 F9000 X128 Y81.724
G1 F1125 X128 Y138.277 E149.92147
G0 F9000 X129.6 Y137.193
G1 F1125 X129.6 Y82.808 E154.26272
G0 F9000 X131.2 Y84.035
G1 F1125 X131.2 Y135.965 E158.408
G0 F9000 X132.8 Y134.572
G1 F1125 X132.8 Y85.429 E162.3308
G0 F9000 X134.4 Y87.018
G1 F1125 X134.4 Y132.985 E166.00009
G0 F9000 X136 Y131.157
G1 F1125 X136 Y88.844 E169.3777
G0 F9000 X137.6 Y90.979
G1 F1125 X137.6 Y129.022 E172.41445
G0 F9000 X139.2 Y126.462
G1 F1125 X139.2 Y93.539 E175.04251
G0 F9000 X140.8 Y96.774
G1 F1125 X140.8 Y123.228 E177.15418
G1 F1500 E170.65418
G0 F9000 X142.011 Y123.091
G0 X142.865 Y120.7
G0 X143.345 Y119.176
G0 X142.4 Y118.589
G1 F1500 E177.15418
G1 F1125 X142.4 Y101.413 E178.52524
G1 F1500 E172.02524
G0 F9000 X143.34 Y100.805
G0 X142.46 Y98.064
G0 X141.28 Y95.245
G0 X139.897 Y92.613
G0 X138.252 Y90.051
G0 X136.49 Y87.765
G0 X134.428 Y85.516
G0 X132.27 Y83.54
G0 X129.873 Y81.694
G0 X127.394 Y80.107
G0 X124.675 Y78.684
G0 X122.031 Y77.576
G0 X119.076 Y76.628
G0 X116.143 Y75.965
G0 X113.224 Y75.565
G0 X110.281 Y75.415
G0 X107.922 Y75.477
G0 X104.874 Y75.796
G0 X103.364 Y76.054
G0 X100.979 Y76.611
G0 X98.627 Y77.338
G0 X96.225 Y78.269
G0 X93.637 Y79.529
G0 X91.116 Y81.024
G0 X88.669 Y82.775
G0 X86.875 Y84.28
G0 X85.66 Y85.474
G0 X84.266 Y86.894
G0 X84.8 Y87.895
G1 F1500 E178.52524
G1 F1125 X84.8 Y132.105 E182.05428
G0 F9000 X83.2 Y130.135
G1 F1125 X83.2 Y89.864 E185.26888
G0 F9000 X81.6 Y92.19
G1 F1125 X81.6 Y127.806 E188.11191
G0 F9000 X80 Y124.953
G1 F1125 X80 Y95.044 E190.49937
G0 F9000 X78.4 Y98.814
G1 F1125 X78.4 Y121.185 E192.28512
G1 F1500 E185.78512
G0 F9000 X77.151 Y120.823
G0 X76.34 Y117.955
G0 X76.078 Y116.642
G0 X75.778 Y115.009
G0 X76.8 Y114.631
G1 F1500 E192.28512
G1 F1125 X76.8 Y105.365 E193.02477
G1 F1500 E186.52477
G0 F300 X76.8 Y105.365 Z0.54
G0 F9000 X75.7 Y105.559
G0 X75.443 Y108.549
G0 X75.426 Y110.369
