;FLAVOR:Marlin
;TIME:22603
;Filament used: 20.741m
;Layer height: 0.2
;MINX:46.075
;MINY:53.714
;MINZ:0.24
;MAXX:173.925
;MAXY:201.825
;MAXZ:18.29
;Generated with Cura_SteamEngine 4.7.0
M140 S60
M105
M190 S60
M104 S210
M105
M109 S210
M82 ;absolute extrusion mode
; Ender 3 Custom Start G-code
G92 E0 ; Reset Extruder
G28 ; Home all axes
G1 Z2.0 F3000 ; Move Z Axis up little to prevent scratching of Heat Bed
G1 X0.1 Y20 Z0.3 F5000.0 ; Move to start position
G1 X0.1 Y200.0 Z0.3 F1500.0 E15 ; Draw the first line
G1 X0.4 Y200.0 Z0.3 F5000.0 ; Move to side a little
G1 X0.4 Y20 Z0.3 F1500.0 E30 ; Draw the second line
G92 E0 ; Reset Extruder
G1 Z2.0 F3000 ; Move Z Axis up little to prevent scratching of Heat Bed
G1 X5 Y20 Z0.3 F5000.0 ; Move over to prevent blob squish
G92 E0
G92 E0
G1 F1500 E-6.5
;LAYER_COUNT:86
;LAYER:-6
M107
G0 F9000 X52.338 Y58.193 Z0.24
;TYPE:SUPPORT-INTERFACE
G1 F1500 E0
G1 F1125 X52.454 Y58.097 E0.01202
G1 X53.166 Y57.547 E0.08384
G1 X53.325 Y57.434 E0.09941
G1 X54.063 Y56.944 E0.17012
G1 X54.189 Y56.868 E0.18187
G1 X54.983 Y56.422 E0.25456
G1 X55.133 Y56.344 E0.26806
G1 X55.948 Y55.961 E0.33994
G1 X56.091 Y55.901 E0.35232
G1 X56.95 Y55.572 E0.42574
G1 X57.1 Y55.52 E0.43842
G1 X57.95 Y55.265 E0.50926
G1 X58.123 Y55.218 E0.52357
G1 X59.018 Y55.018 E0.59677
G1 X59.148 Y54.995 E0.60731
G1 X60.053 Y54.861 E0.68034
G1 X60.222 Y54.843 E0.6939
G1 X61.111 Y54.777 E0.76506
G1 X61.295 Y54.768 E0.77977
G1 X61.8 Y54.76 E0.82008
G1 X158.228 Y54.76 E8.51738
G1 X159.264 Y54.797 E8.60014
G1 X159.387 Y54.806 E8.60998
G1 X160.304 Y54.908 E8.68363
G1 X160.479 Y54.933 E8.69774
G1 X161.368 Y55.097 E8.7699
G1 X161.491 Y55.125 E8.77997
G1 X162.385 Y55.359 E8.85374
G1 X162.548 Y55.408 E8.86733
G1 X163.39 Y55.694 E8.93831
G1 X163.556 Y55.758 E8.95251
G1 X164.359 Y56.099 E9.02215
G1 X164.548 Y56.187 E9.03879
G1 X165.342 Y56.595 E9.11005
G1 X165.459 Y56.662 E9.12081
G1 X166.238 Y57.136 E9.1936
G1 X166.389 Y57.236 E9.20806
G1 X167.103 Y57.747 E9.27815
G1 X167.251 Y57.86 E9.29301
G1 X167.942 Y58.436 E9.36482
G1 X168.055 Y58.537 E9.37692
G1 X168.704 Y59.162 E9.44884
G1 X168.824 Y59.287 E9.46267
G1 X169.427 Y59.958 E9.53469
G1 X169.523 Y60.074 E9.5467
G1 X170.082 Y60.798 E9.61972
G1 X170.176 Y60.929 E9.63259
G1 X170.676 Y61.683 E9.70481
G1 X170.752 Y61.809 E9.71655
G1 X171.198 Y62.603 E9.78925
G1 X171.276 Y62.753 E9.80274
G1 X171.659 Y63.568 E9.87463
G1 X171.719 Y63.711 E9.88701
G1 X172.048 Y64.57 E9.96043
G1 X172.1 Y64.72 E9.9731
G1 X172.355 Y65.57 E10.04394
G1 X172.402 Y65.743 E10.05825
G1 X172.6 Y66.629 E10.13072
G1 X172.625 Y66.768 E10.142
G1 X172.758 Y67.667 E10.21454
G1 X172.776 Y67.829 E10.22755
G1 X172.843 Y68.731 E10.29975
G1 X172.852 Y68.915 E10.31446
G1 X172.86 Y69.416 E10.35445
G1 X172.86 Y150.626 E16.83699
G1 X172.824 Y151.632 E16.91734
G1 X172.814 Y151.767 E16.92815
G1 X172.712 Y152.684 E17.0018
G1 X172.687 Y152.859 E17.01591
G1 X172.525 Y153.737 E17.08718
G1 X172.495 Y153.871 E17.09814
G1 X172.264 Y154.756 E17.17115
G1 X172.212 Y154.928 E17.18549
G1 X171.936 Y155.74 E17.25395
G1 X171.863 Y155.931 E17.27027
G1 X171.779 Y156.131 E17.28759
G1 X171.556 Y156.762 E17.34101
G1 X171.413 Y157.429 E17.39546
G1 X171.353 Y158.11 E17.45004
G1 X171.381 Y158.793 E17.5046
G1 X171.495 Y159.466 E17.55909
G1 X171.705 Y160.149 E17.61613
G1 X172.045 Y161.041 E17.69233
G1 X172.1 Y161.2 E17.70576
G1 X172.355 Y162.05 E17.7766
G1 X172.402 Y162.223 E17.79091
G1 X172.6 Y163.109 E17.86337
G1 X172.625 Y163.248 E17.87465
G1 X172.758 Y164.147 E17.94719
G1 X172.776 Y164.309 E17.9602
G1 X172.843 Y165.211 E18.0324
G1 X172.852 Y165.395 E18.04711
G1 X172.86 Y165.896 E18.0871
G1 X172.86 Y186.146 E19.70355
G1 X172.824 Y187.152 E19.7839
G1 X172.814 Y187.287 E19.79471
G1 X172.712 Y188.204 E19.86836
G1 X172.687 Y188.379 E19.88247
G1 X172.525 Y189.257 E19.95374
G1 X172.495 Y189.391 E19.9647
G1 X172.264 Y190.276 E20.03771
G1 X172.212 Y190.448 E20.05205
G1 X171.936 Y191.26 E20.12051
G1 X171.856 Y191.469 E20.13838
G1 X171.521 Y192.259 E20.20687
G1 X171.44 Y192.434 E20.22227
G1 X171.025 Y193.242 E20.29478
G1 X170.958 Y193.359 E20.30554
G1 X170.484 Y194.138 E20.37833
G1 X170.384 Y194.289 E20.39278
G1 X169.873 Y195.003 E20.46287
G1 X169.76 Y195.151 E20.47774
G1 X169.184 Y195.842 E20.54954
G1 X169.083 Y195.955 E20.56164
G1 X168.458 Y196.604 E20.63357
G1 X168.333 Y196.724 E20.6474
G1 X167.663 Y197.326 E20.7193
G1 X167.546 Y197.423 E20.73143
G1 X166.834 Y197.973 E20.80325
G1 X166.675 Y198.086 E20.81882
G1 X165.937 Y198.576 E20.88953
G1 X165.811 Y198.652 E20.90128
G1 X165.017 Y199.098 E20.97397
G1 X164.866 Y199.176 E20.98754
G1 X164.052 Y199.559 E21.05935
G1 X163.909 Y199.619 E21.07173
G1 X163.05 Y199.948 E21.14515
G1 X162.9 Y200 E21.15783
G1 X162.05 Y200.255 E21.22866
G1 X161.877 Y200.302 E21.24297
G1 X160.982 Y200.502 E21.31618
G1 X160.852 Y200.525 E21.32672
G1 X159.947 Y200.659 E21.39975
G1 X159.779 Y200.677 E21.41323
G1 X158.889 Y200.743 E21.48447
G1 X158.705 Y200.752 E21.49918
G1 X158.2 Y200.76 E21.53949
G1 X61.772 Y200.76 E29.23679
G1 X60.736 Y200.723 E29.31954
G1 X60.613 Y200.714 E29.32939
G1 X59.696 Y200.612 E29.40304
G1 X59.521 Y200.587 E29.41715
G1 X58.632 Y200.423 E29.48931
G1 X58.509 Y200.395 E29.49938
G1 X57.615 Y200.161 E29.57315
G1 X57.452 Y200.112 E29.58673
G1 X56.61 Y199.826 E29.65772
G1 X56.444 Y199.762 E29.67192
G1 X55.641 Y199.421 E29.74156
G1 X55.452 Y199.333 E29.7582
G1 X54.658 Y198.925 E29.82946
G1 X54.541 Y198.858 E29.84022
G1 X53.762 Y198.384 E29.91301
G1 X53.611 Y198.284 E29.92747
G1 X52.897 Y197.773 E29.99756
G1 X52.749 Y197.66 E30.01242
G1 X52.058 Y197.084 E30.08423
G1 X51.945 Y196.983 E30.09633
G1 X51.296 Y196.358 E30.16825
G1 X51.176 Y196.233 E30.18208
G1 X50.573 Y195.562 E30.25409
G1 X50.476 Y195.444 E30.26629
G1 X49.918 Y194.722 E30.33913
G1 X49.814 Y194.575 E30.3535
G1 X49.321 Y193.832 E30.42468
G1 X49.248 Y193.711 E30.43596
G1 X48.796 Y192.906 E30.50965
G1 X48.724 Y192.767 E30.52215
G1 X48.327 Y191.921 E30.59675
G1 X48.281 Y191.809 E30.60641
G1 X47.952 Y190.95 E30.67984
G1 X47.895 Y190.785 E30.69377
G1 X47.645 Y189.95 E30.76335
G1 X47.598 Y189.777 E30.77766
G1 X47.397 Y188.876 E30.85135
G1 X47.375 Y188.752 E30.8614
G1 X47.24 Y187.838 E30.93515
G1 X47.223 Y187.678 E30.948
G1 X47.157 Y186.786 E31.01939
G1 X47.148 Y186.605 E31.03386
G1 X47.14 Y186.104 E31.07386
G1 X47.14 Y165.854 E32.6903
G1 X47.176 Y164.848 E32.77065
G1 X47.186 Y164.713 E32.78146
G1 X47.288 Y163.796 E32.85511
G1 X47.313 Y163.621 E32.86922
G1 X47.475 Y162.743 E32.94049
G1 X47.505 Y162.609 E32.95145
G1 X47.736 Y161.724 E33.02446
G1 X47.788 Y161.552 E33.03881
G1 X48.07 Y160.724 E33.10863
G1 X48.137 Y160.549 E33.12359
G1 X48.221 Y160.349 E33.1409
G1 X48.444 Y159.718 E33.19433
G1 X48.587 Y159.051 E33.24878
G1 X48.647 Y158.37 E33.30335
G1 X48.619 Y157.687 E33.35791
G1 X48.505 Y157.014 E33.4124
G1 X48.295 Y156.331 E33.46944
G1 X47.955 Y155.439 E33.54564
G1 X47.895 Y155.265 E33.56033
G1 X47.645 Y154.43 E33.62991
G1 X47.598 Y154.257 E33.64422
G1 X47.397 Y153.356 E33.71791
G1 X47.375 Y153.232 E33.72796
G1 X47.24 Y152.318 E33.80171
G1 X47.223 Y152.158 E33.81456
G1 X47.157 Y151.266 E33.88596
G1 X47.148 Y151.085 E33.90042
G1 X47.14 Y150.584 E33.94042
G1 X47.14 Y69.374 E40.42295
G1 X47.176 Y68.368 E40.50331
G1 X47.186 Y68.233 E40.51411
G1 X47.288 Y67.316 E40.58776
G1 X47.313 Y67.141 E40.60187
G1 X47.475 Y66.263 E40.67314
G1 X47.505 Y66.129 E40.6841
G1 X47.736 Y65.244 E40.75711
G1 X47.788 Y65.072 E40.77146
G1 X48.074 Y64.23 E40.84244
G1 X48.138 Y64.064 E40.85664
G1 X48.479 Y63.261 E40.92628
G1 X48.56 Y63.086 E40.94168
G1 X48.975 Y62.278 E41.01418
G1 X49.042 Y62.161 E41.02495
G1 X49.516 Y61.382 E41.09774
G1 X49.616 Y61.231 E41.11219
G1 X50.127 Y60.517 E41.18228
G1 X50.24 Y60.369 E41.19714
G1 X50.816 Y59.678 E41.26895
G1 X50.917 Y59.565 E41.28105
G1 X51.542 Y58.916 E41.35297
G1 X51.667 Y58.796 E41.36681
G1 X52.338 Y58.193 E41.43882
G0 F9000 X52.8 Y57.829
G1 F1125 X52.8 Y197.698 E52.60377
G0 F9000 X54.4 Y198.772
G1 F1125 X54.4 Y56.749 E63.94066
G0 F9000 X56 Y55.939
G1 F1125 X56 Y199.573 E75.40614
G0 F9000 X57.6 Y200.156
G1 F1125 X57.6 Y55.37 E86.96359
G0 F9000 X59.2 Y54.987
G1 F1125 X59.2 Y200.527 E98.58122
G0 F9000 X60.8 Y200.725
G1 F1125 X60.8 Y54.8 E110.22958
G0 F9000 X62.4 Y54.76
G1 F1125 X62.4 Y200.76 E121.88394
G0 F9000 X64 Y200.76
G1 F1125 X64 Y54.76 E133.53829
G0 F9000 X65.6 Y54.76
G1 F1125 X65.6 Y200.76 E145.19264
G0 F9000 X67.2 Y200.76
G1 F1125 X67.2 Y54.76 E156.84699
G0 F9000 X68.8 Y54.76
G1 F1125 X68.8 Y200.76 E168.50134
G0 F9000 X70.4 Y200.76
G1 F1125 X70.4 Y54.76 E180.15569
G0 F9000 X72 Y54.76
G1 F1125 X72 Y200.76 E191.81004
G0 F9000 X73.6 Y200.76
G1 F1125 X73.6 Y54.76 E203.4644
G0 F9000 X75.2 Y54.76
G1 F1125 X75.2 Y200.76 E215.11875
G0 F9000 X76.8 Y200.76
G1 F1125 X76.8 Y54.76 E226.7731
G0 F9000 X78.4 Y54.76
G1 F1125 X78.4 Y200.76 E238.42745
G0 F9000 X80 Y200.76
G1 F1125 X80 Y54.76 E250.0818
G0 F9000 X81.6 Y54.76
G1 F1125 X81.6 Y200.76 E261.73615
G0 F9000 X83.2 Y200.76
G1 F1125 X83.2 Y54.76 E273.3905
G0 F9000 X84.8 Y54.76
G1 F1125 X84.8 Y200.76 E285.04485
G0 F9000 X86.4 Y200.76
G1 F1125 X86.4 Y54.76 E296.69921
G0 F9000 X88 Y54.76
G1 F1125 X88 Y200.76 E308.35356
G0 F9000 X89.6 Y200.76
G1 F1125 X89.6 Y54.76 E320.00791
G0 F9000 X91.2 Y54.76
G1 F1125 X91.2 Y200.76 E331.66226
G0 F9000 X92.8 Y200.76
G1 F1125 X92.8 Y54.76 E343.31661
G0 F9000 X94.4 Y54.76
G1 F1125 X94.4 Y200.76 E354.97096
G0 F9000 X96 Y200.76
G1 F1125 X96 Y54.76 E366.62531
G0 F9000 X97.6 Y54.76
G1 F1125 X97.6 Y200.76 E378.27966
G0 F9000 X99.2 Y200.76
G1 F1125 X99.2 Y54.76 E389.93402
G0 F9000 X100.8 Y54.76
G1 F1125 X100.8 Y200.76 E401.58837
G0 F9000 X102.4 Y200.76
G1 F1125 X102.4 Y54.76 E413.24272
G0 F9000 X104 Y54.76
G1 F1125 X104 Y200.76 E424.89707
G0 F9000 X105.6 Y200.76
G1 F1125 X105.6 Y54.76 E436.55142
G0 F9000 X107.2 Y54.76
G1 F1125 X107.2 Y200.76 E448.20577
G0 F9000 X108.8 Y200.76
G1 F1125 X108.8 Y54.76 E459.86012
G0 F9000 X110.4 Y54.76
G1 F1125 X110.4 Y200.76 E471.51448
G0 F9000 X112 Y200.76
G1 F1125 X112 Y54.76 E483.16883
G0 F9000 X113.6 Y54.76
G1 F1125 X113.6 Y200.76 E494.82318
G0 F9000 X115.2 Y200.76
G1 F1125 X115.2 Y54.76 E506.47753
G0 F9000 X116.8 Y54.76
G1 F1125 X116.8 Y200.76 E518.13188
G0 F9000 X118.4 Y200.76
G1 F1125 X118.4 Y54.76 E529.78623
G0 F9000 X120 Y54.76
G1 F1125 X120 Y200.76 E541.44058
G0 F9000 X121.6 Y200.76
G1 F1125 X121.6 Y54.76 E553.09493
G0 F9000 X123.2 Y54.76
G1 F1125 X123.2 Y200.76 E564.74929
G0 F9000 X124.8 Y200.76
G1 F1125 X124.8 Y54.76 E576.40364
G0 F9000 X126.4 Y54.76
G1 F1125 X126.4 Y200.76 E588.05799
G0 F9000 X128 Y200.76
G1 F1125 X128 Y54.76 E599.71234
G0 F9000 X129.6 Y54.76
G1 F1125 X129.6 Y200.76 E611.36669
G0 F9000 X131.2 Y200.76
G1 F1125 X131.2 Y54.76 E623.02104
G0 F9000 X132.8 Y54.76
G1 F1125 X132.8 Y200.76 E634.67539
G0 F9000 X134.4 Y200.76
G1 F1125 X134.4 Y54.76 E646.32975
G0 F9000 X136 Y54.76
G1 F1125 X136 Y200.76 E657.9841
G0 F9000 X137.6 Y200.76
G1 F1125 X137.6 Y54.76 E669.63845
G0 F9000 X139.2 Y54.76
G1 F1125 X139.2 Y200.76 E681.2928
G0 F9000 X140.8 Y200.76
G1 F1125 X140.8 Y54.76 E692.94715
G0 F9000 X142.4 Y54.76
G1 F1125 X142.4 Y200.76 E704.6015
G0 F9000 X144 Y200.76
G1 F1125 X144 Y54.76 E716.25585
G0 F9000 X145.6 Y54.76
G1 F1125 X145.6 Y200.76 E727.9102
G0 F9000 X147.2 Y200.76
G1 F1125 X147.2 Y54.76 E739.56456
G0 F9000 X148.8 Y54.76
G1 F1125 X148.8 Y200.76 E751.21891
G0 F9000 X150.4 Y200.76
G1 F1125 X150.4 Y54.76 E762.87326
G0 F9000 X152 Y54.76
G1 F1125 X152 Y200.76 E774.52761
G0 F9000 X153.6 Y200.76
G1 F1125 X153.6 Y54.76 E786.18196
G0 F9000 X155.2 Y54.76
G1 F1125 X155.2 Y200.76 E797.83631
G0 F9000 X156.8 Y200.76
G1 F1125 X156.8 Y54.76 E809.49066
G0 F9000 X158.4 Y54.767
G1 F1125 X158.4 Y200.757 E821.14422
G0 F9000 X160 Y200.652
G1 F1125 X160 Y54.875 E832.78077
G0 F9000 X161.6 Y55.154
G1 F1125 X161.6 Y200.364 E844.37206
G0 F9000 X163.2 Y199.891
G1 F1125 X163.2 Y55.63 E855.88759
G0 F9000 X164.8 Y56.317
G1 F1125 X164.8 Y199.208 E867.29377
G0 F9000 X166.4 Y198.269
G1 F1125 X166.4 Y57.244 E878.551
G0 F9000 X168 Y58.488
G1 F1125 X168 Y197.024 E889.60954
G0 F9000 X169.6 Y195.343
G1 F1125 X169.6 Y60.174 E900.39931
G0 F9000 X171.2 Y62.607
G1 F1125 X171.2 Y192.902 E910.80002
G1 F1500 E904.30002
G0 F9000 X172.392 Y192.909
G0 X172.935 Y191.628
G0 X173.414 Y190.025
G0 X173.769 Y188.332
G0 X172.8 Y187.413
G1 F1500 E910.80002
G1 F1125 X172.8 Y164.633 E912.61842
G1 F1500 E906.11842
G0 F9000 X173.815 Y164.02
G0 X173.769 Y152.812
G0 X172.8 Y151.893
G1 F1500 E912.61842
G1 F1125 X172.8 Y68.153 E919.30291
G1 F1500 E912.80291
G0 F9000 X173.861 Y68.073
G0 X173.645 Y66.426
G0 X173.116 Y64.402
G0 X172.635 Y63.143
G0 X171.675 Y61.278
G0 X170.933 Y60.158
G0 X169.6 Y58.558
G0 X168.643 Y57.635
G0 X166.999 Y56.364
G0 X165.84 Y55.655
G0 X163.96 Y54.773
G0 X162.67 Y54.333
G0 X160.643 Y53.881
G0 X159.317 Y53.734
G0 X61.05 Y53.714
G0 X58.982 Y53.943
G0 X57.667 Y54.239
G0 X55.701 Y54.91
G0 X54.483 Y55.482
G0 X52.717 Y56.561
G0 X52.106 Y57.031
G0 X50.795 Y58.157
G0 X51.2 Y59.271
G1 F1500 E919.30291
G1 F1125 X51.2 Y196.258 E930.23781
G0 F9000 X49.6 Y194.252
G1 F1125 X49.6 Y61.255 E940.8542
G0 F9000 X48 Y64.447
G1 F1125 X48 Y155.557 E948.127
G1 F1500 E941.627
G0 F9000 X47.292 Y156.687
G0 X47.146 Y160.158
G0 X48 Y160.929
G1 F1500 E948.127
G1 F1125 X48 Y191.075 E950.53338
G0 F300 X48 Y191.075 Z0.54
G0 F9000 X49.247 Y193.709
;TIME_ELAPSED:653.521166
;LAYER:-5
;TYPE:SUPPORT
G1 F1125 X49.321 Y193.831 E950.54762
G1 X49.814 Y194.574 E950.63659
G1 X49.918 Y194.72 E950.65448
G1 X50.476 Y195.442 E950.74552
G1 X50.572 Y195.56 E950.7607
G1 X51.176 Y196.232 E950.85086
G1 X51.295 Y196.357 E950.86808
G1 X51.944 Y196.982 E950.95798
G1 X52.057 Y197.082 E950.97304
G1 X52.748 Y197.658 E951.0628
G1 X52.897 Y197.772 E951.08152
G1 X53.61 Y198.283 E951.16905
G1 X53.762 Y198.383 E951.1872
G1 X54.541 Y198.857 E951.27819
G1 X54.657 Y198.924 E951.29156
G1 X54.692 Y198.942 E951.29548
G1 X48.975 Y193.225 E952.10221
G1 X48.796 Y192.905 E952.1388
G1 X48.723 Y192.765 E952.15455
G1 X48.326 Y191.92 E952.24771
G1 X48.281 Y191.808 E952.25975
G1 X47.952 Y190.949 E952.35154
G1 X47.895 Y190.784 E952.36896
G1 X47.871 Y190.707 E952.377
G1 X57.184 Y200.02 E953.69117
G1 X57.452 Y200.111 E953.71941
G1 X57.615 Y200.16 E953.73639
G1 X58.508 Y200.394 E953.8285
G1 X58.631 Y200.422 E953.84109
G1 X59.084 Y200.505 E953.88704
G1 X47.384 Y188.805 E955.53804
G1 X47.375 Y188.751 E955.5435
G1 X47.24 Y187.837 E955.63569
G1 X47.223 Y187.677 E955.65175
G1 X47.187 Y187.194 E955.70007
G1 X60.712 Y200.72 E957.60867
G1 X60.736 Y200.722 E957.61107
G1 X61.772 Y200.759 E957.71451
G1 X62.166 Y200.759 E957.75382
G1 X47.139 Y185.732 E959.8743
G1 X47.139 Y184.318 E960.01539
G1 X63.58 Y200.759 E962.33539
G1 X64.995 Y200.759 E962.47658
G1 X47.139 Y182.904 E964.99618
G1 X47.139 Y181.49 E965.13727
G1 X66.409 Y200.759 E967.85641
G1 X67.823 Y200.759 E967.99749
G1 X47.139 Y180.076 E970.91616
G1 X47.139 Y178.661 E971.05735
G1 X69.237 Y200.759 E974.17562
G1 X70.651 Y200.759 E974.31671
G1 X47.139 Y177.247 E977.6345
G1 X47.139 Y175.833 E977.77559
G1 X72.066 Y200.759 E981.29299
G1 X73.48 Y200.759 E981.43408
G1 X47.139 Y174.419 E985.15101
G1 X47.139 Y173.004 E985.2922
G1 X74.894 Y200.759 E989.20873
G1 X76.308 Y200.759 E989.34982
G1 X47.139 Y171.59 E993.46588
G1 X47.139 Y170.176 E993.60697
G1 X77.723 Y200.759 E997.92263
G1 X79.137 Y200.759 E998.06372
G1 X47.139 Y168.762 E1002.57891
G1 X47.139 Y167.348 E1002.72
G1 X80.551 Y200.759 E1007.43473
G1 X81.965 Y200.759 E1007.57582
G1 X47.139 Y165.933 E1012.49014
G1 X47.139 Y165.853 E1012.49812
G1 X47.176 Y164.847 E1012.59857
G1 X47.185 Y164.712 E1012.61207
G1 X47.2 Y164.579 E1012.62542
G1 X83.379 Y200.759 E1017.73074
G1 X84.794 Y200.759 E1017.87193
G1 X47.365 Y163.331 E1023.1535
G1 X47.475 Y162.742 E1023.21328
G1 X47.505 Y162.608 E1023.22699
G1 X47.619 Y162.17 E1023.27215
G1 X86.208 Y200.759 E1028.71747
G1 X87.622 Y200.759 E1028.85856
G1 X47.946 Y161.083 E1034.45727
G1 X48.069 Y160.723 E1034.49523
G1 X48.137 Y160.548 E1034.51397
G1 X48.221 Y160.348 E1034.53561
G1 X48.326 Y160.049 E1034.56723
G1 X89.036 Y200.759 E1040.31185
G1 X90.45 Y200.759 E1040.45294
G1 X48.599 Y158.908 E1046.35857
