;FLAVOR:Marlin
;TIME:2315
;Filament used: 1.8m
;Layer height: 0.2
;MINX:82.189
;MINY:82.975
;MINZ:0.24
;MAXX:144.817
;MAXY:153.952
;MAXZ:11.49
;Generated with Cura_SteamEngine 4.6.1
M140 S100
M105
M190 S100
M104 S230
M105
M109 S230
M82 ;absolute extrusion mode
; Ender 3 Custom Start G-code
G92 E0 ; Reset Extruder
G28 ; Home all axes
G1 Z2.0 F3000 ; Move Z Axis up little to prevent scratching of Heat Bed
G1 X0.1 Y20 Z0.3 F5000.0 ; Move to start position
G1 X0.1 Y200.0 Z0.3 F1500.0 E15 ; Draw the first line
G1 X0.4 Y200.0 Z0.3 F5000.0 ; Move to side a little
G1 X0.4 Y20 Z0.3 F1500.0 E30 ; Draw the second line
G92 E0 ; Reset Extruder
G1 Z2.0 F3000 ; Move Z Axis up little to prevent scratching of Heat Bed
G1 X5 Y20 Z0.3 F5000.0 ; Move over to prevent blob squish
G92 E0
G92 E0
G1 F1500 E-6.5
;LAYER_COUNT:54
;LAYER:-6
M107
G0 F9000 X88.015 Y91.448 Z0.24
;TYPE:SUPPORT-INTERFACE
G1 F1500 E0
G1 F1125 X88.133 Y91.343 E0.01261
G1 X88.934 Y90.677 E0.09576
G1 X89.471 Y90.281 E0.14902
G1 X94.659 Y86.652 E0.65441
G1 X95.458 Y86.134 E0.73042
G1 X95.58 Y86.061 E0.74177
G1 X96.384 Y85.621 E0.81493
G1 X96.528 Y85.549 E0.82778
G1 X97.359 Y85.169 E0.90072
G1 X97.5 Y85.111 E0.91289
G1 X98.345 Y84.798 E0.98482
G1 X98.515 Y84.742 E0.99911
G1 X99.374 Y84.493 E1.0705
G1 X99.517 Y84.457 E1.08227
G1 X100.412 Y84.267 E1.15531
G1 X100.573 Y84.239 E1.16835
G1 X101.46 Y84.117 E1.23983
G1 X101.639 Y84.099 E1.25419
G1 X102.526 Y84.044 E1.32513
G1 X102.692 Y84.039 E1.33838
G1 X103.581 Y84.048 E1.40935
G1 X103.768 Y84.057 E1.42429
G1 X104.68 Y84.133 E1.49735
G1 X104.819 Y84.15 E1.50853
G1 X105.684 Y84.286 E1.57842
G1 X105.885 Y84.325 E1.59477
G1 X106.896 Y84.565 E1.67771
G1 X108.216 Y84.977 E1.78809
G1 X108.222 Y84.962 E1.78938
G1 X108.399 Y85.011 E1.80404
G1 X109.075 Y85.109 E1.85857
G1 X109.758 Y85.122 E1.9131
G1 X110.439 Y85.049 E1.96777
G1 X111.219 Y84.851 E2.03201
G1 X111.774 Y84.665 E2.07873
G1 X111.934 Y84.618 E2.09204
G1 X112.842 Y84.386 E2.16685
G1 X113.872 Y84.197 E2.25044
G1 X114.036 Y84.174 E2.26366
G1 X115.069 Y84.07 E2.34654
G1 X116.144 Y84.041 E2.43238
G1 X117.217 Y84.092 E2.51813
G1 X118.122 Y84.196 E2.59084
G1 X118.288 Y84.222 E2.60426
G1 X119.15 Y84.386 E2.6743
G1 X119.338 Y84.429 E2.68969
G1 X120.197 Y84.658 E2.76066
G1 X120.352 Y84.705 E2.77359
G1 X121.221 Y85.007 E2.84702
G1 X121.363 Y85.062 E2.85918
G1 X122.185 Y85.417 E2.93065
G1 X122.327 Y85.485 E2.94322
G1 X123.132 Y85.904 E3.01566
G1 X123.278 Y85.987 E3.02907
G1 X124.411 Y86.706 E3.13618
G1 X129.554 Y90.301 E3.63707
G1 X130.291 Y90.857 E3.71077
G1 X130.434 Y90.973 E3.72547
G1 X131.109 Y91.563 E3.79703
G1 X131.219 Y91.667 E3.80911
G1 X131.864 Y92.321 E3.88244
G1 X131.97 Y92.437 E3.89498
G1 X132.541 Y93.107 E3.96525
G1 X132.661 Y93.258 E3.98065
G1 X133.183 Y93.97 E4.05112
G1 X133.292 Y94.13 E4.06657
G1 X133.835 Y95.007 E4.14891
G1 X134.267 Y95.825 E4.22275
G1 X134.334 Y95.963 E4.235
G1 X134.695 Y96.785 E4.30666
G1 X134.764 Y96.959 E4.32161
G1 X135.061 Y97.799 E4.39273
G1 X135.103 Y97.934 E4.40401
G1 X135.346 Y98.819 E4.47727
G1 X135.387 Y98.993 E4.49154
G1 X135.559 Y99.871 E4.56296
G1 X135.586 Y100.036 E4.5763
G1 X135.681 Y100.829 E4.64006
G1 X135.804 Y101.487 E4.69349
G1 X136.013 Y102.137 E4.74799
G1 X136.301 Y102.756 E4.80249
G1 X136.666 Y103.334 E4.85706
G1 X137.103 Y103.864 E4.91189
G1 X137.773 Y104.466 E4.98379
G1 X138.291 Y104.857 E5.0356
G1 X138.434 Y104.973 E5.0503
G1 X139.109 Y105.563 E5.12186
G1 X139.219 Y105.667 E5.13394
G1 X139.864 Y106.321 E5.20727
G1 X139.97 Y106.437 E5.21981
G1 X140.541 Y107.107 E5.29008
G1 X140.661 Y107.258 E5.30548
G1 X141.183 Y107.97 E5.37595
G1 X141.292 Y108.13 E5.3914
G1 X141.835 Y109.007 E5.47374
G1 X142.267 Y109.825 E5.54758
G1 X142.334 Y109.963 E5.55983
G1 X142.695 Y110.785 E5.63149
G1 X142.764 Y110.959 E5.64644
G1 X143.061 Y111.799 E5.71756
G1 X143.103 Y111.934 E5.72884
G1 X143.346 Y112.819 E5.8021
G1 X143.387 Y112.992 E5.81629
G1 X143.553 Y113.835 E5.88488
G1 X143.585 Y114.033 E5.90089
G1 X143.692 Y114.917 E5.97197
G1 X143.707 Y115.09 E5.98583
G1 X143.75 Y115.977 E6.05672
G1 X143.752 Y116.16 E6.07132
G1 X143.731 Y117.037 E6.14135
G1 X143.72 Y117.221 E6.15606
G1 X143.633 Y118.104 E6.22689
G1 X143.609 Y118.287 E6.24162
G1 X143.431 Y119.296 E6.32341
G1 X143.164 Y120.349 E6.41013
G1 X142.882 Y121.208 E6.48229
G1 X142.821 Y121.373 E6.49634
G1 X142.483 Y122.195 E6.56728
G1 X142.407 Y122.362 E6.58193
G1 X142.013 Y123.152 E6.6524
G1 X141.926 Y123.312 E6.66694
G1 X141.662 Y123.758 E6.70831
G1 X141.356 Y124.354 E6.76179
G1 X141.125 Y124.996 E6.81625
G1 X140.976 Y125.662 E6.87073
G1 X140.912 Y126.343 E6.92533
G1 X140.935 Y127.03 E6.9802
G1 X141.099 Y127.916 E7.05212
G1 X141.346 Y128.819 E7.12685
G1 X141.387 Y128.993 E7.14112
G1 X141.583 Y130.017 E7.22435
G1 X141.692 Y130.917 E7.29671
G1 X141.707 Y131.09 E7.31057
G1 X141.75 Y131.981 E7.38178
G1 X141.752 Y132.168 E7.39671
G1 X141.731 Y133.046 E7.46681
G1 X141.72 Y133.221 E7.48081
G1 X141.633 Y134.104 E7.55164
G1 X141.609 Y134.287 E7.56637
G1 X141.431 Y135.296 E7.64816
G1 X141.164 Y136.349 E7.73487
G1 X140.882 Y137.208 E7.80704
G1 X140.821 Y137.373 E7.82108
G1 X140.483 Y138.195 E7.89203
G1 X140.407 Y138.362 E7.90668
G1 X140.012 Y139.154 E7.97732
G1 X139.929 Y139.307 E7.99122
G1 X139.395 Y140.198 E8.07414
G1 X138.916 Y140.894 E8.14158
G1 X138.489 Y141.474 E8.19907
G1 X138.281 Y141.747 E8.22647
G1 X137.803 Y142.345 E8.28758
G1 X137.545 Y142.656 E8.31984
G1 X137.295 Y142.949 E8.35058
G1 X136.781 Y143.526 E8.41226
G1 X136.234 Y144.106 E8.4759
G1 X135.672 Y144.673 E8.53963
G1 X135.091 Y145.227 E8.60371
G1 X134.81 Y145.485 E8.63416
G1 X134.524 Y145.74 E8.66475
G1 X133.904 Y146.268 E8.72976
G1 X133.291 Y146.762 E8.7926
G1 X132.715 Y147.202 E8.85046
G1 X132.291 Y147.514 E8.89248
G1 X131.701 Y147.923 E8.94979
G1 X131.028 Y148.368 E9.01419
G1 X130.39 Y148.764 E9.07413
G1 X130.059 Y148.96 E9.10484
G1 X129.642 Y149.2 E9.14324
G1 X129.028 Y149.536 E9.19911
G1 X128.689 Y149.714 E9.22968
G1 X127.929 Y150.09 E9.29736
G1 X127.556 Y150.265 E9.33025
G1 X126.872 Y150.57 E9.39003
G1 X126.518 Y150.719 E9.42069
G1 X125.738 Y151.028 E9.48766
G1 X125.372 Y151.165 E9.51886
G1 X125.017 Y151.292 E9.54896
G1 X124.252 Y151.547 E9.61332
G1 X123.487 Y151.778 E9.67711
G1 X123.105 Y151.886 E9.7088
G1 X122.743 Y151.982 E9.7387
G1 X122.009 Y152.163 E9.79904
G1 X121.588 Y152.258 E9.83349
G1 X121.156 Y152.347 E9.8687
G1 X120.391 Y152.489 E9.93081
G1 X120.013 Y152.552 E9.9614
G1 X119.186 Y152.67 E10.02808
G1 X118.478 Y152.753 E10.08499
G1 X118.096 Y152.79 E10.11562
G1 X117.677 Y152.825 E10.14918
G1 X117.293 Y152.852 E10.17991
G1 X116.884 Y152.875 E10.21261
G1 X116.074 Y152.902 E10.27731
G1 X115.317 Y152.907 E10.33773
G1 X114.933 Y152.902 E10.36839
G1 X114.11 Y152.874 E10.43412
G1 X113.753 Y152.855 E10.46266
G1 X113.359 Y152.828 E10.49419
G1 X112.904 Y152.791 E10.53063
G1 X112.198 Y152.718 E10.58728
G1 X111.701 Y152.653 E10.62729
G1 X111.701 Y152.656 E10.62753
G1 X110.971 Y152.55 E10.68641
G1 X110.225 Y152.421 E10.74685
G1 X109.762 Y152.331 E10.7845
G1 X109.413 Y152.258 E10.81296
G1 X108.618 Y152.074 E10.8781
G1 X108.242 Y151.979 E10.90905
G1 X107.85 Y151.874 E10.94145
G1 X106.789 Y151.561 E11.02975
G1 X106.421 Y151.441 E11.06065
G1 X105.595 Y151.153 E11.13048
G1 X104.465 Y150.711 E11.22733
G1 X104.141 Y150.576 E11.25535
G1 X103.446 Y150.266 E11.3161
G1 X102.761 Y149.939 E11.37669
G1 X102.013 Y149.557 E11.44373
G1 X101.352 Y149.197 E11.50381
G1 X100.951 Y148.966 E11.54075
G1 X100.298 Y148.573 E11.60159
G1 X99.983 Y148.375 E11.63129
G1 X98.969 Y147.696 E11.7287
G1 X98.681 Y147.493 E11.75683
G1 X98.318 Y147.229 E11.79266
G1 X97.675 Y146.736 E11.85734
G1 X97.412 Y146.527 E11.88415
G1 X97.08 Y146.256 E11.91836
G1 X96.809 Y146.028 E11.94663
G1 X96.194 Y145.489 E12.01191
G1 X95.575 Y144.912 E12.07946
G1 X95.327 Y144.673 E12.10695
G1 X94.768 Y144.108 E12.1704
G1 X94.229 Y143.536 E12.23313
G1 X93.969 Y143.248 E12.26411
G1 X93.693 Y142.934 E12.29748
G1 X93.459 Y142.66 E12.32624
G1 X92.942 Y142.029 E12.39136
G1 X92.505 Y141.466 E12.44825
G1 X91.969 Y140.73 E12.52093
G1 X91.447 Y139.947 E12.59604
G1 X91.353 Y139.794 E12.61038
G1 X90.923 Y139.032 E12.68022
G1 X90.838 Y138.867 E12.69504
G1 X90.462 Y138.07 E12.76538
G1 X90.384 Y137.887 E12.78126
G1 X90.017 Y136.92 E12.86382
G1 X89.753 Y136.048 E12.93655
G1 X89.706 Y135.868 E12.9514
G1 X89.511 Y135.007 E13.02187
G1 X89.483 Y134.854 E13.03429
G1 X89.33 Y133.799 E13.11938
G1 X89.261 Y132.883 E13.19271
G1 X89.256 Y132.733 E13.20469
G1 X89.253 Y131.832 E13.27661
G1 X89.259 Y131.667 E13.28979
G1 X89.321 Y130.774 E13.36124
G1 X89.339 Y130.603 E13.37497
G1 X89.467 Y129.721 E13.44611
G1 X89.495 Y129.564 E13.45884
G1 X89.693 Y128.661 E13.53264
G1 X89.731 Y128.512 E13.54491
G1 X90.038 Y127.5 E13.62933
G1 X90.364 Y126.64 E13.70274
G1 X90.428 Y126.49 E13.71576
G1 X90.794 Y125.704 E13.78497
G1 X90.893 Y125.509 E13.80243
G1 X91.601 Y124.238 E13.91857
G1 X91.586 Y124.233 E13.91983
G1 X91.625 Y124.158 E13.92658
G1 X91.863 Y123.518 E13.98108
G1 X92.017 Y122.853 E14.03557
G1 X92.086 Y122.174 E14.09005
G1 X92.07 Y121.491 E14.14458
G1 X91.968 Y120.82 E14.19876
G1 X91.86 Y120.406 E14.23291
G1 X91.757 Y120.064 E14.26143
G1 X91.706 Y119.869 E14.27751
G1 X91.511 Y119.007 E14.34806
G1 X91.482 Y118.848 E14.36096
G1 X91.383 Y118.189 E14.41416
G1 X91.241 Y117.534 E14.46766
G1 X91.014 Y116.89 E14.52216
G1 X90.707 Y116.28 E14.57668
G1 X90.324 Y115.711 E14.63143
G1 X89.773 Y115.1 E14.6971
G1 X89.327 Y114.673 E14.74639
G1 X88.768 Y114.108 E14.80983
G1 X88.229 Y113.536 E14.87257
G1 X87.976 Y113.256 E14.9027
G1 X87.693 Y112.934 E14.93692
G1 X87.443 Y112.641 E14.96766
G1 X86.942 Y112.029 E15.03079
G1 X86.505 Y111.466 E15.08769
G1 X85.969 Y110.73 E15.16036
G1 X85.447 Y109.947 E15.23548
G1 X85.353 Y109.794 E15.24982
G1 X84.917 Y109.021 E15.32066
G1 X84.838 Y108.867 E15.33448
G1 X84.462 Y108.07 E15.40482
G1 X84.384 Y107.887 E15.4207
G1 X84.017 Y106.92 E15.50326
G1 X83.753 Y106.048 E15.57599
G1 X83.706 Y105.868 E15.59084
G1 X83.511 Y105.007 E15.66131
G1 X83.483 Y104.854 E15.67372
G1 X83.33 Y103.799 E15.75882
G1 X83.261 Y102.883 E15.83215
G1 X83.256 Y102.733 E15.84413
G1 X83.253 Y101.83 E15.91621
G1 X83.259 Y101.667 E15.92923
G1 X83.321 Y100.776 E16.00052
G1 X83.339 Y100.603 E16.01441
G1 X83.467 Y99.721 E16.08555
G1 X83.495 Y99.564 E16.09828
G1 X83.693 Y98.661 E16.17207
G1 X83.731 Y98.512 E16.18435
G1 X84.038 Y97.5 E16.26877
G1 X84.364 Y96.64 E16.34218
G1 X84.428 Y96.49 E16.3552
G1 X84.794 Y95.704 E16.42441
G1 X84.893 Y95.509 E16.44187
G1 X85.31 Y94.761 E16.51023
G1 X85.41 Y94.595 E16.5257
G1 X85.895 Y93.857 E16.59619
G1 X85.993 Y93.719 E16.6097
G1 X86.531 Y93.018 E16.68024
G1 X86.661 Y92.861 E16.69651
G1 X87.244 Y92.206 E16.76651
G1 X87.361 Y92.083 E16.78006
G1 X88.015 Y91.448 E16.85282
G0 F9000 X88 Y91.462
G1 F1125 X88 Y113.282 E18.59459
G0 F9000 X89.6 Y114.934
G1 F1125 X89.6 Y90.19 E20.56976
G0 F9000 X91.2 Y89.071
G1 F1125 X91.2 Y117.417 E22.83246
G1 F1500 E16.33246
G0 F9000 X90.214 Y117.82
G0 X90.375 Y124.251
G0 X91.2 Y124.957
G1 F1500 E22.83246
G1 F1125 X91.2 Y139.522 E23.9951
G0 F9000 X92.8 Y141.846
G1 F1125 X92.8 Y87.952 E28.29715
G0 F9000 X94.4 Y86.833
G1 F1125 X94.4 Y143.717 E32.83788
G0 F9000 X96 Y145.308
G1 F1125 X96 Y85.831 E37.58559
G0 F9000 X97.6 Y85.073
G1 F1125 X97.6 Y146.676 E42.50301
G0 F9000 X99.2 Y147.85
G1 F1125 X99.2 Y84.543 E47.55645
G0 F9000 X100.8 Y84.207
G1 F1125 X100.8 Y148.875 E52.71853
G0 F9000 X102.4 Y149.754
G1 F1125 X102.4 Y84.051 E57.96323
G0 F9000 X104 Y84.077
G1 F1125 X104 Y150.513 E63.26644
G0 F9000 X105.6 Y151.154
G1 F1125 X105.6 Y84.273 E68.60517
G0 F9000 X107.2 Y84.66
G1 F1125 X107.2 Y151.682 E73.95515
G0 F9000 X108.8 Y152.116
G1 F1125 X108.8 Y85.07 E79.30705
G0 F9000 X110.4 Y85.053
G1 F1125 X110.4 Y152.451 E84.68705
G0 F9000 X112 Y152.692
G1 F1125 X112 Y84.601 E90.12237
G0 F9000 X113.6 Y84.246
G1 F1125 X113.6 Y152.844 E95.59816
G0 F9000 X115.2 Y152.905
G1 F1125 X115.2 Y84.066 E101.09319
G0 F9000 X116.8 Y84.073
G1 F1125 X116.8 Y152.878 E106.5855
G0 F9000 X118.4 Y152.761
G1 F1125 X118.4 Y84.244 E112.05482
G0 F9000 X120 Y84.606
G1 F1125 X120 Y152.554 E117.47873
G0 F9000 X121.6 Y152.256
G1 F1125 X121.6 Y85.165 E122.83422
G0 F9000 X123.2 Y85.943
G1 F1125 X123.2 Y151.86 E128.096
G0 F9000 X124.8 Y151.365
G1 F1125 X124.8 Y86.978 E133.23565
G0 F9000 X126.4 Y88.097
G1 F1125 X126.4 Y150.766 E138.23816
G0 F9000 X128 Y150.055
G1 F1125 X128 Y89.215 E143.09467
G0 F9000 X129.6 Y90.336
G1 F1125 X129.6 Y149.223 E147.79529
G0 F9000 X131.2 Y148.255
G1 F1125 X131.2 Y91.65 E152.31374
G0 F9000 X132.8 Y93.448
G1 F1125 X132.8 Y147.138 E156.59951
G0 F9000 X134.4 Y145.846
G1 F1125 X134.4 Y96.114 E160.56933
G1 F1500 E154.06933
G0 F9000 X135.68 Y96.382
G0 X136.127 Y97.641
G0 X136.514 Y99.289
G0 X136.838 Y101.225
G0 X136 Y102.097
G1 F1500 E160.56933
G1 F1125 X136 Y144.343 E163.94159
G0 F9000 X137.6 Y142.59
G1 F1125 X137.6 Y104.311 E166.99719
G0 F9000 X139.2 Y105.65
G1 F1125 X139.2 Y140.482 E169.77763
G0 F9000 X140.8 Y137.425
G1 F1125 X140.8 Y107.448 E172.17052
G0 F9000 X142.4 Y110.114
G1 F1125 X142.4 Y122.377 E173.14941
G1 F1500 E166.64941
G0 F9000 X143.352 Y122.851
G0 X142.69 Y134.231
G0 X142.466 Y135.541
G0 X141.884 Y137.566
G0 X141.365 Y138.827
G0 X140.358 Y140.669
G0 X138.893 Y142.689
G0 X136.996 Y144.851
G0 X134.886 Y146.833
G0 X132.585 Y148.608
G0 X130.168 Y150.125
G0 X127.573 Y151.424
G0 X124.922 Y152.447
G0 X122.253 Y153.199
G0 X120.146 Y153.608
G0 X117.362 Y153.914
G0 X114.424 Y153.952
G0 X112.752 Y153.849
G0 X110.041 Y153.47
G0 X107.196 Y152.795
G0 X104.994 Y152.065
G0 X102.62 Y151.055
G0 X100.062 Y149.676
G0 X97.684 Y148.084
G0 X95.483 Y146.281
G0 X93.454 Y144.267
G0 X91.659 Y142.112
G0 X90.439 Y140.34
G0 X89.494 Y138.513
G0 X89.007 Y137.258
G0 X88.47 Y135.229
G0 X88.27 Y133.892
G0 X88.189 Y131.807
G0 X88.265 Y130.719
G0 X88.559 Y128.858
G0 X89.6 Y129.085
G1 F1500 E173.14941
G1 F1125 X89.6 Y135.399 E173.65342
G1 F1500 E167.15342
G0 F9000 X88.47 Y135.229
G0 X88.414 Y134.851
G0 X85.887 Y112.408
G0 X86.4 Y111.321
G1 F1500 E173.65342
G1 F1125 X86.4 Y93.188 E175.10087
G0 F9000 X84.8 Y95.692
G1 F1125 X84.8 Y108.786 E176.14609
G1 F1500 E169.64609
G0 F300 X84.8 Y108.786 Z0.54
G0 F9000 X83.982 Y109.531
G0 X90.65 Y123.727
G0 X91.626 Y124.153
;TIME_ELAPSED:131.762960
;LAYER:-5
M140 S100
;TYPE:SUPPORT
G1 F1500 E176.14609
G1 F1125 X120.022 Y152.549 E180.15307
G1 X120.391 Y152.488 E180.19039
G1 X121.155 Y152.346 E180.26793
G1 X121.22 Y152.332 E180.27456
G1 X91.964 Y123.077 E184.40283
G1 X92.017 Y122.852 E184.4259
G1 X92.085 Y122.173 E184.49399
G1 X92.076 Y121.775 E184.53371
G1 X122.373 Y152.071 E188.80887
G1 X122.742 Y151.981 E188.84677
G1 X123.105 Y151.885 E188.88424
G1 X123.487 Y151.776 E188.92387
G0 F9000 X123.491 Y151.775
G1 F1125 X91.748 Y120.032 E193.40315
G1 X91.706 Y119.868 E193.42005
G1 X91.51 Y119.006 E193.50825
G1 X91.481 Y118.846 E193.52448
G1 X91.394 Y118.264 E193.5832
G1 X124.569 Y151.439 E198.26455
G1 X125.016 Y151.291 E198.31153
G1 X125.372 Y151.164 E198.34924
G1 X125.616 Y151.072 E198.37526
G1 X90.466 Y115.922 E203.33531
G1 X90.323 Y115.71 E203.36082
G1 X89.773 Y115.099 E203.44285
G1 X89.326 Y114.672 E203.50453
G1 X88.767 Y114.107 E203.58384
G1 X88.229 Y113.535 E203.66219
G1 X87.976 Y113.255 E203.69985
G1 X87.692 Y112.933 E203.74269
G1 X87.442 Y112.639 E203.78119
G1 X86.941 Y112.028 E203.86003
G1 X86.504 Y111.465 E203.93115
G1 X85.969 Y110.729 E204.02194
G1 X85.446 Y109.946 E204.11589
G1 X85.352 Y109.793 E204.13381
G1 X84.916 Y109.02 E204.22236
G1 X84.85 Y108.892 E204.23673
G1 X126.629 Y150.671 E210.1322
G1 X126.871 Y150.569 E210.1584
G1 X127.556 Y150.264 E210.23322
G1 X127.61 Y150.238 E210.2392
G1 X83.897 Y106.524 E216.40765
G1 X83.753 Y106.046 E216.45746
G1 X83.706 Y105.867 E216.47593
G1 X83.511 Y105.006 E216.56402
G1 X83.483 Y104.853 E216.57954
G1 X83.456 Y104.669 E216.59809
G1 X128.561 Y149.775 E222.96296
G1 X128.689 Y149.712 E222.9772
G1 X129.027 Y149.535 E223.01527
G1 X129.485 Y149.284 E223.06738
G1 X83.275 Y103.074 E229.58811
G1 X83.261 Y102.881 E229.60742
G1 X83.256 Y102.732 E229.6223
G1 X83.253 Y101.829 E229.7124
G1 X83.258 Y101.666 E229.72867
G1 X83.26 Y101.645 E229.73078
