;FLAVOR:Marlin
;TIME:10647
;Filament used: 8.24706m
;Layer height: 0.2
;MINX:46.964
;MINY:75.286
;MINZ:0.24
;MAXX:173.055
;MAXY:144.715
;MAXZ:20.09
;Generated with Cura_SteamEngine 4.7.0
M140 S60
M105
M190 S60
M104 S200
M105
M109 S200
M82 ;absolute extrusion mode
; Ender 3 Custom Start G-code
G92 E0 ; Reset Extruder
G28 ; Home all axes
G1 Z2.0 F3000 ; Move Z Axis up little to prevent scratching of Heat Bed
G1 X0.1 Y20 Z0.3 F5000.0 ; Move to start position
G1 X0.1 Y200.0 Z0.3 F1500.0 E15 ; Draw the first line
G1 X0.4 Y200.0 Z0.3 F5000.0 ; Move to side a little
G1 X0.4 Y20 Z0.3 F1500.0 E30 ; Draw the second line
G92 E0 ; Reset Extruder
G1 Z2.0 F3000 ; Move Z Axis up little to prevent scratching of Heat Bed
G1 X5 Y20 Z0.3 F5000.0 ; Move over to prevent blob squish
G92 E0
G92 E0
G1 F1500 E-6.5
;LAYER_COUNT:95
;LAYER:-6
M107
G0 F9000 X64.355 Y79.654 Z0.24
;TYPE:SUPPORT-INTERFACE
G1 F1500 E0
G1 F1125 X64.447 Y79.58 E0.00942
G1 X65.187 Y79.023 E0.08336
G1 X65.314 Y78.933 E0.09578
G1 X66.09 Y78.433 E0.16947
G1 X66.208 Y78.363 E0.18042
G1 X67.011 Y77.925 E0.25344
G1 X67.162 Y77.85 E0.2669
G1 X67.968 Y77.484 E0.33756
G1 X68.137 Y77.415 E0.35213
G1 X68.973 Y77.106 E0.42327
G1 X69.132 Y77.054 E0.43663
G1 X69.995 Y76.805 E0.50833
G1 X70.178 Y76.76 E0.52337
G1 X71.021 Y76.583 E0.59213
G1 X71.214 Y76.549 E0.60777
G1 X72.059 Y76.435 E0.67583
G1 X72.273 Y76.416 E0.69298
G1 X73.541 Y76.354 E0.79432
G1 X73.692 Y76.35 E0.80638
G1 X95.602 Y76.351 E2.55533
G1 X96.603 Y76.387 E2.63529
G1 X96.726 Y76.396 E2.64513
G1 X97.643 Y76.498 E2.71878
G1 X97.818 Y76.523 E2.73289
G1 X98.707 Y76.687 E2.80505
G1 X98.83 Y76.715 E2.81512
G1 X99.724 Y76.949 E2.88889
G1 X99.887 Y76.998 E2.90248
G1 X100.729 Y77.284 E2.97346
G1 X100.895 Y77.348 E2.98766
G1 X101.698 Y77.689 E3.0573
G1 X101.887 Y77.777 E3.07394
G1 X102.681 Y78.185 E3.1452
G1 X102.798 Y78.252 E3.15596
G1 X103.577 Y78.726 E3.22875
G1 X103.728 Y78.826 E3.24321
G1 X104.442 Y79.337 E3.3133
G1 X104.59 Y79.45 E3.32816
G1 X105.281 Y80.026 E3.39997
G1 X105.394 Y80.127 E3.41207
G1 X106.044 Y80.752 E3.48405
G1 X106.128 Y80.84 E3.49376
G1 X106.623 Y81.292 E3.54727
G1 X107.182 Y81.685 E3.60181
G1 X107.785 Y82.003 E3.65623
G1 X108.423 Y82.244 E3.71067
G1 X109.088 Y82.403 E3.76525
G1 X109.768 Y82.475 E3.81984
G1 X110.45 Y82.462 E3.87429
G1 X111.125 Y82.363 E3.92874
G1 X111.783 Y82.179 E3.98328
G1 X112.413 Y81.914 E4.03784
G1 X113.002 Y81.571 E4.09225
G1 X113.542 Y81.161 E4.14637
G1 X113.84 Y80.88 E4.17906
G1 X114.346 Y80.369 E4.23647
G1 X114.447 Y80.274 E4.24754
G1 X115.155 Y79.654 E4.32266
G1 X115.247 Y79.58 E4.33208
G1 X115.987 Y79.023 E4.40602
G1 X116.114 Y78.933 E4.41844
G1 X116.89 Y78.433 E4.49213
G1 X117.008 Y78.363 E4.50308
G1 X117.811 Y77.925 E4.5761
G1 X117.962 Y77.85 E4.58956
G1 X118.768 Y77.484 E4.66022
G1 X118.937 Y77.415 E4.67479
G1 X119.773 Y77.106 E4.74593
G1 X119.932 Y77.054 E4.75929
G1 X120.795 Y76.805 E4.83099
G1 X120.978 Y76.76 E4.84603
G1 X121.821 Y76.583 E4.91479
G1 X122.014 Y76.549 E4.93043
G1 X122.859 Y76.435 E4.9985
G1 X123.073 Y76.416 E5.01564
G1 X124.341 Y76.354 E5.11698
G1 X124.492 Y76.35 E5.12904
G1 X146.402 Y76.351 E6.87799
G1 X147.403 Y76.387 E6.95795
G1 X147.526 Y76.396 E6.96779
G1 X148.443 Y76.498 E7.04144
G1 X148.618 Y76.523 E7.05555
G1 X149.507 Y76.687 E7.12771
G1 X149.63 Y76.715 E7.13778
G1 X150.524 Y76.949 E7.21155
G1 X150.687 Y76.998 E7.22514
G1 X151.529 Y77.284 E7.29612
G1 X151.695 Y77.348 E7.31032
G1 X152.498 Y77.689 E7.37996
G1 X152.687 Y77.777 E7.3966
G1 X153.481 Y78.185 E7.46786
G1 X153.598 Y78.252 E7.47862
G1 X154.377 Y78.726 E7.55141
G1 X154.528 Y78.826 E7.56587
G1 X155.242 Y79.337 E7.63596
G1 X155.39 Y79.45 E7.65082
G1 X156.081 Y80.026 E7.72263
G1 X156.194 Y80.127 E7.73473
G1 X156.844 Y80.753 E7.80677
G1 X156.959 Y80.872 E7.81998
G1 X157.566 Y81.548 E7.8925
G1 X157.662 Y81.664 E7.90452
G1 X158.224 Y82.392 E7.97793
G1 X158.312 Y82.517 E7.99013
G1 X159.009 Y83.598 E8.09281
G1 X159.082 Y83.718 E8.10402
G1 X170.012 Y102.649 E9.84896
G1 X170.054 Y102.725 E9.85589
G1 X170.506 Y103.579 E9.93302
G1 X170.572 Y103.715 E9.94508
G1 X170.93 Y104.53 E10.01614
G1 X171.003 Y104.714 E10.03194
G1 X171.293 Y105.532 E10.10122
G1 X171.345 Y105.698 E10.11511
G1 X171.585 Y106.57 E10.1873
G1 X171.625 Y106.737 E10.20101
G1 X171.8 Y107.627 E10.27341
G1 X171.821 Y107.758 E10.284
G1 X171.931 Y108.655 E10.35614
G1 X171.947 Y108.841 E10.37104
G1 X171.991 Y109.733 E10.44233
G1 X171.993 Y109.915 E10.45686
G1 X171.972 Y110.789 E10.52665
G1 X171.962 Y110.966 E10.5408
G1 X171.874 Y111.865 E10.61291
G1 X171.851 Y112.035 E10.6266
G1 X171.702 Y112.904 E10.69698
G1 X171.665 Y113.084 E10.71165
G1 X171.449 Y113.951 E10.78297
G1 X171.408 Y114.098 E10.79515
G1 X171.128 Y114.952 E10.86689
G1 X171.061 Y115.132 E10.88223
G1 X170.728 Y115.944 E10.95228
G1 X170.652 Y116.11 E10.96685
G1 X170.063 Y117.256 E11.06971
G1 X170.013 Y117.35 E11.07821
G1 X159.067 Y136.31 E12.82579
G1 X158.532 Y137.167 E12.90643
G1 X158.421 Y137.328 E12.92204
G1 X157.895 Y138.045 E12.99303
G1 X157.786 Y138.183 E13.00707
G1 X157.218 Y138.849 E13.07694
G1 X157.088 Y138.991 E13.0923
G1 X156.466 Y139.62 E13.16292
G1 X156.353 Y139.726 E13.17529
G1 X155.649 Y140.342 E13.24996
G1 X155.553 Y140.42 E13.25983
G1 X154.813 Y140.977 E13.33376
G1 X154.686 Y141.067 E13.34619
G1 X153.922 Y141.559 E13.41873
G1 X153.786 Y141.64 E13.43136
G1 X152.99 Y142.075 E13.50377
G1 X152.838 Y142.15 E13.5173
G1 X152.032 Y142.516 E13.58796
G1 X151.863 Y142.585 E13.60253
G1 X151.03 Y142.893 E13.67343
G1 X150.868 Y142.946 E13.68703
G1 X150.005 Y143.195 E13.75873
G1 X149.824 Y143.24 E13.77362
G1 X148.979 Y143.417 E13.84254
G1 X148.786 Y143.451 E13.85818
G1 X147.941 Y143.565 E13.92624
G1 X147.727 Y143.584 E13.94339
G1 X146.459 Y143.646 E14.04473
G1 X146.308 Y143.65 E14.05679
G1 X124.398 Y143.649 E15.80574
G1 X123.397 Y143.613 E15.88569
G1 X123.274 Y143.604 E15.89554
G1 X122.357 Y143.502 E15.96919
G1 X122.182 Y143.477 E15.9833
G1 X121.293 Y143.313 E16.05546
G1 X121.17 Y143.285 E16.06553
G1 X120.276 Y143.051 E16.1393
G1 X120.113 Y143.002 E16.15288
G1 X119.271 Y142.716 E16.22387
G1 X119.105 Y142.652 E16.23807
G1 X118.302 Y142.311 E16.30771
G1 X118.113 Y142.223 E16.32435
G1 X117.319 Y141.815 E16.39561
G1 X117.202 Y141.748 E16.40637
G1 X116.423 Y141.274 E16.47916
G1 X116.272 Y141.174 E16.49362
G1 X115.558 Y140.663 E16.56371
G1 X115.41 Y140.55 E16.57857
G1 X114.719 Y139.974 E16.65038
G1 X114.606 Y139.873 E16.66248
G1 X113.945 Y139.237 E16.7357
G1 X113.872 Y139.16 E16.74417
G1 X113.377 Y138.708 E16.79768
G1 X112.818 Y138.315 E16.85222
G1 X112.215 Y137.997 E16.90664
G1 X111.577 Y137.756 E16.96108
G1 X110.912 Y137.597 E17.01566
G1 X110.232 Y137.525 E17.07024
G1 X109.55 Y137.538 E17.12469
G1 X108.875 Y137.637 E17.17915
G1 X108.217 Y137.821 E17.23369
G1 X107.587 Y138.086 E17.28825
G1 X106.998 Y138.429 E17.34265
G1 X106.458 Y138.839 E17.39678
G1 X106.16 Y139.12 E17.42947
G1 X105.655 Y139.63 E17.48676
G1 X105.553 Y139.726 E17.49794
G1 X104.849 Y140.342 E17.57262
G1 X104.753 Y140.42 E17.58249
G1 X104.013 Y140.977 E17.65642
G1 X103.886 Y141.067 E17.66885
G1 X103.122 Y141.559 E17.74139
G1 X102.986 Y141.64 E17.75402
G1 X102.19 Y142.075 E17.82643
G1 X102.038 Y142.15 E17.83996
G1 X101.232 Y142.516 E17.91062
G1 X101.063 Y142.585 E17.92519
G1 X100.23 Y142.893 E17.99609
G1 X100.068 Y142.946 E18.00969
G1 X99.205 Y143.195 E18.08139
G1 X99.024 Y143.24 E18.09628
G1 X98.179 Y143.417 E18.16519
G1 X97.986 Y143.451 E18.18084
G1 X97.141 Y143.565 E18.2489
G1 X96.927 Y143.584 E18.26605
G1 X95.659 Y143.646 E18.36739
G1 X95.508 Y143.65 E18.37945
G1 X73.598 Y143.649 E20.1284
G1 X72.597 Y143.613 E20.20835
G1 X72.474 Y143.604 E20.2182
G1 X71.557 Y143.502 E20.29185
G1 X71.382 Y143.477 E20.30596
G1 X70.493 Y143.313 E20.37812
G1 X70.37 Y143.285 E20.38819
G1 X69.476 Y143.051 E20.46196
G1 X69.313 Y143.002 E20.47554
G1 X68.471 Y142.716 E20.54653
G1 X68.305 Y142.652 E20.56073
G1 X67.502 Y142.311 E20.63037
G1 X67.313 Y142.223 E20.64701
G1 X66.519 Y141.815 E20.71827
G1 X66.402 Y141.748 E20.72903
G1 X65.623 Y141.274 E20.80182
G1 X65.472 Y141.174 E20.81628
G1 X64.758 Y140.663 E20.88636
G1 X64.61 Y140.55 E20.90123
G1 X63.919 Y139.974 E20.97304
G1 X63.806 Y139.873 E20.98514
G1 X63.157 Y139.248 E21.05706
G1 X63.037 Y139.123 E21.07089
G1 X62.434 Y138.452 E21.1429
G1 X62.337 Y138.334 E21.1551
G1 X61.776 Y137.608 E21.22833
G1 X61.686 Y137.48 E21.24082
G1 X60.991 Y136.402 E21.34321
G1 X60.918 Y136.282 E21.35442
G1 X49.982 Y117.341 E23.10029
G1 X49.494 Y116.421 E23.18342
G1 X49.422 Y116.272 E23.19663
G1 X49.07 Y115.47 E23.26654
G1 X48.997 Y115.286 E23.28234
G1 X48.702 Y114.453 E23.35288
G1 X48.65 Y114.285 E23.36692
G1 X48.415 Y113.43 E23.4377
G1 X48.375 Y113.263 E23.45141
G1 X48.2 Y112.373 E23.52382
G1 X48.177 Y112.228 E23.53553
G1 X48.069 Y111.346 E23.60647
G1 X48.052 Y111.145 E23.62257
G1 X48.009 Y110.267 E23.69274
G1 X48.007 Y110.072 E23.7083
G1 X48.028 Y109.211 E23.77705
G1 X48.038 Y109.034 E23.7912
G1 X48.126 Y108.134 E23.86339
G1 X48.149 Y107.965 E23.877
G1 X48.298 Y107.096 E23.94738
G1 X48.335 Y106.916 E23.96205
G1 X48.551 Y106.049 E24.03338
G1 X48.592 Y105.902 E24.04556
G1 X48.872 Y105.048 E24.1173
G1 X48.939 Y104.868 E24.13263
G1 X49.272 Y104.056 E24.20269
G1 X49.35 Y103.886 E24.21762
G1 X49.937 Y102.743 E24.32018
G1 X49.996 Y102.634 E24.33008
G1 X60.933 Y83.69 E26.07619
G1 X61.468 Y82.833 E26.15684
G1 X61.579 Y82.672 E26.17245
G1 X62.105 Y81.955 E26.24343
G1 X62.217 Y81.813 E26.25787
G1 X62.791 Y81.141 E26.32842
G1 X62.905 Y81.018 E26.3418
G1 X63.545 Y80.37 E26.4145
G1 X63.647 Y80.274 E26.42569
G1 X64.355 Y79.654 E26.50081
G0 F9000 X64 Y79.964
G1 F1125 X64 Y140.041 E31.29641
G0 F9000 X65.6 Y141.258
G1 F1125 X65.6 Y78.748 E36.28623
G0 F9000 X67.2 Y77.832
G1 F1125 X67.2 Y142.164 E41.42149
G0 F9000 X68.8 Y142.827
G1 F1125 X68.8 Y77.169 E46.6626
G0 F9000 X70.4 Y76.713
G1 F1125 X70.4 Y143.291 E51.97714
G0 F9000 X72 Y143.551
G1 F1125 X72 Y76.442 E57.33407
G0 F9000 X73.6 Y76.352
G1 F1125 X73.6 Y143.649 E62.70601
G0 F9000 X75.2 Y143.649
G1 F1125 X75.2 Y76.351 E68.07803
G0 F9000 X76.8 Y76.351
G1 F1125 X76.8 Y143.649 E73.45004
G0 F9000 X78.4 Y143.649
G1 F1125 X78.4 Y76.351 E78.82206
G0 F9000 X80 Y76.351
G1 F1125 X80 Y143.649 E84.19408
G0 F9000 X81.6 Y143.649
G1 F1125 X81.6 Y76.351 E89.5661
G0 F9000 X83.2 Y76.351
G1 F1125 X83.2 Y143.649 E94.93811
G0 F9000 X84.8 Y143.649
G1 F1125 X84.8 Y76.351 E100.31013
G0 F9000 X86.4 Y76.351
G1 F1125 X86.4 Y143.649 E105.68215
G0 F9000 X88 Y143.649
G1 F1125 X88 Y76.351 E111.05416
G0 F9000 X89.6 Y76.351
G1 F1125 X89.6 Y143.649 E116.42618
G0 F9000 X91.2 Y143.649
G1 F1125 X91.2 Y76.351 E121.7982
G0 F9000 X92.8 Y76.351
G1 F1125 X92.8 Y143.649 E127.17022
G0 F9000 X94.4 Y143.649
G1 F1125 X94.4 Y76.351 E132.54223
G0 F9000 X96 Y76.366
G1 F1125 X96 Y143.63 E137.91154
G0 F9000 X97.6 Y143.504
G1 F1125 X97.6 Y76.494 E143.26057
G0 F9000 X99.2 Y76.812
G1 F1125 X99.2 Y143.197 E148.5597
G0 F9000 X100.8 Y142.683
G1 F1125 X100.8 Y77.312 E153.7779
G0 F9000 X102.4 Y78.041
G1 F1125 X102.4 Y141.961 E158.88027
G0 F9000 X104 Y140.987
G1 F1125 X104 Y79.021 E163.82666
G0 F9000 X105.6 Y80.326
G1 F1125 X105.6 Y139.682 E168.56472
G0 F9000 X107.2 Y138.312
G1 F1125 X107.2 Y81.695 E173.08413
G0 F9000 X108.8 Y82.335
G1 F1125 X108.8 Y137.658 E177.50025
G0 F9000 X110.4 Y137.542
G1 F1125 X110.4 Y82.462 E181.89698
G0 F9000 X112 Y82.087
G1 F1125 X112 Y137.915 E186.35341
G0 F9000 X113.6 Y138.911
G1 F1125 X113.6 Y81.106 E190.96765
G0 F9000 X115.2 Y79.617
G1 F1125 X115.2 Y140.374 E195.81754
G0 F9000 X116.8 Y141.503
G1 F1125 X116.8 Y78.49 E200.84751
G0 F9000 X118.4 Y77.651
G1 F1125 X118.4 Y142.352 E206.01222
G0 F9000 X120 Y142.963
G1 F1125 X120 Y77.034 E211.27496
G0 F9000 X121.6 Y76.629
G1 F1125 X121.6 Y143.369 E216.60244
G0 F9000 X123.2 Y143.595
G1 F1125 X123.2 Y76.409 E221.96551
G0 F9000 X124.8 Y76.351
G1 F1125 X124.8 Y143.649 E227.33753
G0 F9000 X126.4 Y143.649
G1 F1125 X126.4 Y76.351 E232.70955
G0 F9000 X128 Y76.351
G1 F1125 X128 Y143.649 E238.08157
G0 F9000 X129.6 Y143.649
G1 F1125 X129.6 Y76.351 E243.45358
G0 F9000 X131.2 Y76.351
G1 F1125 X131.2 Y143.649 E248.8256
G0 F9000 X132.8 Y143.649
G1 F1125 X132.8 Y76.351 E254.19762
G0 F9000 X134.4 Y76.351
G1 F1125 X134.4 Y143.649 E259.56963
G0 F9000 X136 Y143.649
G1 F1125 X136 Y76.351 E264.94165
G0 F9000 X137.6 Y76.351
G1 F1125 X137.6 Y143.649 E270.31367
G0 F9000 X139.2 Y143.649
G1 F1125 X139.2 Y76.351 E275.68569
G0 F9000 X140.8 Y76.351
G1 F1125 X140.8 Y143.649 E281.0577
G0 F9000 X142.4 Y143.649
G1 F1125 X142.4 Y76.351 E286.42972
G0 F9000 X144 Y76.351
G1 F1125 X144 Y143.649 E291.80174
G0 F9000 X145.6 Y143.649
G1 F1125 X145.6 Y76.351 E297.17376
G0 F9000 X147.2 Y76.38
G1 F1125 X147.2 Y143.61 E302.54035
G0 F9000 X148.8 Y143.449
G1 F1125 X148.8 Y76.557 E307.87995
G0 F9000 X150.4 Y76.917
G1 F1125 X150.4 Y143.082 E313.16153
G0 F9000 X152 Y142.53
G1 F1125 X152 Y77.478 E318.35426
G0 F9000 X153.6 Y78.254
G1 F1125 X153.6 Y141.742 E323.42215
G0 F9000 X155.2 Y140.686
G1 F1125 X155.2 Y79.307 E328.32169
G0 F9000 X156.8 Y80.711
G1 F1125 X156.8 Y139.283 E332.99716
G0 F9000 X158.4 Y137.357
G1 F1125 X158.4 Y82.654 E337.36379
G0 F9000 X160 Y85.308
G1 F1125 X160 Y134.694 E341.30599
G0 F9000 X161.6 Y131.923
G1 F1125 X161.6 Y88.08 E344.80573
G0 F9000 X163.2 Y90.851
G1 F1125 X163.2 Y129.152 E347.86308
G0 F9000 X164.8 Y126.38
G1 F1125 X164.8 Y93.622 E350.47797
G0 F9000 X166.4 Y96.393
G1 F1125 X166.4 Y123.609 E352.65046
G0 F9000 X168 Y120.837
G1 F1125 X168 Y99.165 E354.38042
G0 F9000 X169.6 Y101.936
G1 F1125 X169.6 Y118.066 E355.66798
G0 F9000 X171.2 Y114.733
G1 F1125 X171.2 Y105.27 E356.42336
G1 F1500 E349.92336
G0 F9000 X172.203 Y104.914
G0 X171.453 Y103.092
G0 X159.914 Y83.037
G0 X159.076 Y81.754
G0 X157.733 Y80.141
G0 X156.782 Y79.225
G0 X155.138 Y77.954
G0 X153.979 Y77.245
G0 X152.099 Y76.363
G0 X150.809 Y75.923
G0 X148.782 Y75.471
G0 X147.456 Y75.324
G0 X73.497 Y75.29
G0 X71.94 Y75.378
G0 X69.935 Y75.724
G0 X68.616 Y76.104
G0 X66.71 Y76.886
G0 X65.523 Y77.532
G0 X63.797 Y78.736
G0 X62.987 Y79.447
G0 X61.591 Y80.907
G0 X62.4 Y81.598
G1 F1500 E356.42336
G1 F1125 X62.4 Y138.41 E360.95834
G0 F9000 X60.8 Y136.077
G1 F1125 X60.8 Y83.92 E365.12174
G0 F9000 X59.2 Y86.691
G1 F1125 X59.2 Y133.306 E368.84275
G0 F9000 X57.6 Y130.535
G1 F1125 X57.6 Y89.463 E372.12129
G0 F9000 X56 Y92.234
G1 F1125 X56 Y127.764 E374.95745
G0 F9000 X54.4 Y124.992
G1 F1125 X54.4 Y95.005 E377.35114
G0 F9000 X52.8 Y97.777
G1 F1125 X52.8 Y122.221 E379.30237
G0 F9000 X51.2 Y119.45
G1 F1125 X51.2 Y100.548 E380.81121
G0 F9000 X49.6 Y103.399
G1 F1125 X49.6 Y116.62 E381.86657
G1 F1500 E375.36657
G0 F300 X49.6 Y116.62 Z0.54
G0 F9000 X49.008 Y117.779
G0 X59.435 Y135.843
G0 X60.357 Y135.31
;TIME_ELAPSED:272.012075
;LAYER:-5
;TYPE:SUPPORT
G1 F1500 E381.86657
G1 F1125 X67.222 Y142.175 E382.83529
G1 X66.518 Y141.814 E382.91423
G1 X66.402 Y141.747 E382.9276
G1 X65.623 Y141.273 E383.01859
G1 X65.471 Y141.173 E383.03674
G1 X64.758 Y140.661 E383.12433
G1 X64.61 Y140.549 E383.14285
G1 X63.918 Y139.973 E383.23269
G1 X63.805 Y139.872 E383.24781
G1 X63.156 Y139.247 E383.33771
G1 X63.037 Y139.121 E383.355
G1 X62.433 Y138.45 E383.44509
G1 X62.337 Y138.332 E383.46027
G1 X61.775 Y137.607 E383.5518
G1 X61.685 Y137.479 E383.56741
G1 X60.99 Y136.4 E383.69547
G1 X60.917 Y136.281 E383.7094
G1 F1500 E377.2094
G0 F9000 X60.086 Y136.963
G0 X60.924 Y138.246
G0 X62.261 Y139.852
G0 X63.218 Y140.775
G0 X64.862 Y142.046
G0 X66.735 Y143.123
G0 X67.222 Y142.175
G1 F1500 E383.7094
G1 F1125 X67.313 Y142.222 E383.71962
G1 X67.502 Y142.31 E383.74042
G1 X68.305 Y142.651 E383.82747
G1 X68.47 Y142.715 E383.84513
G1 X69.313 Y143.001 E383.93396
G1 X69.476 Y143.05 E383.95094
G1 X69.523 Y143.062 E383.95578
G1 X58.425 Y131.964 E385.52183
G1 X56.492 Y128.617 E385.90749
G1 X71.344 Y143.469 E388.00327
G1 X71.382 Y143.476 E388.00712
G1 X71.557 Y143.5 E388.02475
G1 X72.474 Y143.603 E388.11682
G1 X72.597 Y143.611 E388.12912
G1 X72.912 Y143.623 E388.16057
G1 X54.561 Y125.271 E390.75017
G1 X52.628 Y121.925 E391.13574
G1 X74.351 Y143.648 E394.20109
G1 X75.765 Y143.648 E394.34218
G1 X50.696 Y118.578 E397.87976
G1 X49.981 Y117.34 E398.02241
G1 X49.493 Y116.42 E398.12632
