;FLAVOR:Marlin
;TIME:2927
;Filament used: 2.97618m
;Layer height: 0.28
;MINX:53.504
;MINY:87.508
;MINZ:0.28
;MAXX:183.12
;MAXY:150.041
;MAXZ:13.72
;Generated with Cura_SteamEngine 4.6.1
M140 S60
M105
M190 S60
M104 S200
M105
M109 S200
M82 ;absolute extrusion mode
; Ender 3 Custom Start G-code
G92 E0 ; Reset Extruder
G28 ; Home all axes
G1 Z2.0 F3000 ; Move Z Axis up little to prevent scratching of Heat Bed
G1 X0.1 Y20 Z0.3 F5000.0 ; Move to start position
G1 X0.1 Y200.0 Z0.3 F1500.0 E15 ; Draw the first line
G1 X0.4 Y200.0 Z0.3 F5000.0 ; Move to side a little
G1 X0.4 Y20 Z0.3 F1500.0 E30 ; Draw the second line
G92 E0 ; Reset Extruder
G1 Z2.0 F3000 ; Move Z Axis up little to prevent scratching of Heat Bed
G1 X5 Y20 Z0.3 F5000.0 ; Move over to prevent blob squish
G92 E0
G92 E0
G1 F1500 E-6.5
;LAYER_COUNT:49
;LAYER:0
M107
G0 F6000 X122.019 Y88.368 Z0.28
;TYPE:SKIRT
G1 F1500 E0
G1 F1200 X123.932 Y88.479 E0.08923
G1 X125.801 Y88.639 E0.17657
G1 X127.685 Y88.854 E0.26487
G1 X129.595 Y89.128 E0.35472
G1 X131.427 Y89.444 E0.44128
G1 X133.393 Y89.842 E0.53469
G1 X135.451 Y90.323 E0.6331
G1 X137.277 Y90.807 E0.72106
G1 X138.827 Y91.264 E0.79631
G1 X140.697 Y91.868 E0.88781
G1 X142.449 Y92.489 E0.97436
G1 X144.292 Y93.202 E1.06638
G1 X145.739 Y93.807 E1.13941
G1 X146.02 Y93.93 E1.15369
G1 X147.701 Y94.693 E1.23965
G1 X147.975 Y94.823 E1.25378
G1 X149.677 Y95.661 E1.34211
G1 X151.381 Y96.563 E1.43189
G1 X153.003 Y97.48 E1.51865
G1 X154.63 Y98.46 E1.60709
G1 X156.08 Y99.39 E1.68731
G1 X157.634 Y100.445 E1.77477
G1 X159.234 Y101.599 E1.86663
G1 X160.862 Y102.848 E1.96217
G1 X162.4 Y104.102 E2.05457
G1 X163.796 Y105.312 E2.1406
G1 X164.923 Y106.335 E2.21147
G1 X165.253 Y106.645 E2.23255
G1 X166.587 Y107.937 E2.31903
G1 X167.902 Y109.285 E2.40672
G1 X169.076 Y110.553 E2.48718
G1 X170.495 Y112.18 E2.58771
G1 X171.678 Y113.618 E2.67441
G1 X172.703 Y114.936 E2.75216
G1 X173.864 Y116.512 E2.84331
G1 X175.05 Y118.227 E2.9404
G1 X176.106 Y119.854 E3.03072
G1 X177.106 Y121.499 E3.12036
G1 X177.896 Y122.876 E3.19428
G1 X178.842 Y124.633 E3.2872
G1 X179.708 Y126.359 E3.37712
G1 X180.485 Y128.018 E3.46242
G1 X181.267 Y129.823 E3.55402
G1 X181.586 Y130.612 E3.59365
G1 X181.887 Y131.463 E3.63568
G1 X182.112 Y132.338 E3.67775
G1 X182.258 Y133.229 E3.71979
G1 X182.325 Y134.13 E3.76186
G1 X182.312 Y135.033 E3.80391
G1 X182.22 Y135.931 E3.84594
G1 X182.048 Y136.818 E3.88802
G1 X181.798 Y137.686 E3.93008
G1 X181.473 Y138.528 E3.9721
G1 X181.074 Y139.338 E4.01415
G1 X180.605 Y140.11 E4.05621
G1 X180.07 Y140.838 E4.09828
G1 X179.473 Y141.515 E4.14031
G1 X178.818 Y142.137 E4.18237
G1 X178.11 Y142.698 E4.22443
G1 X177.356 Y143.195 E4.26648
G1 X176.561 Y143.622 E4.3085
G1 X175.731 Y143.978 E4.35055
G1 X174.872 Y144.259 E4.39264
G1 X173.993 Y144.463 E4.43466
G1 X172.753 Y144.616 E4.49283
G1 X171.942 Y144.664 E4.53066
G1 X159.457 Y145.213 E5.11258
G1 X158.754 Y145.234 E5.14533
G1 X157.851 Y145.221 E5.18738
G1 X156.952 Y145.129 E5.22946
G1 X156.066 Y144.957 E5.27149
G1 X154.801 Y144.564 E5.33317
G1 X154.475 Y144.439 E5.34942
G1 X151.993 Y143.528 E5.47254
G1 X149.581 Y142.718 E5.59101
G1 X147.148 Y141.977 E5.70944
G1 X144.71 Y141.31 E5.82714
G1 X142.19 Y140.695 E5.94792
G1 X139.767 Y140.179 E6.06328
G1 X137.239 Y139.713 E6.18298
G1 X134.738 Y139.324 E6.30083
G1 X132.249 Y139.009 E6.41766
G1 X129.7 Y138.76 E6.53691
G1 X127.161 Y138.584 E6.65542
G1 X124.603 Y138.48 E6.77463
G1 X122.098 Y138.448 E6.89128
G1 X119.537 Y138.488 E7.01055
G1 X116.996 Y138.6 E7.12898
G1 X114.477 Y138.782 E7.24659
G1 X111.974 Y139.035 E7.36373
G1 X109.427 Y139.365 E7.48332
G1 X106.915 Y139.762 E7.60174
G1 X104.404 Y140.234 E7.72071
G1 X101.967 Y140.762 E7.83682
G1 X99.493 Y141.372 E7.95547
G1 X97.028 Y142.055 E8.07458
G1 X94.598 Y142.802 E8.19295
G1 X92.189 Y143.619 E8.3114
G1 X89.815 Y144.499 E8.4293
G1 X87.444 Y145.455 E8.54834
G1 X85.16 Y146.453 E8.6644
G1 X82.935 Y147.507 E8.77904
G1 X82.477 Y147.718 E8.80252
G1 X81.641 Y148.059 E8.84456
G1 X80.778 Y148.325 E8.88661
G1 X79.895 Y148.514 E8.92866
G1 X78.824 Y148.635 E8.97885
G1 X77.766 Y148.698 E9.0282
G1 X65.502 Y149.22 E9.59978
G1 X64.812 Y149.241 E9.63192
G1 X63.909 Y149.229 E9.67398
G1 X63.011 Y149.136 E9.71601
G1 X62.124 Y148.965 E9.75808
G1 X61.256 Y148.716 E9.80012
G1 X60.414 Y148.391 E9.84215
G1 X59.603 Y147.993 E9.88422
G1 X58.831 Y147.524 E9.92628
G1 X58.103 Y146.989 E9.96835
G1 X57.426 Y146.392 E10.01038
G1 X56.804 Y145.737 E10.05244
G1 X56.242 Y145.03 E10.09449
G1 X55.745 Y144.276 E10.13654
G1 X55.317 Y143.481 E10.17858
G1 X54.96 Y142.651 E10.22066
G1 X54.679 Y141.793 E10.2627
G1 X54.474 Y140.913 E10.30477
G1 X54.349 Y140.019 E10.3468
G1 X54.302 Y139.117 E10.38886
G1 X54.336 Y138.215 E10.43089
G1 X54.449 Y137.319 E10.47294
G1 X54.762 Y136.018 E10.53525
G1 X55.132 Y134.838 E10.59284
G1 X55.719 Y133.118 E10.67746
G1 X56.416 Y131.249 E10.77034
G1 X57.106 Y129.547 E10.85586
G1 X57.809 Y127.937 E10.93767
G1 X58.675 Y126.096 E11.0324
G1 X59.561 Y124.347 E11.1237
G1 X60.337 Y122.915 E11.19954
G1 X61.312 Y121.221 E11.29055
G1 X62.294 Y119.622 E11.37792
G1 X63.37 Y117.977 E11.46945
G1 X64.437 Y116.442 E11.5565
G1 X65.58 Y114.893 E11.64614
G1 X66.773 Y113.369 E11.73626
G1 X68.126 Y111.743 E11.83476
G1 X69.363 Y110.343 E11.92175
G1 X70.545 Y109.075 E12.00247
G1 X72 Y107.601 E12.09891
G1 X73.027 Y106.611 E12.16533
G1 X73.25 Y106.403 E12.17953
G1 X74.861 Y104.947 E12.28064
G1 X76.316 Y103.71 E12.36957
G1 X77.713 Y102.587 E12.45303
G1 X79.144 Y101.497 E12.53679
G1 X80.696 Y100.383 E12.62575
G1 X82.439 Y99.207 E12.72366
G1 X84.026 Y98.204 E12.81108
G1 X85.685 Y97.219 E12.90092
G1 X87.103 Y96.43 E12.97648
G1 X88.886 Y95.497 E13.07018
G1 X90.777 Y94.58 E13.16804
G1 X92.519 Y93.798 E13.25696
G1 X94.248 Y93.081 E13.34411
G1 X96.039 Y92.396 E13.4334
G1 X97.831 Y91.769 E13.5218
G1 X99.413 Y91.262 E13.59916
G1 X101 Y90.796 E13.67618
G1 X101.298 Y90.714 E13.69057
G1 X103.344 Y90.185 E13.78897
G1 X105.201 Y89.763 E13.87765
G1 X107.048 Y89.398 E13.96531
G1 X108.717 Y89.115 E14.04414
G1 X110.64 Y88.842 E14.13458
G1 X112.545 Y88.627 E14.22385
G1 X114.656 Y88.453 E14.32248
G1 X116.529 Y88.355 E14.40981
G1 X118.405 Y88.308 E14.49719
G1 X120.075 Y88.312 E14.57496
G1 X122.019 Y88.368 E14.66551
G0 F6000 X122.041 Y87.968
G1 F1200 X123.965 Y88.08 E14.75526
G1 X125.846 Y88.242 E14.84317
G1 X127.741 Y88.458 E14.93198
G1 X129.662 Y88.734 E15.02235
G1 X131.506 Y89.052 E15.10948
G1 X133.484 Y89.452 E15.20345
G1 X135.252 Y89.862 E15.28796
G1 X135.553 Y89.937 E15.3024
G1 X137.389 Y90.423 E15.39084
G1 X138.949 Y90.883 E15.46657
G1 X140.83 Y91.491 E15.55862
G1 X142.593 Y92.116 E15.64572
G1 X144.446 Y92.833 E15.73823
G1 X145.893 Y93.438 E15.81126
G1 X146.185 Y93.566 E15.82611
G1 X148.151 Y94.463 E15.92673
G1 X149.863 Y95.307 E16.01561
G1 X151.577 Y96.214 E16.10591
G1 X153.209 Y97.137 E16.19321
G1 X154.845 Y98.123 E16.28216
G1 X156.304 Y99.058 E16.36285
G1 X157.867 Y100.12 E16.45084
G1 X159.225 Y101.095 E16.52868
G1 X159.476 Y101.282 E16.54326
G1 X161.114 Y102.538 E16.63937
G1 X162.413 Y103.592 E16.71727
G1 X162.661 Y103.8 E16.73234
G1 X164.065 Y105.015 E16.81879
G1 X165.53 Y106.357 E16.91131
G1 X166.872 Y107.657 E16.99831
G1 X168.195 Y109.012 E17.08649
G1 X169.377 Y110.29 E17.16755
G1 X170.804 Y111.926 E17.26863
G1 X171.993 Y113.372 E17.35581
G1 X173.025 Y114.698 E17.43405
G1 X174.193 Y116.284 E17.52576
G1 X175.385 Y118.009 E17.6234
G1 X176.447 Y119.645 E17.71422
G1 X177.453 Y121.299 E17.80436
G1 X178.248 Y122.686 E17.87881
G1 X179.2 Y124.453 E17.97227
G1 X180.07 Y126.189 E18.06268
G1 X180.851 Y127.859 E18.14853
G1 X181.638 Y129.673 E18.2406
G1 X181.957 Y130.462 E18.28023
G1 X182.265 Y131.329 E18.32308
G1 X182.496 Y132.221 E18.36598
G1 X182.649 Y133.128 E18.40881
G1 X182.723 Y134.046 E18.4517
G1 X182.717 Y134.967 E18.49458
G1 X182.631 Y135.883 E18.53742
G1 X182.465 Y136.789 E18.58031
G1 X182.222 Y137.677 E18.62318
G1 X181.903 Y138.541 E18.66607
G1 X181.51 Y139.373 E18.70891
G1 X181.046 Y140.168 E18.75178
G1 X180.515 Y140.92 E18.79464
G1 X179.92 Y141.623 E18.83753
G1 X179.267 Y142.272 E18.8804
G1 X178.56 Y142.862 E18.92328
G1 X177.805 Y143.388 E18.96612
G1 X177.006 Y143.847 E19.00903
G1 X176.171 Y144.234 E19.05188
G1 X175.306 Y144.548 E19.09473
G1 X174.416 Y144.786 E19.13763
G1 X173.509 Y144.945 E19.18051
G1 X172.778 Y145.015 E19.2147
G1 X171.96 Y145.064 E19.25286
G1 X159.469 Y145.613 E19.83506
G1 X158.766 Y145.634 E19.8678
G1 X157.845 Y145.622 E19.91069
G1 X156.929 Y145.529 E19.95357
G1 X156.024 Y145.358 E19.99645
G1 X155.138 Y145.109 E20.03931
G1 X154.658 Y144.938 E20.06303
G1 X154.279 Y144.793 E20.08193
G1 X151.865 Y143.906 E20.20168
G1 X149.452 Y143.096 E20.3202
G1 X147.063 Y142.369 E20.43648
G1 X144.574 Y141.687 E20.55665
G1 X142.118 Y141.088 E20.67437
G1 X139.689 Y140.571 E20.79
G1 X137.171 Y140.107 E20.90923
G1 X134.698 Y139.723 E21.02576
G1 X132.196 Y139.406 E21.14319
G1 X129.669 Y139.159 E21.26142
G1 X127.116 Y138.982 E21.38059
G1 X124.617 Y138.88 E21.49705
G1 X122.099 Y138.848 E21.61431
G1 X119.561 Y138.888 E21.7325
G1 X117.006 Y139.001 E21.85159
G1 X114.51 Y139.181 E21.96811
G1 X111.994 Y139.435 E22.08587
G1 X109.509 Y139.757 E22.20254
G1 X106.974 Y140.158 E22.32205
G1 X104.497 Y140.623 E22.43941
G1 X102.076 Y141.148 E22.55476
G1 X99.558 Y141.768 E22.67551
G1 X97.138 Y142.439 E22.79245
G1 X94.749 Y143.174 E22.90883
G1 X92.309 Y144.001 E23.0288
G1 X89.967 Y144.869 E23.1451
G1 X87.605 Y145.822 E23.2637
G1 X85.326 Y146.817 E23.37949
G1 X83.102 Y147.87 E23.49407
G1 X82.644 Y148.081 E23.51755
G1 X81.792 Y148.43 E23.56043
G1 X80.913 Y148.703 E23.60329
G1 X80.014 Y148.899 E23.64613
G1 X78.848 Y149.035 E23.70079
G1 X77.783 Y149.097 E23.75047
G1 X65.514 Y149.62 E24.32228
G1 X64.824 Y149.641 E24.35443
G1 X63.904 Y149.629 E24.39727
G1 X62.988 Y149.537 E24.44014
G1 X62.083 Y149.366 E24.48302
G1 X61.197 Y149.118 E24.52586
G1 X60.335 Y148.793 E24.56876
G1 X59.505 Y148.394 E24.61164
G1 X58.713 Y147.926 E24.65448
G1 X57.964 Y147.39 E24.69737
G1 X57.265 Y146.791 E24.74023
G1 X56.62 Y146.134 E24.7831
G1 X56.035 Y145.423 E24.82597
G1 X55.513 Y144.664 E24.86887
G1 X55.06 Y143.863 E24.91172
G1 X54.677 Y143.026 E24.95458
G1 X54.369 Y142.158 E24.99746
G1 X54.137 Y141.267 E25.04034
G1 X53.984 Y140.36 E25.08317
G1 X53.909 Y139.442 E25.12606
G1 X53.915 Y138.521 E25.16894
G1 X54 Y137.605 E25.21178
G1 X54.165 Y136.699 E25.25466
G1 X54.38 Y135.9 E25.29319
G1 X54.753 Y134.709 E25.3513
G1 X55.344 Y132.979 E25.43643
G1 X56.045 Y131.099 E25.52986
G1 X56.739 Y129.388 E25.61583
G1 X57.446 Y127.768 E25.69814
G1 X58.318 Y125.916 E25.79345
G1 X59.209 Y124.158 E25.88523
G1 X59.99 Y122.716 E25.96159
G1 X60.97 Y121.013 E26.05308
G1 X61.959 Y119.404 E26.14102
G1 X63.042 Y117.749 E26.23312
G1 X64.115 Y116.205 E26.32067
G1 X65.264 Y114.647 E26.41082
G1 X66.266 Y113.361 E26.48673
G1 X66.465 Y113.114 E26.5015
G1 X67.619 Y111.721 E26.58573
G1 X67.826 Y111.479 E26.60056
G1 X69.07 Y110.071 E26.68804
G1 X70.26 Y108.795 E26.76929
G1 X71.722 Y107.313 E26.86622
G1 X72.749 Y106.323 E26.93265
G1 X72.981 Y106.107 E26.94741
G1 X74.601 Y104.643 E27.04908
G1 X76.065 Y103.398 E27.13857
G1 X77.47 Y102.269 E27.22249
G1 X78.91 Y101.173 E27.30676
G1 X80.471 Y100.052 E27.39625
G1 X82.225 Y98.869 E27.49476
G1 X83.821 Y97.861 E27.58266
G1 X85.49 Y96.87 E27.67304
G1 X86.916 Y96.076 E27.74904
G1 X88.71 Y95.137 E27.84333
G1 X90.612 Y94.215 E27.94175
G1 X92.365 Y93.429 E28.03121
G1 X94.104 Y92.708 E28.11887
G1 X95.907 Y92.019 E28.20874
G1 X97.708 Y91.388 E28.2976
G1 X99.301 Y90.878 E28.37549
G1 X100.888 Y90.412 E28.4525
G1 X101.197 Y90.327 E28.46743
G1 X103.254 Y89.795 E28.56636
G1 X105.123 Y89.371 E28.6556
G1 X106.98 Y89.004 E28.74374
G1 X108.66 Y88.719 E28.82309
G1 X110.594 Y88.445 E28.91404
G1 X112.188 Y88.261 E28.98876
G1 X112.511 Y88.229 E29.00387
G1 X114.635 Y88.054 E29.10311
G1 X116.519 Y87.955 E29.19096
G1 X118.405 Y87.908 E29.27881
G1 X120.086 Y87.912 E29.35708
G1 X122.041 Y87.968 E29.44815
G0 F6000 X122.063 Y87.569
G1 F1200 X123.999 Y87.681 E29.53845
G1 X125.89 Y87.844 E29.62683
G1 X127.797 Y88.062 E29.71621
G1 X129.729 Y88.339 E29.80709
G1 X131.584 Y88.659 E29.89474
G1 X133.245 Y88.991 E29.97361
G1 X133.574 Y89.062 E29.98929
G1 X135.342 Y89.472 E30.0738
G1 X135.655 Y89.55 E30.08882
G1 X137.501 Y90.04 E30.17775
G1 X139.071 Y90.502 E30.25396
G1 X140.963 Y91.113 E30.34653
G1 X142.44 Y91.633 E30.41945
G1 X142.737 Y91.743 E30.4342
G1 X144.6 Y92.464 E30.52721
G1 X146.047 Y93.069 E30.60025
G1 X146.35 Y93.202 E30.61565
G1 X148.327 Y94.104 E30.71684
G1 X150.049 Y94.953 E30.80624
G1 X151.773 Y95.866 E30.89708
G1 X153.414 Y96.794 E30.98486
G1 X155.06 Y97.786 E31.07435
G1 X156.528 Y98.727 E31.15554
G1 X157.846 Y99.618 E31.22962
G1 X158.1 Y99.796 E31.24407
G1 X159.719 Y100.964 E31.33702
G1 X161.366 Y102.227 E31.43367
G1 X162.665 Y103.281 E31.51156
G1 X162.923 Y103.497 E31.52723
G1 X164.333 Y104.719 E31.61411
G1 X165.471 Y105.751 E31.68565
G1 X165.808 Y106.069 E31.70722
G1 X167.158 Y107.378 E31.79478
G1 X168.488 Y108.74 E31.88342
G1 X169.678 Y110.026 E31.96501
G1 X170.906 Y111.428 E32.05179
G1 X171.112 Y111.671 E32.06663
G1 X172.308 Y113.125 E32.15429
G1 X173.346 Y114.46 E32.23304
G1 X174.522 Y116.056 E32.32535
G1 X175.72 Y117.79 E32.42349
G1 X176.788 Y119.435 E32.51481
G1 X177.8 Y121.099 E32.6055
G1 X178.599 Y122.495 E32.6804
G1 X179.557 Y124.273 E32.77444
G1 X180.432 Y126.018 E32.86534
G1 X181.218 Y127.699 E32.95175
G1 X182.009 Y129.523 E33.04432
G1 X182.328 Y130.312 E33.08395
G1 X182.642 Y131.196 E33.12763
G1 X182.88 Y132.103 E33.1713
G1 X183.04 Y133.027 E33.21496
G1 X183.12 Y133.961 E33.25861
G1 X183.12 Y134.899 E33.30229
G1 X183.041 Y135.834 E33.34598
G1 X182.882 Y136.758 E33.38964
G1 X182.645 Y137.666 E33.43334
G1 X182.332 Y138.549 E33.47696
G1 X181.944 Y139.404 E33.52068
G1 X181.485 Y140.221 E33.56432
G1 X180.958 Y140.997 E33.608
G1 X180.367 Y141.725 E33.65166
G1 X179.716 Y142.401 E33.69536
G1 X179.01 Y143.018 E33.73902
G1 X178.254 Y143.573 E33.78269
G1 X177.453 Y144.061 E33.82636
G1 X176.614 Y144.48 E33.87003
G1 X175.742 Y144.825 E33.9137
G1 X174.844 Y145.095 E33.95736
G1 X173.926 Y145.287 E34.00103
G1 X172.802 Y145.414 E34.0537
G1 X171.977 Y145.463 E34.09219
G1 X159.48 Y146.013 E34.67466
G1 X158.777 Y146.034 E34.70741
G1 X157.84 Y146.022 E34.75105
G1 X156.906 Y145.93 E34.79475
G1 X155.984 Y145.759 E34.83841
G1 X155.08 Y145.51 E34.88207
G1 X154.515 Y145.311 E34.90997
G1 X154.21 Y145.194 E34.92518
G1 X151.716 Y144.278 E35.04889
G1 X149.335 Y143.479 E35.16584
G1 X146.914 Y142.742 E35.28368
G1 X144.521 Y142.086 E35.39922
G1 X142.037 Y141.481 E35.51826
G1 X139.57 Y140.955 E35.63572
G1 X137.149 Y140.509 E35.75035
G1 X134.623 Y140.116 E35.86939
G1 X132.139 Y139.802 E35.98597
G1 X129.638 Y139.558 E36.10298
G1 X127.105 Y139.382 E36.22121
G1 X124.596 Y139.28 E36.33814
G1 X122.1 Y139.248 E36.45437
G1 X119.549 Y139.288 E36.57317
G1 X117.052 Y139.398 E36.68956
G1 X114.545 Y139.58 E36.8066
G1 X112.048 Y139.832 E36.92346
G1 X109.551 Y140.155 E37.0407
G1 X107.044 Y140.551 E37.15888
G1 X104.585 Y141.013 E37.27539
G1 X102.143 Y141.543 E37.39175
G1 X99.696 Y142.146 E37.5091
G1 X97.257 Y142.822 E37.62695
G1 X94.816 Y143.573 E37.74587
G1 X92.471 Y144.368 E37.86117
G1 X90.107 Y145.244 E37.97856
G1 X87.778 Y146.183 E38.09549
G1 X85.472 Y147.19 E38.21266
G1 X83.27 Y148.234 E38.32613
G1 X82.812 Y148.445 E38.34961
G1 X81.944 Y148.801 E38.3933
G1 X81.049 Y149.081 E38.43697
G1 X80.133 Y149.284 E38.48065
G1 X78.872 Y149.434 E38.53979
G1 X77.8 Y149.497 E38.58979
G1 X65.527 Y150.02 E39.16179
G1 X64.837 Y150.041 E39.19393
G1 X63.899 Y150.029 E39.23761
G1 X62.965 Y149.938 E39.28131
G1 X62.043 Y149.768 E39.32497
G1 X61.139 Y149.519 E39.36863
G1 X60.259 Y149.195 E39.41229
G1 X59.41 Y148.796 E39.45598
G1 X58.598 Y148.327 E39.49964
G1 X57.829 Y147.79 E39.54331
G1 X57.108 Y147.19 E39.58699
G1 X56.441 Y146.531 E39.63065
G1 X55.833 Y145.817 E39.67432
G1 X55.288 Y145.054 E39.71798
G1 X54.809 Y144.247 E39.76168
G1 X54.401 Y143.403 E39.80533
G1 X54.067 Y142.526 E39.84903
G1 X53.809 Y141.625 E39.89267
G1 X53.628 Y140.704 E39.93637
G1 X53.526 Y139.772 E39.98003
G1 X53.504 Y138.835 E40.02367
G1 X53.562 Y137.898 E40.06739
