;FLAVOR:Marlin
;TIME:13621
;Filament used: 13.8087m
;Layer height: 0.28
;MINX:55.714
;MINY:55.709
;MINZ:0.28
;MAXX:179.292
;MAXY:179.29
;MAXZ:28.56
;Generated with Cura_SteamEngine 4.6.1
M140 S60
M105
M190 S60
M104 S200
M105
M109 S200
M82 ;absolute extrusion mode
; Ender 3 Custom Start G-code
G92 E0 ; Reset Extruder
G28 ; Home all axes
G1 Z2.0 F3000 ; Move Z Axis up little to prevent scratching of Heat Bed
G1 X0.1 Y20 Z0.3 F5000.0 ; Move to start position
G1 X0.1 Y200.0 Z0.3 F1500.0 E15 ; Draw the first line
G1 X0.4 Y200.0 Z0.3 F5000.0 ; Move to side a little
G1 X0.4 Y20 Z0.3 F1500.0 E30 ; Draw the second line
G92 E0 ; Reset Extruder
G1 Z2.0 F3000 ; Move Z Axis up little to prevent scratching of Heat Bed
G1 X5 Y20 Z0.3 F5000.0 ; Move over to prevent blob squish
G92 E0
G92 E0
G1 F1500 E-6.5
;LAYER_COUNT:102
;LAYER:0
M107
G0 F6000 X119.943 Y56.557 Z0.28
;TYPE:SKIRT
G1 F1500 E0
G1 F1200 X120.297 Y56.572 E0.0165
G1 X121.958 Y56.671 E0.09398
G1 X122.293 Y56.697 E0.10962
G1 X124.029 Y56.858 E0.19081
G1 X124.38 Y56.896 E0.20725
G1 X126.086 Y57.114 E0.28733
G1 X126.436 Y57.165 E0.3038
G1 X128.127 Y57.441 E0.38358
G1 X128.453 Y57.5 E0.39901
G1 X130.135 Y57.831 E0.47883
G1 X130.485 Y57.906 E0.4955
G1 X132.194 Y58.305 E0.57722
G1 X132.52 Y58.387 E0.59287
G1 X134.125 Y58.818 E0.67025
G1 X134.454 Y58.912 E0.68619
G1 X136.127 Y59.422 E0.76763
G1 X136.457 Y59.529 E0.78378
G1 X138.11 Y60.095 E0.86514
G1 X138.441 Y60.215 E0.88153
G1 X140.043 Y60.826 E0.96137
G1 X140.373 Y60.958 E0.97792
G1 X141.966 Y61.63 E1.05843
G1 X142.277 Y61.767 E1.07425
G1 X143.856 Y62.496 E1.15523
G1 X144.168 Y62.647 E1.17137
G1 X145.695 Y63.416 E1.25099
G1 X146.004 Y63.578 E1.26723
G1 X147.537 Y64.417 E1.34861
G1 X147.834 Y64.587 E1.36454
G1 X149.577 Y65.624 E1.45898
G1 X151.036 Y66.555 E1.53957
G1 X151.325 Y66.747 E1.55573
G1 X152.753 Y67.728 E1.6364
G1 X153.041 Y67.933 E1.65286
G1 X154.445 Y68.971 E1.73416
G1 X154.719 Y69.182 E1.75027
G1 X156.063 Y70.248 E1.83014
G1 X156.326 Y70.463 E1.84596
G1 X157.617 Y71.559 E1.92482
G1 X157.873 Y71.783 E1.94066
G1 X159.144 Y72.937 E2.02059
G1 X159.404 Y73.183 E2.03726
G1 X160.681 Y74.427 E2.12027
G1 X160.924 Y74.671 E2.13631
G1 X162.087 Y75.883 E2.21452
G1 X162.321 Y76.136 E2.23057
G1 X163.501 Y77.452 E2.31288
G1 X163.734 Y77.721 E2.32945
G1 X165.068 Y79.325 E2.42659
G1 X166.1 Y80.648 E2.50472
G1 X166.305 Y80.922 E2.52066
G1 X167.314 Y82.309 E2.60052
G1 X167.517 Y82.598 E2.61697
G1 X168.691 Y84.344 E2.71494
G1 X169.579 Y85.755 E2.79257
G1 X169.764 Y86.062 E2.80926
G1 X170.658 Y87.6 E2.89209
G1 X170.822 Y87.893 E2.90773
G1 X171.613 Y89.363 E2.98546
G1 X171.774 Y89.675 E3.00181
G1 X172.54 Y91.224 E3.08227
G1 X172.688 Y91.535 E3.09831
G1 X173.398 Y93.102 E3.17842
G1 X173.536 Y93.421 E3.1946
G1 X174.217 Y95.071 E3.27772
G1 X174.343 Y95.391 E3.29373
G1 X174.923 Y96.943 E3.37088
G1 X175.039 Y97.273 E3.38717
G1 X175.595 Y98.932 E3.46864
G1 X175.699 Y99.26 E3.48467
G1 X176.197 Y100.931 E3.56586
G1 X176.291 Y101.268 E3.58215
G1 X176.722 Y102.919 E3.6616
G1 X176.804 Y103.253 E3.67762
G1 X177.185 Y104.944 E3.75833
G1 X177.254 Y105.277 E3.77416
G1 X177.572 Y106.946 E3.85328
G1 X177.632 Y107.298 E3.86991
G1 X177.945 Y109.357 E3.96688
G1 X178.152 Y111.075 E4.04746
G1 X178.188 Y111.426 E4.06389
G1 X178.334 Y113.133 E4.14366
G1 X178.357 Y113.472 E4.15948
G1 X178.448 Y115.222 E4.24108
G1 X178.46 Y115.567 E4.25716
G1 X178.491 Y117.274 E4.33665
G1 X178.492 Y117.626 E4.35305
G1 X178.463 Y119.394 E4.43538
G1 X178.451 Y119.745 E4.45174
G1 X178.365 Y121.435 E4.53053
G1 X178.342 Y121.768 E4.54607
G1 X178.2 Y123.465 E4.62537
G1 X178.165 Y123.815 E4.64175
G1 X177.958 Y125.561 E4.72362
G1 X177.91 Y125.914 E4.74021
G1 X177.651 Y127.594 E4.81936
G1 X177.595 Y127.921 E4.83481
G1 X177.28 Y129.6 E4.91435
G1 X177.208 Y129.949 E4.93095
G1 X176.822 Y131.672 E5.01316
G1 X176.74 Y132.01 E5.02936
G1 X176.311 Y133.659 E5.1087
G1 X176.221 Y133.985 E5.12445
G1 X175.729 Y135.648 E5.2052
G1 X175.623 Y135.983 E5.22156
G1 X175.063 Y137.661 E5.30393
G1 X174.948 Y137.989 E5.32012
G1 X174.359 Y139.572 E5.39877
G1 X174.232 Y139.897 E5.41501
G1 X173.567 Y141.513 E5.49638
G1 X173.429 Y141.832 E5.51257
G1 X172.737 Y143.363 E5.5908
G1 X172.593 Y143.667 E5.60647
G1 X171.833 Y145.211 E5.6866
G1 X171.674 Y145.52 E5.70278
G1 X170.864 Y147.033 E5.78269
G1 X170.694 Y147.339 E5.79899
G1 X169.809 Y148.864 E5.88109
G1 X169.631 Y149.159 E5.89714
G1 X168.719 Y150.615 E5.97714
G1 X168.528 Y150.908 E5.99342
G1 X167.565 Y152.334 E6.07355
G1 X167.369 Y152.614 E6.08946
G1 X166.369 Y153.993 E6.16878
G1 X166.161 Y154.271 E6.18495
G1 X165.082 Y155.657 E6.26674
G1 X164.862 Y155.93 E6.28306
G1 X163.747 Y157.265 E6.36405
G1 X163.517 Y157.53 E6.38039
G1 X162.396 Y158.782 E6.45865
G1 X162.166 Y159.031 E6.47443
G1 X160.962 Y160.289 E6.55551
G1 X160.721 Y160.532 E6.57145
G1 X159.465 Y161.759 E6.65321
G1 X159.218 Y161.993 E6.66905
G1 X158 Y163.106 E6.74588
G1 X157.733 Y163.341 E6.76244
G1 X156.397 Y164.479 E6.84416
G1 X156.129 Y164.7 E6.86034
G1 X154.751 Y165.795 E6.94229
G1 X154.468 Y166.011 E6.95887
G1 X153.072 Y167.043 E7.03971
G1 X152.793 Y167.242 E7.05567
G1 X151.39 Y168.208 E7.13498
G1 X151.106 Y168.397 E7.15087
G1 X149.677 Y169.312 E7.22988
G1 X149.38 Y169.495 E7.24612
G1 X147.849 Y170.403 E7.32901
G1 X147.552 Y170.573 E7.34494
G1 X146.061 Y171.391 E7.42413
G1 X145.75 Y171.554 E7.44048
G1 X144.218 Y172.327 E7.52039
G1 X143.903 Y172.48 E7.53669
G1 X142.313 Y173.215 E7.61826
G1 X141.996 Y173.355 E7.63439
G1 X140.445 Y174.009 E7.71277
G1 X140.137 Y174.133 E7.72823
G1 X138.501 Y174.761 E7.80983
G1 X138.165 Y174.883 E7.82648
G1 X136.529 Y175.446 E7.90704
G1 X136.203 Y175.552 E7.923
G1 X134.561 Y176.056 E8.00298
G1 X134.23 Y176.151 E8.01902
G1 X132.284 Y176.672 E8.11282
G1 X130.524 Y177.084 E8.19699
G1 X130.184 Y177.157 E8.21318
G1 X128.536 Y177.484 E8.29142
G1 X128.195 Y177.546 E8.30756
G1 X126.468 Y177.828 E8.38904
G1 X126.13 Y177.877 E8.40494
G1 X124.457 Y178.093 E8.48349
G1 X124.104 Y178.132 E8.50003
G1 X122.304 Y178.301 E8.58421
G1 X121.958 Y178.328 E8.60037
G1 X120.296 Y178.427 E8.6779
G1 X119.95 Y178.442 E8.69402
G1 X118.193 Y178.487 E8.77586
G1 X117.854 Y178.49 E8.79165
G1 X116.149 Y178.477 E8.87104
G1 X115.799 Y178.468 E8.88735
G1 X114.06 Y178.395 E8.96839
G1 X113.706 Y178.374 E8.98491
G1 X111.976 Y178.241 E9.0657
G1 X111.639 Y178.209 E9.08146
G1 X109.954 Y178.023 E9.1604
G1 X109.611 Y177.98 E9.1765
G1 X107.885 Y177.73 E9.2577
G1 X107.537 Y177.673 E9.27412
G1 X105.829 Y177.365 E9.35494
G1 X105.492 Y177.298 E9.37094
G1 X103.839 Y176.942 E9.44967
G1 X103.502 Y176.864 E9.46578
G1 X101.833 Y176.445 E9.54591
G1 X101.506 Y176.357 E9.56168
G1 X99.842 Y175.88 E9.64228
G1 X99.511 Y175.779 E9.65839
G1 X97.896 Y175.256 E9.73744
G1 X97.567 Y175.143 E9.75364
G1 X95.898 Y174.539 E9.83629
G1 X95.563 Y174.412 E9.85297
G1 X93.964 Y173.769 E9.93322
G1 X93.653 Y173.637 E9.94895
G1 X92.123 Y172.962 E10.02682
G1 X91.81 Y172.818 E10.04286
G1 X90.217 Y172.05 E10.12521
G1 X89.906 Y171.893 E10.14143
G1 X88.38 Y171.092 E10.22168
G1 X88.071 Y170.923 E10.23808
G1 X86.609 Y170.09 E10.31643
G1 X86.312 Y169.914 E10.33251
G1 X84.793 Y168.979 E10.41557
G1 X84.505 Y168.795 E10.43148
G1 X83.058 Y167.836 E10.51231
G1 X82.768 Y167.637 E10.52869
G1 X81.385 Y166.65 E10.60781
G1 X81.111 Y166.447 E10.62368
G1 X79.73 Y165.39 E10.70466
G1 X79.449 Y165.167 E10.72137
G1 X78.118 Y164.072 E10.80162
G1 X77.867 Y163.859 E10.81695
G1 X76.611 Y162.756 E10.89479
G1 X76.348 Y162.516 E10.91137
G1 X75.053 Y161.296 E10.99421
G1 X74.802 Y161.052 E11.01051
G1 X73.586 Y159.825 E11.09095
G1 X73.352 Y159.58 E11.10672
G1 X72.179 Y158.315 E11.18706
G1 X71.943 Y158.052 E11.20351
G1 X70.811 Y156.743 E11.28409
G1 X70.592 Y156.481 E11.29999
G1 X69.511 Y155.143 E11.38009
G1 X69.293 Y154.863 E11.39661
G1 X68.265 Y153.496 E11.47626
G1 X68.069 Y153.226 E11.49179
G1 X66.914 Y151.572 E11.58573
G1 X65.979 Y150.143 E11.66525
G1 X65.785 Y149.835 E11.6822
G1 X64.854 Y148.295 E11.76599
G1 X64.679 Y147.993 E11.78224
G1 X63.847 Y146.504 E11.86167
G1 X63.683 Y146.2 E11.87775
G1 X62.88 Y144.641 E11.95941
G1 X62.727 Y144.33 E11.97555
G1 X62.021 Y142.837 E12.05245
G1 X61.877 Y142.519 E12.0687
G1 X61.167 Y140.874 E12.15213
G1 X61.037 Y140.558 E12.16804
G1 X60.408 Y138.955 E12.24823
G1 X60.286 Y138.628 E12.26448
G1 X59.724 Y137.038 E12.343
G1 X59.616 Y136.714 E12.35891
G1 X59.08 Y135.019 E12.44168
G1 X58.978 Y134.678 E12.45826
G1 X58.519 Y133.028 E12.53801
G1 X58.434 Y132.701 E12.55374
G1 X58.035 Y131.058 E12.63247
G1 X57.959 Y130.72 E12.6486
G1 X57.599 Y128.982 E12.73125
G1 X57.532 Y128.626 E12.74811
G1 X57.194 Y126.612 E12.8432
G1 X56.963 Y124.925 E12.92249
G1 X56.922 Y124.581 E12.93862
G1 X56.745 Y122.854 E13.01946
G1 X56.716 Y122.511 E13.03549
G1 X56.598 Y120.788 E13.11591
G1 X56.58 Y120.438 E13.13223
G1 X56.521 Y118.704 E13.21302
G1 X56.515 Y118.363 E13.2289
G1 X56.514 Y116.713 E13.30573
G1 X56.519 Y116.378 E13.32133
G1 X56.577 Y114.582 E13.405
G1 X56.596 Y114.214 E13.42216
G1 X56.713 Y112.505 E13.50192
G1 X56.742 Y112.164 E13.51786
G1 X56.919 Y110.433 E13.59888
G1 X56.96 Y110.09 E13.61497
G1 X57.195 Y108.37 E13.6958
G1 X57.248 Y108.023 E13.71215
G1 X57.535 Y106.353 E13.79105
G1 X57.599 Y106.016 E13.80702
G1 X57.954 Y104.299 E13.88866
G1 X58.029 Y103.964 E13.90465
G1 X58.426 Y102.324 E13.98322
G1 X58.514 Y101.987 E13.99944
G1 X58.982 Y100.307 E14.08064
G1 X59.079 Y99.979 E14.09657
G1 X59.591 Y98.354 E14.1759
G1 X59.701 Y98.025 E14.19206
G1 X60.286 Y96.367 E14.27393
G1 X60.408 Y96.041 E14.29013
G1 X61.03 Y94.453 E14.36955
G1 X61.164 Y94.128 E14.38592
G1 X61.995 Y92.216 E14.48299
G1 X62.7 Y90.722 E14.55992
G1 X62.855 Y90.409 E14.57618
G1 X63.676 Y88.813 E14.65975
G1 X63.844 Y88.499 E14.67634
G1 X64.687 Y86.992 E14.75674
G1 X64.856 Y86.703 E14.77233
G1 X65.902 Y84.979 E14.86623
G1 X66.841 Y83.535 E14.94643
G1 X67.032 Y83.252 E14.96233
G1 X68.012 Y81.85 E15.04198
G1 X68.217 Y81.567 E15.05825
G1 X69.268 Y80.168 E15.13973
G1 X69.486 Y79.888 E15.15625
G1 X70.6 Y78.508 E15.23884
G1 X70.823 Y78.242 E15.255
G1 X71.926 Y76.967 E15.3335
G1 X72.153 Y76.713 E15.34936
G1 X73.34 Y75.43 E15.43075
G1 X73.585 Y75.174 E15.44725
G1 X74.79 Y73.959 E15.52693
G1 X75.033 Y73.722 E15.54274
G1 X76.268 Y72.557 E15.62179
G1 X76.524 Y72.324 E15.63791
G1 X77.845 Y71.16 E15.7199
G1 X78.113 Y70.932 E15.73628
G1 X79.441 Y69.841 E15.81631
G1 X79.712 Y69.626 E15.83242
G1 X81.107 Y68.557 E15.91425
G1 X81.389 Y68.348 E15.9306
G1 X82.762 Y67.369 E16.00912
G1 X83.034 Y67.182 E16.02449
G1 X84.45 Y66.24 E16.10368
G1 X84.751 Y66.047 E16.12033
G1 X86.261 Y65.117 E16.20291
G1 X86.556 Y64.942 E16.21888
G1 X88.048 Y64.091 E16.29886
G1 X88.356 Y63.922 E16.31522
G1 X89.878 Y63.122 E16.39528
G1 X90.181 Y62.969 E16.41109
G1 X91.702 Y62.233 E16.48977
G1 X92.019 Y62.087 E16.50602
G1 X93.588 Y61.393 E16.58591
G1 X93.9 Y61.261 E16.60168
G1 X95.537 Y60.601 E16.68387
G1 X95.87 Y60.473 E16.70048
G1 X97.476 Y59.89 E16.78004
G1 X97.8 Y59.779 E16.79599
G1 X99.462 Y59.238 E16.87737
G1 X99.788 Y59.138 E16.89325
G1 X101.432 Y58.663 E16.97293
G1 X101.775 Y58.57 E16.98948
G1 X103.441 Y58.151 E17.06947
G1 X103.769 Y58.074 E17.08516
G1 X105.449 Y57.71 E17.16521
G1 X105.804 Y57.64 E17.18205
G1 X107.539 Y57.328 E17.26414
G1 X107.876 Y57.273 E17.28004
G1 X109.519 Y57.034 E17.35735
G1 X109.852 Y56.991 E17.37298
G1 X111.594 Y56.796 E17.4546
G1 X111.942 Y56.763 E17.47088
G1 X113.699 Y56.627 E17.55294
G1 X114.059 Y56.606 E17.56973
G1 X115.777 Y56.534 E17.6498
G1 X116.098 Y56.526 E17.66475
G1 X117.73 Y56.509 E17.74075
G1 X118.089 Y56.511 E17.75746
G1 X119.943 Y56.557 E17.84382
G0 F6000 X119.953 Y56.157
G1 F1200 X120.321 Y56.173 E17.86097
G1 X121.982 Y56.272 E17.93845
G1 X122.33 Y56.298 E17.9547
G1 X124.066 Y56.459 E18.03589
G1 X124.431 Y56.499 E18.05298
G1 X126.137 Y56.717 E18.13307
G1 X126.501 Y56.77 E18.1502
G1 X128.192 Y57.046 E18.22998
G1 X128.531 Y57.107 E18.24602
G1 X130.213 Y57.438 E18.32584
G1 X130.576 Y57.517 E18.34314
G1 X132.285 Y57.916 E18.42486
G1 X132.624 Y58.001 E18.44113
G1 X134.229 Y58.432 E18.51851
G1 X134.571 Y58.53 E18.53508
G1 X136.244 Y59.04 E18.61652
G1 X136.587 Y59.151 E18.63331
G1 X138.24 Y59.717 E18.71466
G1 X138.583 Y59.841 E18.73165
G1 X140.185 Y60.452 E18.81149
G1 X140.528 Y60.589 E18.82868
G1 X142.121 Y61.261 E18.90919
G1 X142.444 Y61.404 E18.92564
G1 X144.023 Y62.133 E19.00662
G1 X144.348 Y62.29 E19.02343
G1 X145.875 Y63.059 E19.10304
G1 X146.196 Y63.228 E19.11993
G1 X147.729 Y64.067 E19.20131
G1 X148.038 Y64.242 E19.21784
G1 X149.488 Y65.1 E19.29629
G1 X149.792 Y65.287 E19.31291
G1 X151.251 Y66.218 E19.3935
G1 X151.551 Y66.417 E19.41027
G1 X152.979 Y67.398 E19.49094
G1 X153.279 Y67.611 E19.50807
G1 X154.683 Y68.649 E19.58937
G1 X154.968 Y68.868 E19.60611
G1 X156.312 Y69.934 E19.68599
G1 X156.585 Y70.158 E19.70243
G1 X157.876 Y71.254 E19.78129
G1 X158.141 Y71.487 E19.79772
G1 X159.412 Y72.641 E19.87766
G1 X159.684 Y72.896 E19.89502
G1 X160.961 Y74.14 E19.97803
G1 X161.212 Y74.394 E19.99466
G1 X162.375 Y75.606 E20.07287
G1 X162.619 Y75.869 E20.08958
G1 X163.799 Y77.185 E20.17188
G1 X164.041 Y77.464 E20.18908
G1 X165.159 Y78.802 E20.27027
G1 X165.383 Y79.079 E20.28686
G1 X166.415 Y80.402 E20.36499
G1 X166.629 Y80.686 E20.38155
G1 X167.638 Y82.073 E20.46141
G1 X167.849 Y82.374 E20.47853
G1 X168.841 Y83.842 E20.56103
G1 X169.029 Y84.131 E20.57708
G1 X169.917 Y85.542 E20.65471
G1 X170.11 Y85.861 E20.67207
G1 X171.004 Y87.399 E20.75491
G1 X171.174 Y87.703 E20.77113
G1 X171.965 Y89.173 E20.84886
G1 X172.133 Y89.497 E20.86585
G1 X172.899 Y91.046 E20.94632
G1 X173.052 Y91.37 E20.963
G1 X173.762 Y92.937 E21.04311
G1 X173.905 Y93.268 E21.0599
G1 X174.586 Y94.918 E21.14302
G1 X174.717 Y95.251 E21.15968
G1 X175.297 Y96.803 E21.23683
G1 X175.419 Y97.146 E21.25378
G1 X175.975 Y98.805 E21.33525
G1 X176.082 Y99.146 E21.35189
G1 X176.58 Y100.817 E21.43309
G1 X176.678 Y101.167 E21.45001
G1 X177.109 Y102.818 E21.52946
G1 X177.194 Y103.165 E21.5461
G1 X177.575 Y104.856 E21.62681
G1 X177.647 Y105.202 E21.64327
G1 X177.965 Y106.871 E21.72238
G1 X178.028 Y107.237 E21.73968
G1 X178.294 Y108.959 E21.82081
G1 X178.342 Y109.309 E21.83726
G1 X178.549 Y111.027 E21.91784
G1 X178.586 Y111.392 E21.93492
G1 X178.732 Y113.099 E22.01469
G1 X178.757 Y113.452 E22.03117
G1 X178.848 Y115.202 E22.11277
G1 X178.86 Y115.56 E22.12945
G1 X178.891 Y117.267 E22.20895
G1 X178.892 Y117.633 E22.22599
G1 X178.863 Y119.401 E22.30833
G1 X178.85 Y119.766 E22.32533
G1 X178.764 Y121.456 E22.40413
G1 X178.741 Y121.801 E22.42023
G1 X178.599 Y123.498 E22.49952
G1 X178.562 Y123.862 E22.51656
G1 X178.355 Y125.608 E22.59843
G1 X178.305 Y125.975 E22.61568
G1 X178.046 Y127.655 E22.69483
G1 X177.988 Y127.995 E22.71089
G1 X177.673 Y129.674 E22.79044
G1 X177.599 Y130.036 E22.80764
G1 X177.213 Y131.759 E22.88986
G1 X177.128 Y132.111 E22.90672
G1 X176.699 Y133.76 E22.98606
G1 X176.604 Y134.098 E23.00241
G1 X176.112 Y135.761 E23.08317
G1 X176.003 Y136.11 E23.10019
G1 X175.443 Y137.788 E23.18256
G1 X175.323 Y138.128 E23.19935
G1 X174.734 Y139.711 E23.278
G1 X174.601 Y140.049 E23.29491
G1 X173.936 Y141.665 E23.37628
G1 X173.793 Y141.997 E23.39311
G1 X173.101 Y143.528 E23.47135
G1 X172.952 Y143.843 E23.48757
G1 X172.192 Y145.387 E23.56771
G1 X172.027 Y145.709 E23.58455
G1 X171.217 Y147.222 E23.66447
G1 X171.04 Y147.539 E23.68137
G1 X170.155 Y149.064 E23.76347
G1 X169.97 Y149.371 E23.78016
G1 X169.058 Y150.827 E23.86016
G1 X168.86 Y151.132 E23.8771
G1 X167.897 Y152.558 E23.95722
G1 X167.693 Y152.849 E23.97377
G1 X166.693 Y154.228 E24.05309
G1 X166.476 Y154.517 E24.06991
G1 X165.397 Y155.903 E24.1517
G1 X165.169 Y156.186 E24.16863
G1 X164.054 Y157.521 E24.24962
G1 X163.815 Y157.797 E24.26662
G1 X162.694 Y159.049 E24.34487
G1 X162.455 Y159.307 E24.36125
G1 X161.251 Y160.565 E24.44233
G1 X161 Y160.818 E24.45892
G1 X159.744 Y162.045 E24.54069
G1 X159.487 Y162.288 E24.55715
G1 X158.269 Y163.401 E24.63398
G1 X157.992 Y163.645 E24.65117
G1 X156.656 Y164.783 E24.73289
G1 X156.378 Y165.013 E24.74969
G1 X155 Y166.108 E24.83165
G1 X154.706 Y166.333 E24.84889
G1 X153.31 Y167.365 E24.92972
G1 X153.02 Y167.572 E24.94632
G1 X151.617 Y168.538 E25.02563
